(1001)
(T1 D=6. CR=0. - ZMIN=-3. - FLAT END MILL)
G90 G94 G91.1 G40 G49 G17
G21
G28 G91 Z0.
G90

(FACE1)
T1 M6
S5000 M3
G17 G90 G94
G54
M8
G0 X528.9 Y-408.373
G43 Z10. H1
G0 Z5.
G1 Z-2.4 F333.
G18 G3 X528.3 Z-3. I-0.6 K0. F1000.
G1 X528.01
X-528.01
G17 G2 Y-403.791 I0. J2.291
G1 X528.01
G3 Y-399.21 I0. J2.291
G1 X-528.01
G2 Y-394.629 I0. J2.291
G1 X528.01
G3 Y-390.047 I0. J2.291
G1 X-528.01
G2 Y-385.466 I0. J2.291
G1 X528.01
G3 Y-380.885 I0. J2.291
G1 X-528.01
G2 Y-376.303 I0. J2.291
G1 X528.01
G3 Y-371.722 I0. J2.291
G1 X-528.01
G2 Y-367.141 I0. J2.291
G1 X528.01
G3 Y-362.559 I0. J2.291
G1 X-528.01
G2 Y-357.978 I0. J2.291
G1 X528.01
G3 Y-353.397 I0. J2.291
G1 X-528.01
G2 Y-348.815 I0. J2.291
G1 X528.01
G3 Y-344.234 I0. J2.291
G1 X-528.01
G2 Y-339.653 I0. J2.291
G1 X528.01
G3 Y-335.071 I0. J2.291
G1 X-528.01
G2 Y-330.49 I0. J2.291
G1 X528.01
G3 Y-325.909 I0. J2.291
G1 X-528.01
G2 Y-321.327 I0. J2.291
G1 X528.01
G3 Y-316.746 I0. J2.291
G1 X-528.01
G2 Y-312.165 I0. J2.291
G1 X528.01
G3 Y-307.583 I0. J2.291
G1 X-528.01
G2 Y-303.002 I0. J2.291
G1 X528.01
G3 Y-298.421 I0. J2.291
G1 X-528.01
G2 Y-293.839 I0. J2.291
G1 X528.01
G3 Y-289.258 I0. J2.291
G1 X-528.01
G2 Y-284.677 I0. J2.291
G1 X528.01
G3 Y-280.095 I0. J2.291
G1 X-528.01
G2 Y-275.514 I0. J2.291
G1 X528.01
G3 Y-270.933 I0. J2.291
G1 X-528.01
G2 Y-266.351 I0. J2.291
G1 X528.01
G3 Y-261.77 I0. J2.291
G1 X-528.01
G2 Y-257.189 I0. J2.291
G1 X528.01
G3 Y-252.607 I0. J2.291
G1 X-528.01
G2 Y-248.026 I0. J2.291
G1 X528.01
G3 Y-243.445 I0. J2.291
G1 X-528.01
G2 Y-238.863 I0. J2.291
G1 X528.01
G3 Y-234.282 I0. J2.291
G1 X-528.01
G2 Y-229.701 I0. J2.291
G1 X528.01
G3 Y-225.119 I0. J2.291
G1 X-528.01
G2 Y-220.538 I0. J2.291
G1 X528.01
G3 Y-215.957 I0. J2.291
G1 X-528.01
G2 Y-211.376 I0. J2.291
G1 X528.01
G3 Y-206.794 I0. J2.291
G1 X-528.01
G2 Y-202.213 I0. J2.291
G1 X528.01
G3 Y-197.632 I0. J2.291
G1 X-528.01
G2 Y-193.05 I0. J2.291
G1 X528.01
G3 Y-188.469 I0. J2.291
G1 X-528.01
G2 Y-183.888 I0. J2.291
G1 X528.01
G3 Y-179.306 I0. J2.291
G1 X-528.01
G2 Y-174.725 I0. J2.291
G1 X528.01
G3 Y-170.144 I0. J2.291
G1 X-528.01
G2 Y-165.562 I0. J2.291
G1 X528.01
G3 Y-160.981 I0. J2.291
G1 X-528.01
G2 Y-156.4 I0. J2.291
G1 X528.01
G3 Y-151.818 I0. J2.291
G1 X-528.01
G2 Y-147.237 I0. J2.291
G1 X528.01
G3 Y-142.656 I0. J2.291
G1 X-528.01
G2 Y-138.074 I0. J2.291
G1 X528.01
G3 Y-133.493 I0. J2.291
G1 X-528.01
G2 Y-128.912 I0. J2.291
G1 X528.01
G3 Y-124.33 I0. J2.291
G1 X-528.01
G2 Y-119.749 I0. J2.291
G1 X528.01
G3 Y-115.168 I0. J2.291
G1 X-528.01
G2 Y-110.586 I0. J2.291
G1 X528.01
G3 Y-106.005 I0. J2.291
G1 X-528.01
G2 Y-101.424 I0. J2.291
G1 X528.01
G3 Y-96.842 I0. J2.291
G1 X-528.01
G2 Y-92.261 I0. J2.291
G1 X528.01
G3 Y-87.68 I0. J2.291
G1 X-528.01
G2 Y-83.098 I0. J2.291
G1 X528.01
G3 Y-78.517 I0. J2.291
G1 X-528.01
G2 Y-73.936 I0. J2.291
G1 X528.01
G3 Y-69.354 I0. J2.291
G1 X-528.01
G2 Y-64.773 I0. J2.291
G1 X528.01
G3 Y-60.192 I0. J2.291
G1 X-528.01
G2 Y-55.61 I0. J2.291
G1 X528.01
G3 Y-51.029 I0. J2.291
G1 X-528.01
G2 Y-46.448 I0. J2.291
G1 X528.01
G3 Y-41.866 I0. J2.291
G1 X-528.01
G2 Y-37.285 I0. J2.291
G1 X528.01
G3 Y-32.704 I0. J2.291
G1 X-528.01
G2 Y-28.122 I0. J2.291
G1 X528.01
G3 Y-23.541 I0. J2.291
G1 X-528.01
G2 Y-18.96 I0. J2.291
G1 X528.01
G3 Y-14.378 I0. J2.291
G1 X-528.01
G2 Y-9.797 I0. J2.291
G1 X528.01
G3 Y-5.216 I0. J2.291
G1 X-528.01
G2 Y-0.634 I0. J2.291
G1 X528.01
G3 Y3.947 I0. J2.291
G1 X-528.01
G2 Y8.528 I0. J2.291
G1 X528.01
G3 Y13.11 I0. J2.291
G1 X-528.01
G2 Y17.691 I0. J2.291
G1 X528.01
G3 Y22.272 I0. J2.291
G1 X-528.01
G2 Y26.854 I0. J2.291
G1 X528.01
G3 Y31.435 I0. J2.291
G1 X-528.01
G2 Y36.016 I0. J2.291
G1 X528.01
G3 Y40.598 I0. J2.291
G1 X-528.01
G2 Y45.179 I0. J2.291
G1 X528.01
G3 Y49.76 I0. J2.291
G1 X-528.01
G2 Y54.342 I0. J2.291
G1 X528.01
G3 Y58.923 I0. J2.291
G1 X-528.01
G2 Y63.504 I0. J2.291
G1 X528.01
G3 Y68.086 I0. J2.291
G1 X-528.01
G2 Y72.667 I0. J2.291
G1 X528.01
G3 Y77.248 I0. J2.291
G1 X-528.01
G2 Y81.83 I0. J2.291
G1 X528.01
G3 Y86.411 I0. J2.291
G1 X-528.01
G2 Y90.992 I0. J2.291
G1 X528.01
G3 Y95.574 I0. J2.291
G1 X-528.01
G2 Y100.155 I0. J2.291
G1 X528.01
G3 Y104.736 I0. J2.291
G1 X-528.01
G2 Y109.318 I0. J2.291
G1 X528.01
G3 Y113.899 I0. J2.291
G1 X-528.01
G2 Y118.48 I0. J2.291
G1 X528.01
G3 Y123.062 I0. J2.291
G1 X-528.01
G2 Y127.643 I0. J2.291
G1 X528.01
G3 Y132.224 I0. J2.291
G1 X-528.01
G2 Y136.806 I0. J2.291
G1 X528.01
G3 Y141.387 I0. J2.291
G1 X-528.01
G2 Y145.968 I0. J2.291
G1 X528.01
G3 Y150.55 I0. J2.291
G1 X-528.01
G2 Y155.131 I0. J2.291
G1 X528.01
G3 Y159.712 I0. J2.291
G1 X-528.01
G2 Y164.294 I0. J2.291
G1 X528.01
G3 Y168.875 I0. J2.291
G1 X-528.01
G2 Y173.456 I0. J2.291
G1 X528.01
G3 Y178.038 I0. J2.291
G1 X-528.01
G2 Y182.619 I0. J2.291
G1 X528.01
G3 Y187.2 I0. J2.291
G1 X-528.01
G2 Y191.782 I0. J2.291
G1 X528.01
G3 Y196.363 I0. J2.291
G1 X-528.01
G2 Y200.944 I0. J2.291
G1 X528.01
G3 Y205.525 I0. J2.291
G1 X-528.01
G2 Y210.107 I0. J2.291
G1 X528.01
G3 Y214.688 I0. J2.291
G1 X-528.01
G2 Y219.269 I0. J2.291
G1 X528.01
G3 Y223.851 I0. J2.291
G1 X-528.01
G2 Y228.432 I0. J2.291
G1 X528.01
G3 Y233.013 I0. J2.291
G1 X-528.01
G2 Y237.595 I0. J2.291
G1 X528.01
G3 Y242.176 I0. J2.291
G1 X-528.01
G2 Y246.757 I0. J2.291
G1 X528.01
G3 Y251.339 I0. J2.291
G1 X-528.01
G2 Y255.92 I0. J2.291
G1 X528.01
G3 Y260.501 I0. J2.291
G1 X-528.01
G2 Y265.083 I0. J2.291
G1 X528.01
G3 Y269.664 I0. J2.291
G1 X-528.01
G2 Y274.245 I0. J2.291
G1 X528.01
G3 Y278.827 I0. J2.291
G1 X-528.01
G2 Y283.408 I0. J2.291
G1 X528.01
G3 Y287.989 I0. J2.291
G1 X-528.01
G2 Y292.571 I0. J2.291
G1 X528.01
G3 Y297.152 I0. J2.291
G1 X-528.01
G2 Y301.733 I0. J2.291
G1 X528.01
G3 Y306.315 I0. J2.291
G1 X-528.01
G2 Y310.896 I0. J2.291
G1 X528.01
G3 Y315.477 I0. J2.291
G1 X-528.01
G2 Y320.059 I0. J2.291
G1 X528.01
G3 Y324.64 I0. J2.291
G1 X-528.01
G2 Y329.221 I0. J2.291
G1 X528.01
G3 Y333.803 I0. J2.291
G1 X-528.01
G2 Y338.384 I0. J2.291
G1 X528.01
G3 Y342.965 I0. J2.291
G1 X-528.01
G2 Y347.547 I0. J2.291
G1 X528.01
G3 Y352.128 I0. J2.291
G1 X-528.01
G2 Y356.709 I0. J2.291
G1 X528.01
G3 Y361.291 I0. J2.291
G1 X-528.01
G2 Y365.872 I0. J2.291
G1 X528.01
G3 Y370.453 I0. J2.291
G1 X-528.01
G2 Y375.035 I0. J2.291
G1 X528.01
G3 Y379.616 I0. J2.291
G1 X-528.01
G2 Y384.197 I0. J2.291
G1 X528.01
G3 Y388.779 I0. J2.291
G1 X-528.01
G2 Y393.36 I0. J2.291
G1 X528.01
G3 Y397.941 I0. J2.291
G1 X-528.01
G2 Y402.523 I0. J2.291
G1 X528.01
G3 Y407.104 I0. J2.291
G1 X-528.01
G18 G3 X-528.61 Z-2.4 I0. K0.6
G0 Z10.
G17

M9
M5
G28 G91 Z0.
G90
G28 G91 X0. Y0.
G90
M30
