(1001)
(T1 D=6. CR=0. - ZMIN=-3. - FLAT END MILL)
G90 G94 G91.1 G40 G49 G17
G21
G28 G91 Z0.
G90

(FACE1)
T1 M6
S5000 M3
G17 G90 G94
G54
M8
G0 X413.9 Y-523.369
G43 Z10. H1
G0 Z5.
G1 Z-2.4 F333.
G18 G3 X413.3 Z-3. I-0.6 K0. F1000.
G1 X413.01
X-413.01
G17 G2 Y-518.783 I0. J2.293
G1 X413.01
G3 Y-514.198 I0. J2.293
G1 X-413.01
G2 Y-509.612 I0. J2.293
G1 X413.01
G3 Y-505.027 I0. J2.293
G1 X-413.01
G2 Y-500.442 I0. J2.293
G1 X413.01
G3 Y-495.856 I0. J2.293
G1 X-413.01
G2 Y-491.271 I0. J2.293
G1 X413.01
G3 Y-486.685 I0. J2.293
G1 X-413.01
G2 Y-482.1 I0. J2.293
G1 X413.01
G3 Y-477.515 I0. J2.293
G1 X-413.01
G2 Y-472.929 I0. J2.293
G1 X413.01
G3 Y-468.344 I0. J2.293
G1 X-413.01
G2 Y-463.758 I0. J2.293
G1 X413.01
G3 Y-459.173 I0. J2.293
G1 X-413.01
G2 Y-454.587 I0. J2.293
G1 X413.01
G3 Y-450.002 I0. J2.293
G1 X-413.01
G2 Y-445.417 I0. J2.293
G1 X413.01
G3 Y-440.831 I0. J2.293
G1 X-413.01
G2 Y-436.246 I0. J2.293
G1 X413.01
G3 Y-431.66 I0. J2.293
G1 X-413.01
G2 Y-427.075 I0. J2.293
G1 X413.01
G3 Y-422.49 I0. J2.293
G1 X-413.01
G2 Y-417.904 I0. J2.293
G1 X413.01
G3 Y-413.319 I0. J2.293
G1 X-413.01
G2 Y-408.733 I0. J2.293
G1 X413.01
G3 Y-404.148 I0. J2.293
G1 X-413.01
G2 Y-399.563 I0. J2.293
G1 X413.01
G3 Y-394.977 I0. J2.293
G1 X-413.01
G2 Y-390.392 I0. J2.293
G1 X413.01
G3 Y-385.806 I0. J2.293
G1 X-413.01
G2 Y-381.221 I0. J2.293
G1 X413.01
G3 Y-376.636 I0. J2.293
G1 X-413.01
G2 Y-372.05 I0. J2.293
G1 X413.01
G3 Y-367.465 I0. J2.293
G1 X-413.01
G2 Y-362.879 I0. J2.293
G1 X413.01
G3 Y-358.294 I0. J2.293
G1 X-413.01
G2 Y-353.709 I0. J2.293
G1 X413.01
G3 Y-349.123 I0. J2.293
G1 X-413.01
G2 Y-344.538 I0. J2.293
G1 X413.01
G3 Y-339.952 I0. J2.293
G1 X-413.01
G2 Y-335.367 I0. J2.293
G1 X413.01
G3 Y-330.782 I0. J2.293
G1 X-413.01
G2 Y-326.196 I0. J2.293
G1 X413.01
G3 Y-321.611 I0. J2.293
G1 X-413.01
G2 Y-317.025 I0. J2.293
G1 X413.01
G3 Y-312.44 I0. J2.293
G1 X-413.01
G2 Y-307.854 I0. J2.293
G1 X413.01
G3 Y-303.269 I0. J2.293
G1 X-413.01
G2 Y-298.684 I0. J2.293
G1 X413.01
G3 Y-294.098 I0. J2.293
G1 X-413.01
G2 Y-289.513 I0. J2.293
G1 X413.01
G3 Y-284.927 I0. J2.293
G1 X-413.01
G2 Y-280.342 I0. J2.293
G1 X413.01
G3 Y-275.757 I0. J2.293
G1 X-413.01
G2 Y-271.171 I0. J2.293
G1 X413.01
G3 Y-266.586 I0. J2.293
G1 X-413.01
G2 Y-262. I0. J2.293
G1 X413.01
G3 Y-257.415 I0. J2.293
G1 X-413.01
G2 Y-252.83 I0. J2.293
G1 X413.01
G3 Y-248.244 I0. J2.293
G1 X-413.01
G2 Y-243.659 I0. J2.293
G1 X413.01
G3 Y-239.073 I0. J2.293
G1 X-413.01
G2 Y-234.488 I0. J2.293
G1 X413.01
G3 Y-229.903 I0. J2.293
G1 X-413.01
G2 Y-225.317 I0. J2.293
G1 X413.01
G3 Y-220.732 I0. J2.293
G1 X-413.01
G2 Y-216.146 I0. J2.293
G1 X413.01
G3 Y-211.561 I0. J2.293
G1 X-413.01
G2 Y-206.976 I0. J2.293
G1 X413.01
G3 Y-202.39 I0. J2.293
G1 X-413.01
G2 Y-197.805 I0. J2.293
G1 X413.01
G3 Y-193.219 I0. J2.293
G1 X-413.01
G2 Y-188.634 I0. J2.293
G1 X413.01
G3 Y-184.049 I0. J2.293
G1 X-413.01
G2 Y-179.463 I0. J2.293
G1 X413.01
G3 Y-174.878 I0. J2.293
G1 X-413.01
G2 Y-170.292 I0. J2.293
G1 X413.01
G3 Y-165.707 I0. J2.293
G1 X-413.01
G2 Y-161.122 I0. J2.293
G1 X413.01
G3 Y-156.536 I0. J2.293
G1 X-413.01
G2 Y-151.951 I0. J2.293
G1 X413.01
G3 Y-147.365 I0. J2.293
G1 X-413.01
G2 Y-142.78 I0. J2.293
G1 X413.01
G3 Y-138.194 I0. J2.293
G1 X-413.01
G2 Y-133.609 I0. J2.293
G1 X413.01
G3 Y-129.024 I0. J2.293
G1 X-413.01
G2 Y-124.438 I0. J2.293
G1 X413.01
G3 Y-119.853 I0. J2.293
G1 X-413.01
G2 Y-115.267 I0. J2.293
G1 X413.01
G3 Y-110.682 I0. J2.293
G1 X-413.01
G2 Y-106.097 I0. J2.293
G1 X413.01
G3 Y-101.511 I0. J2.293
G1 X-413.01
G2 Y-96.926 I0. J2.293
G1 X413.01
G3 Y-92.34 I0. J2.293
G1 X-413.01
G2 Y-87.755 I0. J2.293
G1 X413.01
G3 Y-83.17 I0. J2.293
G1 X-413.01
G2 Y-78.584 I0. J2.293
G1 X413.01
G3 Y-73.999 I0. J2.293
G1 X-413.01
G2 Y-69.413 I0. J2.293
G1 X413.01
G3 Y-64.828 I0. J2.293
G1 X-413.01
G2 Y-60.243 I0. J2.293
G1 X413.01
G3 Y-55.657 I0. J2.293
G1 X-413.01
G2 Y-51.072 I0. J2.293
G1 X413.01
G3 Y-46.486 I0. J2.293
G1 X-413.01
G2 Y-41.901 I0. J2.293
G1 X413.01
G3 Y-37.316 I0. J2.293
G1 X-413.01
G2 Y-32.73 I0. J2.293
G1 X413.01
G3 Y-28.145 I0. J2.293
G1 X-413.01
G2 Y-23.559 I0. J2.293
G1 X413.01
G3 Y-18.974 I0. J2.293
G1 X-413.01
G2 Y-14.389 I0. J2.293
G1 X413.01
G3 Y-9.803 I0. J2.293
G1 X-413.01
G2 Y-5.218 I0. J2.293
G1 X413.01
G3 Y-0.632 I0. J2.293
G1 X-413.01
G2 Y3.953 I0. J2.293
G1 X413.01
G3 Y8.539 I0. J2.293
G1 X-413.01
G2 Y13.124 I0. J2.293
G1 X413.01
G3 Y17.709 I0. J2.293
G1 X-413.01
G2 Y22.295 I0. J2.293
G1 X413.01
G3 Y26.88 I0. J2.293
G1 X-413.01
G2 Y31.466 I0. J2.293
G1 X413.01
G3 Y36.051 I0. J2.293
G1 X-413.01
G2 Y40.636 I0. J2.293
G1 X413.01
G3 Y45.222 I0. J2.293
G1 X-413.01
G2 Y49.807 I0. J2.293
G1 X413.01
G3 Y54.393 I0. J2.293
G1 X-413.01
G2 Y58.978 I0. J2.293
G1 X413.01
G3 Y63.563 I0. J2.293
G1 X-413.01
G2 Y68.149 I0. J2.293
G1 X413.01
G3 Y72.734 I0. J2.293
G1 X-413.01
G2 Y77.32 I0. J2.293
G1 X413.01
G3 Y81.905 I0. J2.293
G1 X-413.01
G2 Y86.49 I0. J2.293
G1 X413.01
G3 Y91.076 I0. J2.293
G1 X-413.01
G2 Y95.661 I0. J2.293
G1 X413.01
G3 Y100.247 I0. J2.293
G1 X-413.01
G2 Y104.832 I0. J2.293
G1 X413.01
G3 Y109.417 I0. J2.293
G1 X-413.01
G2 Y114.003 I0. J2.293
G1 X413.01
G3 Y118.588 I0. J2.293
G1 X-413.01
G2 Y123.174 I0. J2.293
G1 X413.01
G3 Y127.759 I0. J2.293
G1 X-413.01
G2 Y132.344 I0. J2.293
G1 X413.01
G3 Y136.93 I0. J2.293
G1 X-413.01
G2 Y141.515 I0. J2.293
G1 X413.01
G3 Y146.101 I0. J2.293
G1 X-413.01
G2 Y150.686 I0. J2.293
G1 X413.01
G3 Y155.272 I0. J2.293
G1 X-413.01
G2 Y159.857 I0. J2.293
G1 X413.01
G3 Y164.442 I0. J2.293
G1 X-413.01
G2 Y169.028 I0. J2.293
G1 X413.01
G3 Y173.613 I0. J2.293
G1 X-413.01
G2 Y178.199 I0. J2.293
G1 X413.01
G3 Y182.784 I0. J2.293
G1 X-413.01
G2 Y187.369 I0. J2.293
G1 X413.01
G3 Y191.955 I0. J2.293
G1 X-413.01
G2 Y196.54 I0. J2.293
G1 X413.01
G3 Y201.126 I0. J2.293
G1 X-413.01
G2 Y205.711 I0. J2.293
G1 X413.01
G3 Y210.296 I0. J2.293
G1 X-413.01
G2 Y214.882 I0. J2.293
G1 X413.01
G3 Y219.467 I0. J2.293
G1 X-413.01
G2 Y224.053 I0. J2.293
G1 X413.01
G3 Y228.638 I0. J2.293
G1 X-413.01
G2 Y233.223 I0. J2.293
G1 X413.01
G3 Y237.809 I0. J2.293
G1 X-413.01
G2 Y242.394 I0. J2.293
G1 X413.01
G3 Y246.98 I0. J2.293
G1 X-413.01
G2 Y251.565 I0. J2.293
G1 X413.01
G3 Y256.15 I0. J2.293
G1 X-413.01
G2 Y260.736 I0. J2.293
G1 X413.01
G3 Y265.321 I0. J2.293
G1 X-413.01
G2 Y269.907 I0. J2.293
G1 X413.01
G3 Y274.492 I0. J2.293
G1 X-413.01
G2 Y279.077 I0. J2.293
G1 X413.01
G3 Y283.663 I0. J2.293
G1 X-413.01
G2 Y288.248 I0. J2.293
G1 X413.01
G3 Y292.834 I0. J2.293
G1 X-413.01
G2 Y297.419 I0. J2.293
G1 X413.01
G3 Y302.005 I0. J2.293
G1 X-413.01
G2 Y306.59 I0. J2.293
G1 X413.01
G3 Y311.175 I0. J2.293
G1 X-413.01
G2 Y315.761 I0. J2.293
G1 X413.01
G3 Y320.346 I0. J2.293
G1 X-413.01
G2 Y324.932 I0. J2.293
G1 X413.01
G3 Y329.517 I0. J2.293
G1 X-413.01
G2 Y334.102 I0. J2.293
G1 X413.01
G3 Y338.688 I0. J2.293
G1 X-413.01
G2 Y343.273 I0. J2.293
G1 X413.01
G3 Y347.859 I0. J2.293
G1 X-413.01
G2 Y352.444 I0. J2.293
G1 X413.01
G3 Y357.029 I0. J2.293
G1 X-413.01
G2 Y361.615 I0. J2.293
G1 X413.01
G3 Y366.2 I0. J2.293
G1 X-413.01
G2 Y370.786 I0. J2.293
G1 X413.01
G3 Y375.371 I0. J2.293
G1 X-413.01
G2 Y379.956 I0. J2.293
G1 X413.01
G3 Y384.542 I0. J2.293
G1 X-413.01
G2 Y389.127 I0. J2.293
G1 X413.01
G3 Y393.713 I0. J2.293
G1 X-413.01
G2 Y398.298 I0. J2.293
G1 X413.01
G3 Y402.883 I0. J2.293
G1 X-413.01
G2 Y407.469 I0. J2.293
G1 X413.01
G3 Y412.054 I0. J2.293
G1 X-413.01
G2 Y416.64 I0. J2.293
G1 X413.01
G3 Y421.225 I0. J2.293
G1 X-413.01
G2 Y425.81 I0. J2.293
G1 X413.01
G3 Y430.396 I0. J2.293
G1 X-413.01
G2 Y434.981 I0. J2.293
G1 X413.01
G3 Y439.567 I0. J2.293
G1 X-413.01
G2 Y444.152 I0. J2.293
G1 X413.01
G3 Y448.737 I0. J2.293
G1 X-413.01
G2 Y453.323 I0. J2.293
G1 X413.01
G3 Y457.908 I0. J2.293
G1 X-413.01
G2 Y462.494 I0. J2.293
G1 X413.01
G3 Y467.079 I0. J2.293
G1 X-413.01
G2 Y471.665 I0. J2.293
G1 X413.01
G3 Y476.25 I0. J2.293
G1 X-413.01
G2 Y480.835 I0. J2.293
G1 X413.01
G3 Y485.421 I0. J2.293
G1 X-413.01
G2 Y490.006 I0. J2.293
G1 X413.01
G3 Y494.592 I0. J2.293
G1 X-413.01
G2 Y499.177 I0. J2.293
G1 X413.01
G3 Y503.762 I0. J2.293
G1 X-413.01
G2 Y508.348 I0. J2.293
G1 X413.01
G3 Y512.933 I0. J2.293
G1 X-413.01
G2 Y517.519 I0. J2.293
G1 X413.01
G3 Y522.104 I0. J2.293
G1 X-413.01
G18 G3 X-413.61 Z-2.4 I0. K0.6
G0 Z10.
G17

M9
M5
G28 G91 Z0.
G90
G28 G91 X0. Y0.
G90
M30
