(3MM-ADAPTIVE)
(T2 D=3. CR=0. - ZMIN=-28.68 - FLAT END MILL)
G90 G94 G91.1 G40 G49 G17
G21
G28 G91 Z0.
G90

(ADAPTIVE2 2)
T2 M6
S5000 M3
G17 G90 G94
G54
M8
G0 X265.853 Y305.082
G43 Z2.51 H2
G0 Z-1.79
G1 Z-2.09 F1000.
X265.847 Y305.086 Z-2.157
X265.828 Y305.097 Z-2.22
X265.797 Y305.115 Z-2.277
X265.756 Y305.139 Z-2.325
X265.707 Y305.169 Z-2.36
X265.653 Y305.201 Z-2.382
X265.595 Y305.235 Z-2.39
G3 X264.012 Y305.7 I-1.699 J-2.858
G1 X236.505
G3 X234.815 Y304.318 I0.191 J-1.958
X234.729 Y303.726 I1.881 J-0.575 F900.
G1 X234.829 Y303.644 F1000.
G3 X235.218 Y303.677 Z-2.21 I0.175 J0.244
G1 X235.251 Y303.711 Z-2.19
X235.443 Y303.905
X236.673 Y305.154
X236.708 Y305.19
X236.743 Y305.233
X236.77 Y305.282
X236.787 Y305.335
X236.794 Y305.39
G3 X236.505 Y305.7 Z-2.39 I-0.3 J0.01
G1 X234.945
G3 X233.917 Y305.332 I0.006 J-1.638
X233.531 Y304.877 I1.034 J-1.27 F900.
G1 X233.528 Y304.758 F1000.
X233.565 Y304.647
X233.642 Y304.559
G3 X233.958 Y304.538 Z-2.248 I0.175 J0.244
G1 X234.079 Y304.603 Z-2.19
X234.321 Y304.732
X235.076 Y305.136
X235.093 Y305.146
X235.11 Y305.157
G3 X235.235 Y305.39 I-0.175 J0.243
X234.945 Y305.7 Z-2.39 I-0.3 J0.01
G1 X233.386
X233.236 Y305.693 F900.
X233.092 Y305.649
X232.955 Y305.582
X232.862 Y305.478
X232.826 Y305.343
X232.855 Y305.206
X232.943 Y305.098 F1000.
G3 X233.276 Y304.942 Z-2.233 I0.582 J0.813
G1 X233.326 Y304.933 Z-2.212
X233.376 Y304.93 Z-2.19
G3 X233.738 Y305.434 I-0.004 J0.385
X233.386 Y305.7 Z-2.39 I-0.366 J-0.118
G1 X233.102
X233.031 Y305.698
X232.996 Y305.691
X232.96 Y305.68
X232.922 Y305.661
X232.884 Y305.636 F900.
X232.851 Y305.609
X232.818 Y305.573
X232.793 Y305.534
X232.775 Y305.494
X232.764 Y305.459
X232.758 Y305.423
X232.756 Y305.388
X232.758 Y305.352
X232.765 Y305.317
X232.776 Y305.281
X232.792 Y305.246
X232.818 Y305.206
X232.854 Y305.168 F1000.
X232.889 Y305.139
X238.915 Y300.495
X239.057 Y300.382
X239.482 Y300.035
X246.82 Y294.009
G3 X247.28 Y294.363 I0.182 J0.238
G1 X247.254 Y294.424 Z-2.382
X247.229 Y294.483 Z-2.36
X247.208 Y294.535 Z-2.325
X247.189 Y294.579 Z-2.277
X247.176 Y294.612 Z-2.22
X247.167 Y294.633 Z-2.157
X247.164 Y294.639 Z-2.09
G0 Z2.51
X289.753 Y252.82
Z-1.79
G1 Z-2.09 F1000.
X289.754 Y252.813 Z-2.157
X289.757 Y252.791 Z-2.22
X289.763 Y252.755 Z-2.277
X289.771 Y252.709 Z-2.325
X289.78 Y252.652 Z-2.36
X289.79 Y252.59 Z-2.382
X289.801 Y252.524 Z-2.39
G3 X290.464 Y251.013 I3.281 J0.537
G1 X294.355 Y246.373
G3 X294.585 Y246.265 Z-2.279 I0.23 J0.193
G1 X294.637 Y246.261 Z-2.257
X294.687 Y246.247 Z-2.234
X294.735 Y246.225 Z-2.212
X294.777 Y246.195 Z-2.19
X294.815 Y246.157
X294.956 Y245.988
X299.171 Y240.914
G2 X299.016 Y240.432 I-0.231 J-0.192
G3 X298.153 Y240.15 I1.944 J-7.408
G1 X297.9 Y240.045
X297.474 Y239.844 Z-2.39
G2 X296.907 Y239.661 I-0.777 J1.437
G1 X288.825 Y238.108
X288.683 Y238.08
X280.601 Y236.375
X280.318 Y236.312
X272.378 Y234.487
X272.3 Y234.47
G3 X272.071 Y234.112 Z-2.19 I0.065 J-0.293
X272.657 Y234.241 I0.293 J0.064
X272.16 Y234.397 I-0.293 J-0.064
G1 X271.295 Y233.593
G3 X271.704 Y233.153 I0.204 J-0.22
X271.765 Y233.513 I-0.204 J0.22
X271.294 Y234.289 I-6.775 J-3.572
G1 X271.135 Y234.512
X270.842 Y234.881 Z-2.39
X270.534 Y235.221
X263.303 Y243.294
X263.217 Y243.389
X262.878 Y243.746
X255.504 Y251.471
X255.363 Y251.615
X255.079 Y251.897
X251.908 Y255.016
G3 X251.484 Y255.012 Z-2.19 I-0.21 J-0.214
X251.399 Y254.772 I0.214 J-0.21
G1 X251.4 Y254.761
X251.465 Y254.114
G3 X251.817 Y253.848 I0.298 J0.03
X252.054 Y254.22 I-0.053 J0.295
X251.699 Y255.069 I-3.215 J-0.846
G1 X251.55 Y255.298
G3 X251.251 Y255.661 Z-2.39 I-2.711 J-1.924
G1 X247.423 Y259.426
X247.139 Y259.697
X239.151 Y267.068
X238.915 Y267.284
X238.839 Y267.352
X230.408 Y274.651
X230.32 Y274.725
X229.699 Y275.231
X221.759 Y281.676
X221.406 Y281.956
X221.333 Y282.013
X212.542 Y288.698
X212.457 Y288.762
X203.468 Y295.16
X203.184 Y295.359
X203.043 Y295.455
X193.915 Y301.524
X193.684 Y301.671
X193.47 Y301.807
X187.297 Y305.636
X187.23 Y305.672
X187.196 Y305.685
X187.162 Y305.694
X187.127 Y305.699
X187.091 Y305.7
X-187.091
X-187.127 Y305.699
X-187.162 Y305.694
X-187.196 Y305.685
X-187.23 Y305.672
X-187.304 Y305.632
X-193.47 Y301.807
X-193.826 Y301.581
X-193.915 Y301.524
X-203.085 Y295.427
X-203.184 Y295.359
X-203.491 Y295.143
X-205.878 Y293.445
G3 X-205.949 Y293.026 Z-2.19 I0.174 J-0.244
G1 X-205.913 Y292.984
X-205.87 Y292.95
X-205.821 Y292.924
X-205.768 Y292.907
X-205.717 Y292.896
X-205.208 Y292.786
G3 X-204.846 Y293.06 I0.063 J0.293
X-205.17 Y293.378 I-0.299 J0.02
X-206.067 Y293.177 I0.273 J-3.314
G1 X-206.319 Y293.07
G3 X-206.729 Y292.839 Z-2.39 I1.422 J-3.005
G1 X-212.457 Y288.762
X-214.953 Y286.865
X-221.333 Y282.013
X-221.406 Y281.956
X-221.763 Y281.673
X-229.983 Y275.
X-230.32 Y274.725
X-230.408 Y274.651
X-238.839 Y267.352
X-238.915 Y267.284
X-239.341 Y266.893
X-247.141 Y259.695
X-247.423 Y259.426
X-255.081 Y251.896
X-255.365 Y251.613
X-255.505 Y251.47
X-263.02 Y243.597
X-263.217 Y243.389
X-263.345 Y243.247
X-270.585 Y235.165
X-270.818 Y234.908
X-270.855 Y234.853 Z-2.362
X-270.879 Y234.79 Z-2.333
X-270.889 Y234.725 Z-2.305
X-270.898 Y234.454 Z-2.19
X-270.903 Y234.301
G2 X-271.218 Y234.145 I-0.2 J0.007
G1 X-271.259 Y234.172
G3 X-271.499 Y234.303 I-0.872 J-1.321
X-271.952 Y234.424 Z-2.39 I-0.632 J-1.451
G1 X-272.094 Y234.435
X-272.236 Y234.456
X-272.378 Y234.487
X-280.318 Y236.312
X-280.601 Y236.375
X-288.683 Y238.08
X-289.251 Y238.19
X-296.702 Y239.621
G3 X-296.936 Y239.091 I-0.046 J-0.296
G1 X-296.884 Y239.049 Z-2.382
X-296.835 Y239.01 Z-2.36
X-296.791 Y238.974 Z-2.325
X-296.754 Y238.944 Z-2.277
X-296.726 Y238.922 Z-2.22
X-296.708 Y238.908 Z-2.157
X-296.703 Y238.903 Z-2.09
G0 Z2.51
X-249.672 Y292.468
Z-1.79
G1 Z-2.09 F1000.
X-249.664 Y292.469 Z-2.157
X-249.642 Y292.472 Z-2.22
X-249.607 Y292.477 Z-2.277
X-249.56 Y292.485 Z-2.325
X-249.504 Y292.493 Z-2.36
X-249.441 Y292.503 Z-2.382
X-249.375 Y292.513 Z-2.39
G3 X-247.856 Y293.158 I-0.5 J3.287
G1 X-239.341 Y300.151
X-239.048 Y300.39
X-238.915 Y300.495
X-235.654 Y303.008
G3 X-235.125 Y305.172 I-1.316 J1.469
X-235.417 Y305.693 I-1.846 J-0.695 F900.
G1 X-235.546 Y305.7 F1000.
G3 X-235.833 Y305.441 Z-2.212 I0.01 J-0.3
G1 X-235.84 Y305.39 Z-2.19
X-235.877 Y305.119
X-236.12 Y303.339
X-236.126 Y303.293
X-236.128 Y303.236
X-236.12 Y303.18
X-236.101 Y303.126
X-236.073 Y303.077
G3 X-235.654 Y303.008 Z-2.39 I0.244 J0.175
G1 X-234.378 Y303.992
G3 X-233.769 Y305.024 I-0.923 J1.242
X-233.803 Y305.619 I-1.533 J0.21 F900.
G1 X-233.928 Y305.677 F1000.
X-234.042 Y305.7
G3 X-234.306 Y305.523 Z-2.248 I0.01 J-0.3
G1 X-234.362 Y305.398 Z-2.19
X-234.473 Y305.148
X-234.827 Y304.358
X-234.834 Y304.34
X-234.84 Y304.322
G3 X-234.797 Y304.061 I0.287 J-0.086
X-234.378 Y303.992 Z-2.39 I0.244 J0.175
G1 X-233.165 Y304.927
X-233.051 Y305.024 F900.
X-232.959 Y305.143
X-232.888 Y305.275
X-232.879 Y305.299
X-232.865 Y305.44
X-232.917 Y305.573
X-233.024 Y305.666
X-233.162 Y305.7 F1000.
G3 X-233.566 Y305.599 Z-2.212 I0.035 J-0.999
G1 X-233.611 Y305.574 Z-2.19
G3 X-233.608 Y304.917 I0.217 J-0.327
X-233.165 Y304.927 Z-2.39 I0.214 J0.329
G1 X-232.889 Y305.139
X-232.854 Y305.168
X-232.815 Y305.211
X-232.792 Y305.246
X-232.776 Y305.281
X-232.765 Y305.317
X-232.758 Y305.352
X-232.756 Y305.388
X-232.758 Y305.423
X-232.764 Y305.459
X-232.775 Y305.494
X-232.793 Y305.534
X-232.818 Y305.573
X-232.851 Y305.609
X-232.884 Y305.636
X-232.922 Y305.661
X-232.96 Y305.68
X-232.996 Y305.691
X-233.031 Y305.698
X-233.102 Y305.7
X-296.34
G3 X-296.63 Y305.401 I0.01 J-0.3
G1 X-296.629 Y305.376
X-296.611 Y305.326 Z-2.385
X-296.594 Y305.277 Z-2.371
X-296.578 Y305.232 Z-2.348
X-296.542 Y305.199 Z-2.311
X-296.511 Y305.172 Z-2.264
X-296.489 Y305.152 Z-2.21
X-296.475 Y305.14 Z-2.152
X-296.47 Y305.135 Z-2.09
G0 Z2.51
X-311.273 Y305.082
Z-1.79
G1 Z-2.09 F1000.
X-311.28 Y305.086 Z-2.157
X-311.299 Y305.097 Z-2.22
X-311.329 Y305.115 Z-2.277
X-311.37 Y305.139 Z-2.325
X-311.419 Y305.169 Z-2.36
X-311.474 Y305.201 Z-2.382
X-311.531 Y305.235 Z-2.39
G3 X-313.114 Y305.7 I-1.699 J-2.858
G1 X-313.715
X-314.064 F900.
X-314.206 Y305.699
X-314.241 Y305.694
X-314.276 Y305.685
X-314.312 Y305.673
X-314.347 Y305.656 F1000.
X-314.377 Y305.636
X-314.489 Y305.526
X-315.34 Y304.656
G3 X-315.335 Y304.232 Z-2.19 I0.214 J-0.21
G1 X-315.302 Y304.204
X-315.116 Y304.069
X-314.956 Y303.952
G3 X-314.603 Y304.438 I0.176 J0.243
X-314.857 Y304.485 I-0.176 J-0.243
X-315.704 Y304.128 I0.855 J-3.213
G1 X-315.933 Y303.978
G3 X-316.296 Y303.678 Z-2.39 I1.932 J-2.706
G1 X-317.467 Y302.481
X-317.608 Y302.332
X-317.835 Y302.091
X-325.456 Y293.867
X-325.587 Y293.725
X-325.713 Y293.583
X-333.307 Y284.934
X-333.489 Y284.719
X-340.74 Y276.001
X-340.968 Y275.717
X-348.093 Y266.67
X-348.235 Y266.481
X-351.071 Y262.674
G3 X-351.01 Y262.255 Z-2.19 I0.241 J-0.179
G1 X-350.964 Y262.227
X-350.914 Y262.207
X-350.862 Y262.197
X-350.808 Y262.196
X-350.749 Y262.2
X-350.25 Y262.237
G3 X-350.294 Y262.836 I-0.022 J0.299
X-350.387 Y262.814 I0.022 J-0.299
X-351.18 Y262.346 I1.277 J-3.07
G1 X-351.387 Y262.167
G3 X-351.706 Y261.822 Z-2.39 I2.276 J-2.424
G1 X-354.899 Y257.535
X-355.188 Y257.143
X-361.233 Y248.557
G3 X-360.846 Y248.125 I0.251 J-0.164
G1 X-360.787 Y248.155 Z-2.382
X-360.73 Y248.184 Z-2.36
X-360.679 Y248.21 Z-2.325
X-360.637 Y248.231 Z-2.277
X-360.605 Y248.247 Z-2.22
X-360.585 Y248.257 Z-2.157
X-360.579 Y248.261 Z-2.09
G0 Z2.51
X-365.57 Y247.139
Z-1.79
G1 Z-2.09 F1000.
Y247.147 Z-2.157
X-365.568 Y247.169 Z-2.22
X-365.566 Y247.205 Z-2.277
X-365.563 Y247.252 Z-2.325
X-365.559 Y247.309 Z-2.36
X-365.555 Y247.372 Z-2.382
X-365.551 Y247.439 Z-2.39
G3 X-365.855 Y249.06 I-3.318 J0.217
G1 X-370.115 Y257.426
X-370.258 Y257.71
X-370.461 Y258.135
X-374.172 Y265.934
G3 X-374.738 Y265.809 I-0.266 J-0.138
G1 X-374.74 Y265.742 Z-2.382
X-374.743 Y265.679 Z-2.36
X-374.746 Y265.622 Z-2.325
X-374.748 Y265.574 Z-2.277
X-374.75 Y265.539 Z-2.22
X-374.751 Y265.517 Z-2.157
Y265.509 Z-2.09
G0 Z2.51
X-384.444 Y288.24
Z-1.79
G1 Z-2.09 F1000.
X-384.443 Y288.247 Z-2.157
X-384.439 Y288.269 Z-2.22
X-384.433 Y288.304 Z-2.277
X-384.424 Y288.351 Z-2.325
X-384.415 Y288.407 Z-2.36
X-384.404 Y288.47 Z-2.382
X-384.392 Y288.535 Z-2.39
G3 X-384.52 Y290.18 I-3.275 J0.572
G1 X-385.329 Y292.307
G3 X-385.511 Y292.484 Z-2.279 I-0.28 J-0.107
G1 X-385.559 Y292.505 Z-2.257
X-385.602 Y292.535 Z-2.234
X-385.639 Y292.571 Z-2.212
X-385.67 Y292.613 Z-2.19
X-385.685 Y292.643
X-385.785 Y292.862
X-387.759 Y297.182
X-387.779 Y297.242
X-387.787 Y297.304
X-387.781 Y297.367
G3 X-387.724 Y298.285 I-3.259 J0.66
G1 X-387.757 Y298.556
G3 X-387.864 Y299.014 Z-2.39 I-3.282 J-0.529
G1 X-390.023 Y305.185
X-390.131 Y305.494 F900.
X-390.143 Y305.521
X-390.159 Y305.548
X-390.179 Y305.576
X-390.205 Y305.603
X-390.243 Y305.636
X-390.269 Y305.654
X-390.295 Y305.669
X-390.321 Y305.68
X-390.346 Y305.689
X-390.382 Y305.696 F1000.
X-390.417 Y305.7
X-446.495
G3 X-446.937 Y305.643 I-0.096 J-1.009
X-447.41 Y305.288 I0.347 J-0.952 F900.
G1 X-447.384 Y305.139 F1000.
G3 X-447.022 Y304.948 Z-2.199 I0.283 J0.099
G1 X-447.002 Y304.953 Z-2.19
X-446.738 Y305.026
X-446.426 Y305.111
G3 X-446.206 Y305.39 I-0.079 J0.289
X-446.495 Y305.7 Z-2.39 I-0.3 J0.01
G1 X-447.133
X-447.169 Y305.697
X-447.204 Y305.69
X-447.231 Y305.682
X-447.259 Y305.67
X-447.286 Y305.655
X-447.313 Y305.636
X-447.346 Y305.607
X-447.373 Y305.579
X-447.395 Y305.551
X-447.412 Y305.522
X-447.425 Y305.494
X-447.436 Y305.459
X-447.443 Y305.423
X-447.446 Y305.388
X-447.444 Y305.352
X-447.438 Y305.317
X-447.428 Y305.281
X-444.419 Y295.569
X-444.368 Y295.417
X-440.219 Y283.233
X-435.843 Y271.464
X-435.682 Y271.038
X-435.627 Y270.896
X-435.398 Y270.329
G3 X-435.212 Y270.156 Z-2.279 I0.278 J0.112
G1 X-435.178 Y270.143 Z-2.263
X-435.146 Y270.125 Z-2.248
X-435.031 Y270.053 Z-2.19
X-434.799 Y269.908
X-434.723 Y269.861
G2 X-434.586 Y269.561 I-0.159 J-0.254
G3 X-434.599 Y268.641 I3.286 J-0.506
G1 X-434.554 Y268.371
G3 X-434.425 Y267.919 Z-2.39 I3.254 J0.684
G1 X-430.875 Y259.128
X-430.816 Y258.986
X-428.346 Y253.327
G3 X-427.776 Y253.433 I0.271 J0.13
G1 X-427.771 Y253.5 Z-2.382
X-427.766 Y253.563 Z-2.36
X-427.762 Y253.62 Z-2.325
X-427.758 Y253.667 Z-2.277
X-427.756 Y253.703 Z-2.22
X-427.754 Y253.725 Z-2.157
X-427.753 Y253.733 Z-2.09
G0 Z2.51
X-424.982 Y244.952
Z-1.79
G1 Z-2.09 F1000.
X-424.989 Y244.953 Z-2.157
X-425.011 Y244.956 Z-2.22
X-425.047 Y244.961 Z-2.277
X-425.094 Y244.967 Z-2.325
X-425.15 Y244.975 Z-2.36
X-425.213 Y244.984 Z-2.382
X-425.279 Y244.993 Z-2.39
G3 X-426.928 Y245.042 I-1.051 J-7.587
G1 X-439.973 Y243.568
X-440.115 Y243.55
X-440.54 Y243.492
X-453.301 Y241.679
X-453.868 Y241.585
X-465.424 Y239.604
X-465.46 Y239.598
X-465.495 Y239.587
X-465.522 Y239.575
X-465.549 Y239.56
X-465.571 Y239.545
X-465.593 Y239.527
X-465.617 Y239.501
X-465.637 Y239.476
X-465.656 Y239.447
X-465.672 Y239.418
X-465.686 Y239.383
X-465.695 Y239.347
X-465.699 Y239.312
X-465.7 Y239.277
Y184.686
Y184.608
Y184.573
G3 X-465.272 Y183.962 I0.496 J-0.108
G1 X-465.207 Y183.987 Z-2.362
X-465.149 Y184.025 Z-2.334
X-465.101 Y184.075 Z-2.306
X-465.065 Y184.133 Z-2.278
X-465.044 Y184.198 Z-2.25
X-465.037 Y184.265 Z-2.222
X-465.046 Y184.332 Z-2.194
X-465.048 Y184.34 Z-2.19
X-465.103 Y184.608
X-465.106 Y184.623
G3 X-465.39 Y184.862 I-0.294 J-0.061
X-465.7 Y184.573 Z-2.39 I-0.01 J-0.3
G1 Y184.261
X-465.696 Y184.225
X-465.688 Y184.19
X-465.675 Y184.154
X-465.657 Y184.119
X-465.637 Y184.09
X-465.607 Y184.054
X-465.586 Y184.034
X-465.566 Y184.018
X-465.53 Y183.996
X-465.495 Y183.98
X-465.453 Y183.968
X-465.42 Y183.962
X-465.387 Y183.961
X-465.353 Y183.963
X-465.211 Y183.991
X-456.988 Y185.652
X-456.846 Y185.68
X-445.219 Y187.678
X-444.935 Y187.722
X-444.652 Y187.765
X-433.381 Y189.365
X-432.883 Y189.429
X-421.54 Y190.704
X-421.115 Y190.749
X-420.689 Y190.785
X-418.704 Y190.95
G3 X-418.621 Y191.524 I-0.035 J0.298
G1 X-418.683 Y191.55 Z-2.382
X-418.741 Y191.575 Z-2.36
X-418.793 Y191.598 Z-2.325
X-418.837 Y191.616 Z-2.277
X-418.87 Y191.63 Z-2.22
X-418.89 Y191.639 Z-2.157
X-418.897 Y191.642 Z-2.09
G0 Z2.51
X-410.509 Y192.288
Z-1.79
G1 Z-2.09 F1000.
X-410.502 Y192.284 Z-2.157
X-410.483 Y192.274 Z-2.22
X-410.451 Y192.258 Z-2.277
X-410.409 Y192.236 Z-2.325
X-410.358 Y192.209 Z-2.36
X-410.302 Y192.18 Z-2.382
X-410.243 Y192.149 Z-2.39
G3 X-408.637 Y191.769 I1.543 J2.945
G1 X-402.399 Y192.105
G3 X-402.175 Y192.224 Z-2.279 I-0.016 J0.3
G1 X-402.14 Y192.263 Z-2.257
X-402.099 Y192.295 Z-2.234
X-402.053 Y192.32 Z-2.212
X-402.003 Y192.336 Z-2.19
X-401.985 Y192.34
X-401.733 Y192.382
X-398.827 Y192.869
X-398.775 Y192.873
X-398.723 Y192.868
X-398.673 Y192.854
X-398.626 Y192.832
G3 X-397.775 Y192.482 I1.679 J2.87
G1 X-397.508 Y192.425
G3 X-397.039 Y192.378 Z-2.39 I0.56 J3.277
G2 X-395.834 Y191.633 I-0.093 J-1.498
G1 X-395.517 Y191.131
G3 X-395.104 Y191.036 Z-2.19 I0.254 J0.159
X-395.422 Y191.544 I-0.159 J0.254
X-395.469 Y191.071 I0.159 J-0.254
G1 X-394.61 Y190.264
G3 X-394.199 Y190.701 I0.206 J0.218
X-394.638 Y190.672 I-0.206 J-0.218
X-395.168 Y189.935 I5.941 J-4.834
G1 X-395.31 Y189.701
X-395.535 Y189.287 Z-2.39
X-397.462 Y185.111
X-400.732 Y178.022
X-400.923 Y177.596
X-405.943 Y165.804
X-405.991 Y165.686
X-406.227 Y165.086
X-410.622 Y153.84
X-410.764 Y153.473
X-415.018 Y141.554
X-415.16 Y141.151
X-419.13 Y128.884
X-419.275 Y128.394
X-422.741 Y116.483
X-422.823 Y116.2
X-424.732 Y108.827
G3 X-424.517 Y108.461 Z-2.19 I0.29 J-0.075
X-424.144 Y108.713 I0.075 J0.29
X-424.442 Y109.051 I-0.298 J0.038
X-424.709 Y108.614 I0. J-0.3
G1 X-424.418 Y108.049
G3 X-423.885 Y108.323 I0.267 J0.137
X-424.363 Y108.399 I-0.267 J-0.137
X-424.92 Y107.668 I2.341 J-2.361
G1 X-425.044 Y107.424
G3 X-425.21 Y106.983 Z-2.39 I3.022 J-1.386
G1 X-426.017 Y103.864
X-426.122 Y103.438
X-426.187 Y103.155
X-428.96 Y90.961
X-428.99 Y90.819
X-429.055 Y90.495
X-431.44 Y78.341
X-431.493 Y78.057
X-431.544 Y77.774
X-432.107 Y74.371
G3 X-431.86 Y74.026 Z-2.19 I0.296 J-0.049
X-431.762 Y74.618 I0.049 J0.296
X-432.091 Y74.214 I-0.049 J-0.296
G1 X-431.792 Y73.434
G3 X-431.231 Y73.649 I0.28 J0.108
X-431.741 Y73.735 I-0.28 J-0.108
X-432.231 Y72.957 I2.542 J-2.143
G1 X-432.333 Y72.703
G3 X-432.458 Y72.249 Z-2.39 I3.134 J-1.11
G1 X-433.585 Y65.438
X-433.652 Y65.012
X-435.374 Y52.251
X-435.436 Y51.684
X-436.713 Y39.489
X-436.754 Y39.064
X-436.776 Y38.781
X-437.708 Y26.303
X-437.716 Y26.161
X-437.738 Y25.736
X-438.29 Y13.399
X-438.301 Y13.116
X-438.306 Y12.974
X-438.496 Y0.213
Y-0.213
X-438.306 Y-12.974
X-438.296 Y-13.258
X-438.271 Y-13.825
X-437.738 Y-25.736
X-437.716 Y-26.161
X-437.704 Y-26.349
X-437.612 Y-27.579
G3 X-437.488 Y-27.8 Z-2.279 I0.299 J0.022
G1 X-437.444 Y-27.827 Z-2.257
X-437.395 Y-27.845 Z-2.234
X-437.343 Y-27.855 Z-2.212
X-437.291 Y-27.856 Z-2.19
G3 X-437.07 Y-27.732 I-0.022 J0.299
G1 X-437.063 Y-27.722
X-436.686 Y-27.198
G3 X-436.774 Y-26.766 I-0.243 J0.175
X-437.198 Y-26.889 I-0.155 J-0.257
X-437.49 Y-27.761 I2.976 J-1.482
G1 X-437.529 Y-28.032
G3 X-437.543 Y-28.502 Z-2.39 I3.307 J-0.339
G1 X-436.765 Y-38.922
X-436.754 Y-39.064
X-436.712 Y-39.505
X-435.421 Y-51.826
X-435.374 Y-52.251
X-433.652 Y-65.012
X-433.561 Y-65.579
X-431.544 Y-77.774
X-431.465 Y-78.207
X-431.412 Y-78.483
X-429.047 Y-90.535
X-428.99 Y-90.819
X-428.96 Y-90.961
X-426.155 Y-103.297
X-426.122 Y-103.438
X-426.017 Y-103.864
X-422.823 Y-116.2
X-422.659 Y-116.767
X-419.272 Y-128.407
X-419.13 Y-128.884
X-416.627 Y-136.618
G3 X-416.454 Y-136.804 Z-2.279 I0.285 J0.092
G1 X-416.407 Y-136.827 Z-2.257
X-416.366 Y-136.859 Z-2.234
X-416.33 Y-136.897 Z-2.212
X-416.302 Y-136.941 Z-2.19
X-416.175 Y-137.184
X-415.491 Y-138.493
X-415.471 Y-138.542
X-415.46 Y-138.593
X-415.458 Y-138.646
X-415.465 Y-138.698
G3 X-415.542 Y-139.615 I3.242 J-0.737
G1 X-415.516 Y-139.887
G3 X-415.42 Y-140.348 Z-2.39 I3.294 J0.452
G1 X-415.158 Y-141.155
X-414.958 Y-141.723
X-410.764 Y-153.473
X-410.538 Y-154.059
X-406.103 Y-165.402
X-405.991 Y-165.686
X-405.933 Y-165.828
X-400.923 Y-177.596
X-400.697 Y-178.098
X-395.434 Y-189.507
X-395.4 Y-189.585
G3 X-395.007 Y-189.743 Z-2.19 I0.276 J0.118
X-395.242 Y-189.191 I-0.118 J0.276
X-395.424 Y-189.467 I0.118 J-0.276
X-395.316 Y-189.698 I0.3 J0.
G1 X-394.892 Y-190.048
G3 X-394.51 Y-189.586 I0.191 J0.231
X-394.939 Y-189.635 I-0.191 J-0.231
G1 X-394.969 Y-189.674
G3 X-395.108 Y-189.909 I1.287 J-0.921
X-395.246 Y-190.358 Z-2.39 I1.426 J-0.686
G2 X-395.451 Y-191.025 I-1.488 J0.091
G1 X-395.833 Y-191.634
G3 X-395.424 Y-192.045 I0.259 J-0.151
G1 X-395.366 Y-192.011 Z-2.382
X-395.311 Y-191.98 Z-2.36
X-395.262 Y-191.951 Z-2.325
X-395.22 Y-191.928 Z-2.277
X-395.189 Y-191.91 Z-2.22
X-395.17 Y-191.899 Z-2.157
X-395.164 Y-191.895 Z-2.09
G0 Z2.51
X-419.633 Y-191.529
Z-1.79
G1 Z-2.09 F1000.
X-419.64 Y-191.525 Z-2.157
X-419.657 Y-191.512 Z-2.22
X-419.686 Y-191.49 Z-2.277
X-419.724 Y-191.462 Z-2.325
X-419.769 Y-191.428 Z-2.36
X-419.82 Y-191.39 Z-2.382
X-419.874 Y-191.35 Z-2.39
G3 X-421.398 Y-190.719 I-1.993 J-2.661
G1 X-421.824 Y-190.672
X-432.883 Y-189.429
X-433.381 Y-189.365
X-444.652 Y-187.765
X-445.077 Y-187.701
X-445.219 Y-187.678
X-456.854 Y-185.679
X-459.114 Y-185.222
X-464.928 Y-184.048
X-465.006 Y-184.032
X-465.041 Y-184.025
X-465.189 Y-184.003 F900.
X-465.423 Y-184.016
X-465.46 Y-184.024
X-465.583 Y-184.08
X-465.669 Y-184.185
X-465.7 Y-184.317 F1000.
G3 X-465.41 Y-184.607 Z-2.198 I0.3 J0.01
G1 X-465.39 Y-184.608 Z-2.19
X-465.121 Y-184.617
X-465.117
G3 X-464.819 Y-184.386 I0.006 J0.3
X-465.041 Y-184.025 Z-2.39 I-0.292 J0.069
G1 X-465.28 Y-183.977
X-465.353 Y-183.963 F900.
X-465.387 Y-183.961
X-465.42 Y-183.962
X-465.453 Y-183.968
X-465.495 Y-183.98
X-465.53 Y-183.996
X-465.566 Y-184.018
X-465.586 Y-184.034
X-465.607 Y-184.054
X-465.637 Y-184.09
X-465.657 Y-184.119
X-465.675 Y-184.154
X-465.688 Y-184.19
X-465.696 Y-184.225 F1000.
X-465.7 Y-184.261
Y-192.201
G3 X-465.593 Y-192.431 Z-2.279 I0.3 J0.
G1 X-465.444 Y-192.577 Z-2.19
X-465.248 Y-192.769
X-465.187 Y-192.829
G3 X-464.767 Y-192.4 I0.21 J0.214
X-465.235 Y-192.461 I-0.21 J-0.214
X-465.591 Y-193.309 I2.858 J-1.699
G1 X-465.65 Y-193.576
G3 X-465.7 Y-194.044 Z-2.39 I3.273 J-0.584
G1 Y-239.013
Y-239.277 F900.
X-465.699 Y-239.312
X-465.695 Y-239.347
X-465.686 Y-239.383
X-465.672 Y-239.418
X-465.656 Y-239.447
X-465.637 Y-239.476
X-465.617 Y-239.501
X-465.593 Y-239.527
X-465.571 Y-239.545
X-465.549 Y-239.56
X-465.522 Y-239.575 F1000.
X-465.495 Y-239.587
X-465.46 Y-239.598
X-465.353 Y-239.616
X-453.726 Y-241.609
X-453.301 Y-241.679
X-440.54 Y-243.492
X-440.115 Y-243.55
X-439.973 Y-243.568
X-435.01 Y-244.128
G3 X-434.817 Y-243.582 I0.023 J0.299
G1 X-434.872 Y-243.544 Z-2.382
X-434.925 Y-243.508 Z-2.36
X-434.972 Y-243.476 Z-2.325
X-435.011 Y-243.449 Z-2.277
X-435.04 Y-243.429 Z-2.22
X-435.058 Y-243.416 Z-2.157
X-435.065 Y-243.412 Z-2.09
G0 Z2.51
X-426.48 Y-250.598
Z-1.79
G1 Z-2.09 F1000.
X-426.487 Y-250.602 Z-2.157
X-426.505 Y-250.615 Z-2.22
X-426.534 Y-250.636 Z-2.277
X-426.572 Y-250.664 Z-2.325
X-426.618 Y-250.697 Z-2.36
X-426.67 Y-250.734 Z-2.382
X-426.724 Y-250.773 Z-2.39
G3 X-427.784 Y-252.038 I1.94 J-2.7
G1 X-430.816 Y-258.986
X-430.875 Y-259.128
X-431.324 Y-260.239
G3 X-431.158 Y-260.629 Z-2.19 I0.278 J-0.112
X-430.933 Y-260.073 I0.113 J0.278
X-431.337 Y-260.424 I-0.113 J-0.278
G1 X-431.163 Y-261.123
G3 X-430.581 Y-260.978 I0.291 J0.072
X-431.053 Y-260.811 I-0.291 J-0.072
X-431.701 Y-261.464 I2.014 J-2.646
G1 X-431.856 Y-261.69
G3 X-432.077 Y-262.105 Z-2.39 I2.816 J-1.767
G1 X-435.627 Y-270.896
X-435.736 Y-271.18
X-435.861 Y-271.511
X-440.219 Y-283.233
X-444.372 Y-295.427
X-444.419 Y-295.569
X-447.231 Y-304.643
G3 X-447.313 Y-304.995 I1.127 J-0.451
X-447.216 Y-305.58 I1.21 J-0.1 F900.
G1 X-447.111 Y-305.668
X-446.977 Y-305.7 F1000.
G3 X-446.688 Y-305.418 Z-2.202 I-0.01 J0.3
G1 X-446.686 Y-305.39 Z-2.19
X-446.669 Y-305.117
X-446.648 Y-304.76
G3 X-446.849 Y-304.459 I-0.299 J0.018
X-447.231 Y-304.643 Z-2.39 I-0.099 J-0.283
G1 X-447.397 Y-305.18
X-447.428 Y-305.281 F900.
X-447.438 Y-305.317
X-447.444 Y-305.352
X-447.446 Y-305.388
X-447.443 Y-305.423
X-447.436 Y-305.459
X-447.425 Y-305.494
X-447.412 Y-305.522
X-447.395 Y-305.551
X-447.373 Y-305.579
X-447.346 Y-305.607
X-447.313 Y-305.636
X-447.286 Y-305.655
X-447.259 Y-305.67
X-447.231 Y-305.682
X-447.204 Y-305.69
X-447.169 Y-305.697 F1000.
X-447.133 Y-305.7
X-439.547
G3 X-439.258 Y-305.401 I-0.01 J0.3
G1 X-439.259 Y-305.376
X-439.276 Y-305.326 Z-2.385
X-439.293 Y-305.277 Z-2.371
X-439.309 Y-305.232 Z-2.348
X-439.346 Y-305.199 Z-2.311
X-439.376 Y-305.172 Z-2.264
X-439.399 Y-305.152 Z-2.21
X-439.412 Y-305.14 Z-2.152
X-439.417 Y-305.135 Z-2.09
G0 Z2.51
X-407.217 Y-305.082
Z-1.79
G1 Z-2.09 F1000.
X-407.211 Y-305.086 Z-2.157
X-407.192 Y-305.097 Z-2.22
X-407.161 Y-305.115 Z-2.277
X-407.12 Y-305.139 Z-2.325
X-407.071 Y-305.169 Z-2.36
X-407.017 Y-305.201 Z-2.382
X-406.959 Y-305.235 Z-2.39
G3 X-405.376 Y-305.7 I1.699 J2.858
G1 X-390.741
X-390.417 F900.
X-390.382 Y-305.696
X-390.346 Y-305.689
X-390.321 Y-305.68
X-390.295 Y-305.669
X-390.269 Y-305.654
X-390.243 Y-305.636
X-390.205 Y-305.603
X-390.179 Y-305.576
X-390.159 Y-305.548 F1000.
X-390.143 Y-305.521
X-390.131 Y-305.494
X-388.246 Y-300.106
X-388.234 Y-300.058 Z-2.369
X-388.229 Y-300.008 Z-2.348
Y-300.007 Z-2.347
X-388.234 Y-299.954 Z-2.324
X-388.248 Y-299.902 Z-2.302
X-388.271 Y-299.854 Z-2.279
X-388.294 Y-299.807 Z-2.257
X-388.308 Y-299.756 Z-2.234
X-388.314 Y-299.704 Z-2.212
X-388.31 Y-299.652 Z-2.19
X-388.299 Y-299.608
X-388.229 Y-299.391
X-386.372 Y-293.623
X-386.348 Y-293.569
X-386.315 Y-293.521
X-386.273 Y-293.48
G3 X-385.638 Y-292.814 I-2.067 J2.604
G1 X-385.488 Y-292.585
G3 X-385.275 Y-292.166 Z-2.39 I-2.852 J1.709
G1 X-384.391 Y-289.841
G3 X-384.873 Y-289.519 I-0.284 J0.097
G1 X-384.923 Y-289.562 Z-2.382
X-384.971 Y-289.604 Z-2.36
X-385.014 Y-289.642 Z-2.325
X-385.049 Y-289.673 Z-2.277
X-385.076 Y-289.696 Z-2.22
X-385.093 Y-289.711 Z-2.157
X-385.099 Y-289.716 Z-2.09
G0 Z2.51
X-376.196 Y-268.748
Z-1.79
G1 Z-2.09 F1000.
X-376.189 Y-268.744 Z-2.157
X-376.171 Y-268.732 Z-2.22
X-376.141 Y-268.712 Z-2.277
X-376.102 Y-268.686 Z-2.325
X-376.054 Y-268.654 Z-2.36
X-376.002 Y-268.619 Z-2.382
X-375.946 Y-268.581 Z-2.39
G3 X-374.846 Y-267.352 I-1.85 J2.762
G1 X-371.54 Y-260.404
G3 X-371.538 Y-260.15 Z-2.279 I-0.271 J0.129
G1 X-371.556 Y-260.101 Z-2.257
X-371.565 Y-260.049 Z-2.234
X-371.564 Y-259.997 Z-2.212
X-371.555 Y-259.946 Z-2.19
X-371.54 Y-259.904
X-371.447 Y-259.694
X-368.907 Y-253.937
X-368.878 Y-253.886
X-368.839 Y-253.841
X-368.793 Y-253.805
G3 X-368.09 Y-253.211 I-1.775 J2.811
G1 X-367.916 Y-253.
G3 X-367.66 Y-252.605 Z-2.39 I-2.652 J2.006
G1 X-365.855 Y-249.06
X-365.834 Y-248.999
X-365.827 Y-248.934
G3 X-366.013 Y-248.656 I-0.3 J0.
G1 X-366.071 Y-248.645 Z-2.384
X-366.127 Y-248.634 Z-2.366
X-366.172 Y-248.646 Z-2.341
X-366.213 Y-248.656 Z-2.307
X-366.247 Y-248.665 Z-2.266
X-366.274 Y-248.672 Z-2.22
X-366.292 Y-248.684 Z-2.157
X-366.299 Y-248.688 Z-2.09
G0 Z2.51
X-361.878 Y-246.567
Z-1.79
G1 Z-2.09 F1000.
Y-246.574 Z-2.157
X-361.876 Y-246.596 Z-2.22
X-361.873 Y-246.632 Z-2.277
X-361.869 Y-246.679 Z-2.325
X-361.865 Y-246.736 Z-2.36
X-361.86 Y-246.799 Z-2.382
X-361.855 Y-246.866 Z-2.39
G3 X-361.324 Y-248.428 I3.315 J0.256
G1 X-355.183 Y-257.15
X-354.875 Y-257.568
X-348.22 Y-266.501
X-348.093 Y-266.67
X-340.968 Y-275.717
X-340.74 Y-276.001
X-333.427 Y-284.792
X-333.307 Y-284.934
X-325.69 Y-293.609
X-325.587 Y-293.725
X-325.123 Y-294.227
X-317.835 Y-302.091
X-317.568 Y-302.375
X-317.432 Y-302.516
X-316.332 Y-303.641
G3 X-315.983 Y-303.699 Z-2.229 I0.215 J0.21
G1 X-315.901 Y-303.658 Z-2.19
X-315.656 Y-303.534
X-315.587 Y-303.499
G3 X-315.857 Y-302.964 I-0.135 J0.268
X-316.014 Y-303.302 I0.135 J-0.268
X-315.675 Y-304.157 I3.231 J0.783
G1 X-315.531 Y-304.39
G3 X-315.239 Y-304.759 Z-2.39 I2.749 J1.871
G1 X-314.489 Y-305.526
G3 X-313.923 Y-305.698 I0.408 J0.326
G1 X-313.213 Y-305.7
G3 X-312.923 Y-305.401 I-0.01 J0.3
G1 X-312.924 Y-305.376
X-312.942 Y-305.326 Z-2.385
X-312.959 Y-305.277 Z-2.371
X-312.975 Y-305.232 Z-2.348
X-313.011 Y-305.199 Z-2.311
X-313.042 Y-305.172 Z-2.264
X-313.064 Y-305.152 Z-2.21
X-313.078 Y-305.14 Z-2.152
X-313.083 Y-305.135 Z-2.09
G0 Z2.51
X-265.853 Y-305.082
Z-1.79
G1 Z-2.09 F1000.
X-265.847 Y-305.086 Z-2.157
X-265.828 Y-305.097 Z-2.22
X-265.797 Y-305.115 Z-2.277
X-265.756 Y-305.139 Z-2.325
X-265.707 Y-305.169 Z-2.36
X-265.653 Y-305.201 Z-2.382
X-265.595 Y-305.235 Z-2.39
G3 X-264.012 Y-305.7 I1.699 J2.858
G1 X-236.505
G3 X-234.815 Y-304.318 I-0.191 J1.958
X-234.729 Y-303.726 I-1.881 J0.575 F900.
G1 X-234.829 Y-303.644 F1000.
G3 X-235.218 Y-303.677 Z-2.21 I-0.175 J-0.244
G1 X-235.251 Y-303.711 Z-2.19
X-235.443 Y-303.905
X-236.673 Y-305.154
X-236.708 Y-305.19
X-236.743 Y-305.233
X-236.77 Y-305.282
X-236.787 Y-305.335
X-236.794 Y-305.39
G3 X-236.505 Y-305.7 Z-2.39 I0.3 J-0.01
G1 X-234.945
G3 X-233.917 Y-305.332 I-0.006 J1.638
X-233.531 Y-304.877 I-1.034 J1.27 F900.
G1 X-233.528 Y-304.758 F1000.
X-233.565 Y-304.647
X-233.642 Y-304.559
G3 X-233.958 Y-304.538 Z-2.248 I-0.175 J-0.244
G1 X-234.079 Y-304.603 Z-2.19
X-234.321 Y-304.732
X-235.076 Y-305.136
X-235.093 Y-305.146
X-235.11 Y-305.157
G3 X-235.235 Y-305.39 I0.175 J-0.243
X-234.945 Y-305.7 Z-2.39 I0.3 J-0.01
G1 X-233.386
X-233.236 Y-305.693 F900.
X-233.092 Y-305.649
X-232.955 Y-305.582
X-232.862 Y-305.478
X-232.826 Y-305.343
X-232.855 Y-305.206
X-232.943 Y-305.098 F1000.
G3 X-233.276 Y-304.942 Z-2.233 I-0.582 J-0.813
G1 X-233.326 Y-304.933 Z-2.212
X-233.376 Y-304.93 Z-2.19
G3 X-233.738 Y-305.434 I0.004 J-0.385
X-233.386 Y-305.7 Z-2.39 I0.366 J0.118
G1 X-233.102
X-233.031 Y-305.698
X-232.996 Y-305.691
X-232.96 Y-305.68
X-232.922 Y-305.661
X-232.884 Y-305.636 F900.
X-232.851 Y-305.609
X-232.818 Y-305.573
X-232.793 Y-305.534
X-232.775 Y-305.494
X-232.764 Y-305.459
X-232.758 Y-305.423
X-232.756 Y-305.388
X-232.758 Y-305.352
X-232.765 Y-305.317
X-232.776 Y-305.281
X-232.792 Y-305.246
X-232.818 Y-305.206
X-232.854 Y-305.168 F1000.
X-232.889 Y-305.139
X-238.915 Y-300.495
X-239.057 Y-300.382
X-239.482 Y-300.035
X-246.82 Y-294.009
G3 X-247.28 Y-294.363 I-0.182 J-0.238
G1 X-247.254 Y-294.424 Z-2.382
X-247.229 Y-294.483 Z-2.36
X-247.208 Y-294.535 Z-2.325
X-247.189 Y-294.579 Z-2.277
X-247.176 Y-294.612 Z-2.22
X-247.167 Y-294.633 Z-2.157
X-247.164 Y-294.639 Z-2.09
G0 Z2.51
X-289.753 Y-252.82
Z-1.79
G1 Z-2.09 F1000.
X-289.754 Y-252.813 Z-2.157
X-289.757 Y-252.791 Z-2.22
X-289.763 Y-252.755 Z-2.277
X-289.771 Y-252.709 Z-2.325
X-289.78 Y-252.652 Z-2.36
X-289.79 Y-252.59 Z-2.382
X-289.801 Y-252.524 Z-2.39
G3 X-290.464 Y-251.013 I-3.281 J-0.537
G1 X-297.095 Y-243.105
G3 X-297.612 Y-243.368 I-0.223 J-0.201
G1 X-297.598 Y-243.433 Z-2.382
X-297.585 Y-243.495 Z-2.36
X-297.573 Y-243.551 Z-2.325
X-297.563 Y-243.597 Z-2.277
X-297.556 Y-243.632 Z-2.22
X-297.551 Y-243.654 Z-2.157
X-297.549 Y-243.661 Z-2.09
G0 Z2.51
X-298.399 Y-239.973
Z-1.79
G1 Z-2.09 F1000.
X-298.391 Y-239.972 Z-2.157
X-298.369 Y-239.97 Z-2.22
X-298.334 Y-239.966 Z-2.277
X-298.286 Y-239.961 Z-2.325
X-298.23 Y-239.955 Z-2.36
X-298.167 Y-239.948 Z-2.382
X-298.1 Y-239.941 Z-2.39
G3 X-297.333 Y-239.776 I-0.379 J3.626
G1 X-297.191 Y-239.723
X-297.049 Y-239.691
X-296.907 Y-239.661
X-288.825 Y-238.108
X-288.683 Y-238.08
X-280.601 Y-236.375
X-280.318 Y-236.312
X-272.378 Y-234.487
X-272.3 Y-234.47
G3 X-272.071 Y-234.112 Z-2.19 I-0.065 J0.293
X-272.657 Y-234.241 I-0.293 J-0.064
X-272.16 Y-234.397 I0.293 J0.064
G1 X-271.295 Y-233.593
G3 X-271.704 Y-233.153 I-0.204 J0.22
X-271.765 Y-233.513 I0.204 J-0.22
X-271.294 Y-234.289 I6.775 J3.572
G1 X-271.135 Y-234.512
X-270.842 Y-234.881 Z-2.39
X-270.534 Y-235.221
X-263.303 Y-243.294
X-263.217 Y-243.389
X-262.878 Y-243.746
X-255.504 Y-251.471
X-255.363 Y-251.615
X-255.079 Y-251.897
X-251.908 Y-255.016
G3 X-251.484 Y-255.012 Z-2.19 I0.21 J0.214
G1 X-251.447 Y-254.967
X-251.42 Y-254.915
X-251.403 Y-254.859
X-251.398 Y-254.801
Y-254.761
X-251.4 Y-254.206
G3 X-251.739 Y-253.909 I-0.3 J-0.001
X-251.99 Y-254.283 I0.039 J-0.297
X-251.635 Y-255.132 I3.215 J0.846
G1 X-251.486 Y-255.361
G3 X-251.187 Y-255.725 Z-2.39 I2.711 J1.924
G1 X-247.423 Y-259.426
X-247.139 Y-259.697
X-239.151 Y-267.068
X-238.915 Y-267.284
X-238.839 Y-267.352
X-230.408 Y-274.651
X-230.32 Y-274.725
X-229.699 Y-275.231
X-221.759 Y-281.676
X-221.406 Y-281.956
X-221.333 Y-282.013
X-212.542 Y-288.698
X-212.457 Y-288.762
X-203.468 Y-295.16
X-203.184 Y-295.359
X-203.043 Y-295.455
X-193.915 Y-301.524
X-193.684 Y-301.671
X-193.47 Y-301.807
X-187.297 Y-305.636
X-187.23 Y-305.672
X-187.196 Y-305.685
X-187.162 Y-305.694
X-187.127 Y-305.699
X-187.091 Y-305.7
X187.091
X187.127 Y-305.699
X187.162 Y-305.694
X187.196 Y-305.685
X187.23 Y-305.672
X187.304 Y-305.632
X193.47 Y-301.807
X193.826 Y-301.581
X193.915 Y-301.524
X203.085 Y-295.427
X203.184 Y-295.359
X203.491 Y-295.143
X212.457 Y-288.762
X214.953 Y-286.865
X221.333 Y-282.013
X221.406 Y-281.956
X221.763 Y-281.673
X229.983 Y-275.
X230.32 Y-274.725
X230.408 Y-274.651
X238.839 Y-267.352
X238.915 Y-267.284
X239.341 Y-266.893
X247.141 Y-259.695
X247.423 Y-259.426
X255.081 Y-251.896
X255.365 Y-251.613
X255.505 Y-251.47
X263.02 Y-243.597
X263.217 Y-243.389
X263.345 Y-243.247
X270.585 Y-235.165
X270.818 Y-234.908
X270.855 Y-234.853 Z-2.362
X270.879 Y-234.79 Z-2.333
X270.889 Y-234.725 Z-2.305
X270.898 Y-234.454 Z-2.19
X270.903 Y-234.301
G2 X271.218 Y-234.145 I0.2 J-0.007
G1 X271.259 Y-234.172
G3 X271.499 Y-234.303 I0.872 J1.321
X271.952 Y-234.424 Z-2.39 I0.632 J1.451
G1 X272.094 Y-234.435
X272.236 Y-234.456
X272.378 Y-234.487
X280.318 Y-236.312
X280.601 Y-236.375
X288.683 Y-238.08
X289.251 Y-238.19
X296.702 Y-239.621
G3 X296.936 Y-239.091 I0.046 J0.296
G1 X296.884 Y-239.049 Z-2.382
X296.835 Y-239.01 Z-2.36
X296.791 Y-238.974 Z-2.325
X296.754 Y-238.944 Z-2.277
X296.726 Y-238.922 Z-2.22
X296.708 Y-238.908 Z-2.157
X296.703 Y-238.903 Z-2.09
G0 Z2.51
X249.672 Y-292.468
Z-1.79
G1 Z-2.09 F1000.
X249.664 Y-292.469 Z-2.157
X249.642 Y-292.472 Z-2.22
X249.607 Y-292.477 Z-2.277
X249.56 Y-292.485 Z-2.325
X249.504 Y-292.493 Z-2.36
X249.441 Y-292.503 Z-2.382
X249.375 Y-292.513 Z-2.39
G3 X247.856 Y-293.158 I0.5 J-3.287
G1 X239.341 Y-300.151
X239.048 Y-300.39
X238.915 Y-300.495
X235.654 Y-303.008
G3 X235.125 Y-305.172 I1.316 J-1.469
X235.417 Y-305.693 I1.846 J0.695 F900.
G1 X235.546 Y-305.7 F1000.
G3 X235.833 Y-305.441 Z-2.212 I-0.01 J0.3
G1 X235.84 Y-305.39 Z-2.19
X235.877 Y-305.119
X236.12 Y-303.339
X236.126 Y-303.293
X236.128 Y-303.236
X236.12 Y-303.18
X236.101 Y-303.126
X236.073 Y-303.077
G3 X235.654 Y-303.008 Z-2.39 I-0.244 J-0.175
G1 X234.378 Y-303.992
G3 X233.769 Y-305.024 I0.923 J-1.242
X233.803 Y-305.619 I1.533 J-0.21 F900.
G1 X233.928 Y-305.677 F1000.
X234.042 Y-305.7
G3 X234.306 Y-305.523 Z-2.248 I-0.01 J0.3
G1 X234.362 Y-305.398 Z-2.19
X234.473 Y-305.148
X234.827 Y-304.358
X234.834 Y-304.34
X234.84 Y-304.322
G3 X234.797 Y-304.061 I-0.287 J0.086
X234.378 Y-303.992 Z-2.39 I-0.244 J-0.175
G1 X233.165 Y-304.927
X233.051 Y-305.024 F900.
X232.959 Y-305.143
X232.888 Y-305.275
X232.879 Y-305.299
X232.865 Y-305.44
X232.917 Y-305.573
X233.024 Y-305.666
X233.162 Y-305.7 F1000.
G3 X233.566 Y-305.599 Z-2.212 I-0.035 J0.999
G1 X233.611 Y-305.574 Z-2.19
G3 X233.608 Y-304.917 I-0.217 J0.327
X233.165 Y-304.927 Z-2.39 I-0.214 J-0.329
G1 X232.889 Y-305.139
X232.854 Y-305.168
X232.815 Y-305.211
X232.792 Y-305.246
X232.776 Y-305.281
X232.765 Y-305.317
X232.758 Y-305.352
X232.756 Y-305.388
X232.758 Y-305.423
X232.764 Y-305.459
X232.775 Y-305.494
X232.793 Y-305.534
X232.818 Y-305.573
X232.851 Y-305.609
X232.884 Y-305.636
X232.922 Y-305.661
X232.96 Y-305.68
X232.996 Y-305.691
X233.031 Y-305.698
X233.102 Y-305.7
X296.34
G3 X296.63 Y-305.401 I-0.01 J0.3
G1 X296.629 Y-305.376
X296.611 Y-305.326 Z-2.385
X296.594 Y-305.277 Z-2.371
X296.578 Y-305.232 Z-2.348
X296.542 Y-305.199 Z-2.311
X296.511 Y-305.172 Z-2.264
X296.489 Y-305.152 Z-2.21
X296.475 Y-305.14 Z-2.152
X296.47 Y-305.135 Z-2.09
G0 Z2.51
X311.273 Y-305.082
Z-1.79
G1 Z-2.09 F1000.
X311.28 Y-305.086 Z-2.157
X311.299 Y-305.097 Z-2.22
X311.329 Y-305.115 Z-2.277
X311.37 Y-305.139 Z-2.325
X311.419 Y-305.169 Z-2.36
X311.474 Y-305.201 Z-2.382
X311.531 Y-305.235 Z-2.39
G3 X313.114 Y-305.7 I1.699 J2.858
G1 X313.715
X314.064 F900.
X314.206 Y-305.699
X314.241 Y-305.694
X314.276 Y-305.685
X314.312 Y-305.673
X314.347 Y-305.656 F1000.
X314.377 Y-305.636
X314.489 Y-305.526
X315.34 Y-304.656
G3 X315.335 Y-304.232 Z-2.19 I-0.214 J0.21
G1 X315.302 Y-304.204
X315.116 Y-304.069
X314.956 Y-303.952
G3 X314.603 Y-304.438 I-0.176 J-0.243
X314.857 Y-304.485 I0.176 J0.243
X315.704 Y-304.128 I-0.855 J3.213
G1 X315.933 Y-303.978
G3 X316.296 Y-303.678 Z-2.39 I-1.932 J2.706
G1 X317.467 Y-302.481
X317.608 Y-302.332
X317.835 Y-302.091
X325.456 Y-293.867
X325.587 Y-293.725
X325.713 Y-293.583
X333.307 Y-284.934
X333.489 Y-284.719
X340.74 Y-276.001
X340.968 Y-275.717
X348.093 Y-266.67
X348.235 Y-266.481
X354.899 Y-257.535
X355.188 Y-257.143
X361.233 Y-248.557
G3 X360.846 Y-248.125 I-0.251 J0.164
G1 X360.787 Y-248.155 Z-2.382
X360.73 Y-248.184 Z-2.36
X360.679 Y-248.21 Z-2.325
X360.637 Y-248.231 Z-2.277
X360.605 Y-248.247 Z-2.22
X360.585 Y-248.257 Z-2.157
X360.579 Y-248.261 Z-2.09
G0 Z2.51
X365.57 Y-247.139
Z-1.79
G1 Z-2.09 F1000.
Y-247.147 Z-2.157
X365.568 Y-247.169 Z-2.22
X365.566 Y-247.205 Z-2.277
X365.563 Y-247.252 Z-2.325
X365.559 Y-247.309 Z-2.36
X365.555 Y-247.372 Z-2.382
X365.551 Y-247.439 Z-2.39
G3 X365.855 Y-249.06 I3.318 J-0.217
G1 X370.115 Y-257.426
X370.258 Y-257.71
X370.461 Y-258.135
X374.172 Y-265.934
G3 X374.738 Y-265.809 I0.266 J0.138
G1 X374.74 Y-265.742 Z-2.382
X374.743 Y-265.679 Z-2.36
X374.746 Y-265.622 Z-2.325
X374.748 Y-265.574 Z-2.277
X374.75 Y-265.539 Z-2.22
X374.751 Y-265.517 Z-2.157
Y-265.509 Z-2.09
G0 Z2.51
X384.444 Y-288.24
Z-1.79
G1 Z-2.09 F1000.
X384.443 Y-288.247 Z-2.157
X384.439 Y-288.269 Z-2.22
X384.433 Y-288.304 Z-2.277
X384.424 Y-288.351 Z-2.325
X384.415 Y-288.407 Z-2.36
X384.404 Y-288.47 Z-2.382
X384.392 Y-288.535 Z-2.39
G3 X384.52 Y-290.18 I3.275 J-0.572
G1 X385.329 Y-292.307
G3 X385.511 Y-292.484 Z-2.279 I0.28 J0.107
G1 X385.559 Y-292.505 Z-2.257
X385.602 Y-292.535 Z-2.234
X385.639 Y-292.571 Z-2.212
X385.67 Y-292.613 Z-2.19
X385.685 Y-292.643
X385.785 Y-292.862
X387.759 Y-297.182
X387.779 Y-297.242
X387.787 Y-297.304
X387.781 Y-297.367
G3 X387.724 Y-298.285 I3.259 J-0.66
G1 X387.757 Y-298.556
G3 X387.864 Y-299.014 Z-2.39 I3.282 J0.529
G1 X390.023 Y-305.185
X390.131 Y-305.494 F900.
X390.143 Y-305.521
X390.159 Y-305.548
X390.179 Y-305.576
X390.205 Y-305.603
X390.243 Y-305.636
X390.269 Y-305.654
X390.295 Y-305.669
X390.321 Y-305.68
X390.346 Y-305.689
X390.382 Y-305.696 F1000.
X390.417 Y-305.7
X446.495
G3 X446.937 Y-305.643 I0.096 J1.009
X447.41 Y-305.288 I-0.347 J0.952 F900.
G1 X447.384 Y-305.139 F1000.
G3 X447.022 Y-304.948 Z-2.199 I-0.283 J-0.099
G1 X447.002 Y-304.953 Z-2.19
X446.738 Y-305.026
X446.426 Y-305.111
G3 X446.206 Y-305.39 I0.079 J-0.289
X446.495 Y-305.7 Z-2.39 I0.3 J-0.01
G1 X447.133
X447.169 Y-305.697
X447.204 Y-305.69
X447.231 Y-305.682
X447.259 Y-305.67
X447.286 Y-305.655
X447.313 Y-305.636
X447.346 Y-305.607
X447.373 Y-305.579
X447.395 Y-305.551
X447.412 Y-305.522
X447.425 Y-305.494
X447.436 Y-305.459
X447.443 Y-305.423
X447.446 Y-305.388
X447.444 Y-305.352
X447.438 Y-305.317
X447.428 Y-305.281
X444.419 Y-295.569
X444.368 Y-295.417
X440.219 Y-283.233
X435.843 Y-271.464
X435.682 Y-271.038
X435.627 Y-270.896
X435.398 Y-270.329
G3 X435.212 Y-270.156 Z-2.279 I-0.278 J-0.112
G1 X435.178 Y-270.143 Z-2.263
X435.146 Y-270.125 Z-2.248
X435.031 Y-270.053 Z-2.19
X434.799 Y-269.908
X434.723 Y-269.861
G2 X434.586 Y-269.561 I0.159 J0.254
G3 X434.599 Y-268.641 I-3.286 J0.506
G1 X434.554 Y-268.371
G3 X434.425 Y-267.919 Z-2.39 I-3.254 J-0.684
G1 X430.875 Y-259.128
X430.816 Y-258.986
X428.346 Y-253.327
G3 X427.776 Y-253.433 I-0.271 J-0.13
G1 X427.771 Y-253.5 Z-2.382
X427.766 Y-253.563 Z-2.36
X427.762 Y-253.62 Z-2.325
X427.758 Y-253.667 Z-2.277
X427.756 Y-253.703 Z-2.22
X427.754 Y-253.725 Z-2.157
X427.753 Y-253.733 Z-2.09
G0 Z2.51
X424.982 Y-244.952
Z-1.79
G1 Z-2.09 F1000.
X424.989 Y-244.953 Z-2.157
X425.011 Y-244.956 Z-2.22
X425.047 Y-244.961 Z-2.277
X425.094 Y-244.967 Z-2.325
X425.15 Y-244.975 Z-2.36
X425.213 Y-244.984 Z-2.382
X425.279 Y-244.993 Z-2.39
G3 X426.928 Y-245.042 I1.051 J7.587
G1 X439.973 Y-243.568
X440.115 Y-243.55
X440.54 Y-243.492
X453.301 Y-241.679
X453.868 Y-241.585
X465.424 Y-239.604
X465.46 Y-239.598
X465.495 Y-239.587
X465.522 Y-239.575
X465.549 Y-239.56
X465.571 Y-239.545
X465.593 Y-239.527
X465.617 Y-239.501
X465.637 Y-239.476
X465.656 Y-239.447
X465.672 Y-239.418
X465.686 Y-239.383
X465.695 Y-239.347
X465.699 Y-239.312
X465.7 Y-239.277
Y-184.686
Y-184.608
Y-184.573
G3 X465.272 Y-183.962 I-0.496 J0.108
G1 X465.207 Y-183.987 Z-2.362
X465.149 Y-184.025 Z-2.334
X465.101 Y-184.075 Z-2.306
X465.065 Y-184.133 Z-2.278
X465.044 Y-184.198 Z-2.25
X465.037 Y-184.265 Z-2.222
X465.046 Y-184.332 Z-2.194
X465.048 Y-184.34 Z-2.19
X465.103 Y-184.608
X465.106 Y-184.623
G3 X465.39 Y-184.862 I0.294 J0.061
X465.7 Y-184.573 Z-2.39 I0.01 J0.3
G1 Y-184.261
X465.696 Y-184.225
X465.688 Y-184.19
X465.675 Y-184.154
X465.657 Y-184.119
X465.637 Y-184.09
X465.607 Y-184.054
X465.586 Y-184.034
X465.566 Y-184.018
X465.53 Y-183.996
X465.495 Y-183.98
X465.453 Y-183.968
X465.42 Y-183.962
X465.387 Y-183.961
X465.353 Y-183.963
X465.211 Y-183.991
X456.988 Y-185.652
X456.846 Y-185.68
X445.219 Y-187.678
X444.935 Y-187.722
X444.652 Y-187.765
X433.381 Y-189.365
X432.883 Y-189.429
X421.54 Y-190.704
X421.115 Y-190.749
X420.689 Y-190.785
X418.704 Y-190.95
G3 X418.621 Y-191.524 I0.035 J-0.298
G1 X418.683 Y-191.55 Z-2.382
X418.741 Y-191.575 Z-2.36
X418.793 Y-191.598 Z-2.325
X418.837 Y-191.616 Z-2.277
X418.87 Y-191.63 Z-2.22
X418.89 Y-191.639 Z-2.157
X418.897 Y-191.642 Z-2.09
G0 Z2.51
X410.509 Y-192.288
Z-1.79
G1 Z-2.09 F1000.
X410.502 Y-192.284 Z-2.157
X410.483 Y-192.274 Z-2.22
X410.451 Y-192.258 Z-2.277
X410.409 Y-192.236 Z-2.325
X410.358 Y-192.209 Z-2.36
X410.302 Y-192.18 Z-2.382
X410.243 Y-192.149 Z-2.39
G3 X408.637 Y-191.769 I-1.543 J-2.945
G1 X402.399 Y-192.105
G3 X402.175 Y-192.224 Z-2.279 I0.016 J-0.3
G1 X402.14 Y-192.263 Z-2.257
X402.099 Y-192.295 Z-2.234
X402.053 Y-192.32 Z-2.212
X402.003 Y-192.336 Z-2.19
X401.985 Y-192.34
X401.733 Y-192.382
X398.827 Y-192.869
X398.775 Y-192.873
X398.723 Y-192.868
X398.673 Y-192.854
X398.626 Y-192.832
G3 X397.775 Y-192.482 I-1.679 J-2.87
G1 X397.508 Y-192.425
G3 X397.039 Y-192.378 Z-2.39 I-0.56 J-3.277
G2 X395.834 Y-191.633 I0.093 J1.498
G1 X395.517 Y-191.131
G3 X395.104 Y-191.036 Z-2.19 I-0.254 J-0.159
X395.422 Y-191.544 I0.159 J-0.254
X395.469 Y-191.071 I-0.159 J0.254
G1 X394.61 Y-190.264
G3 X394.199 Y-190.701 I-0.206 J-0.218
X394.638 Y-190.672 I0.206 J0.218
X395.168 Y-189.935 I-5.941 J4.834
G1 X395.31 Y-189.701
X395.535 Y-189.287 Z-2.39
X397.462 Y-185.111
X400.732 Y-178.022
X400.923 Y-177.596
X405.943 Y-165.804
X405.991 Y-165.686
X406.227 Y-165.086
X410.622 Y-153.84
X410.764 Y-153.473
X415.018 Y-141.554
X415.16 Y-141.151
X419.13 Y-128.884
X419.275 Y-128.394
X422.741 Y-116.483
X422.823 Y-116.2
X424.622 Y-109.252
G3 X424.407 Y-108.886 Z-2.19 I-0.29 J0.075
G1 X424.347 Y-108.877
X424.285 Y-108.88
X424.226 Y-108.896
X424.171 Y-108.923
X424.147 Y-108.938
X423.893 Y-109.1
G3 X424.213 Y-109.607 I0.16 J-0.253
X424.316 Y-109.498 I-0.16 J0.254
X424.706 Y-108.678 I-6.706 J3.7
G1 X424.805 Y-108.423
X424.953 Y-107.976 Z-2.39
X426.017 Y-103.864
X426.122 Y-103.438
X426.187 Y-103.155
X428.96 Y-90.961
X428.99 Y-90.819
X429.055 Y-90.495
X431.44 Y-78.341
X431.493 Y-78.057
X431.544 Y-77.774
X432.107 Y-74.371
G3 X431.86 Y-74.026 Z-2.19 I-0.296 J0.049
X431.762 Y-74.618 I-0.049 J-0.296
X432.084 Y-74.196 I0.049 J0.296
G1 X431.768 Y-73.512
G3 X431.223 Y-73.762 I-0.273 J-0.125
X431.725 Y-73.83 I0.273 J0.125
X432.215 Y-73.052 I-2.542 J2.143
G1 X432.317 Y-72.798
G3 X432.442 Y-72.344 Z-2.39 I-3.134 J1.11
G1 X433.585 Y-65.438
X433.652 Y-65.012
X435.374 Y-52.251
X435.436 Y-51.684
X436.713 Y-39.489
X436.754 Y-39.064
X436.776 Y-38.781
X437.708 Y-26.303
X437.716 Y-26.161
X437.738 Y-25.736
X438.29 Y-13.399
X438.301 Y-13.116
X438.306 Y-12.974
X438.496 Y-0.213
Y0.213
X438.306 Y12.974
X438.296 Y13.258
X438.271 Y13.825
X437.738 Y25.736
X437.716 Y26.161
X437.704 Y26.349
X437.612 Y27.579
G3 X437.488 Y27.8 Z-2.279 I-0.299 J-0.022
G1 X437.444 Y27.827 Z-2.257
X437.395 Y27.845 Z-2.234
X437.343 Y27.855 Z-2.212
X437.291 Y27.856 Z-2.19
G3 X437.07 Y27.732 I0.022 J-0.299
G1 X437.063 Y27.722
X436.686 Y27.198
G3 X436.774 Y26.766 I0.243 J-0.175
X437.198 Y26.889 I0.155 J0.257
X437.49 Y27.761 I-2.976 J1.482
G1 X437.529 Y28.032
G3 X437.543 Y28.502 Z-2.39 I-3.307 J0.339
G1 X436.765 Y38.922
X436.754 Y39.064
X436.712 Y39.505
X435.421 Y51.826
X435.374 Y52.251
X433.652 Y65.012
X433.561 Y65.579
X431.544 Y77.774
X431.465 Y78.207
X431.412 Y78.483
X429.047 Y90.535
X428.99 Y90.819
X428.96 Y90.961
X426.155 Y103.297
X426.122 Y103.438
X426.017 Y103.864
X422.823 Y116.2
X422.659 Y116.767
X419.272 Y128.407
X419.13 Y128.884
X415.158 Y141.155
X414.958 Y141.723
X410.764 Y153.473
X410.538 Y154.059
X406.103 Y165.402
X405.991 Y165.686
X405.933 Y165.828
X400.923 Y177.596
X400.697 Y178.098
X395.434 Y189.507
X395.4 Y189.585
G3 X395.007 Y189.743 Z-2.19 I-0.276 J-0.118
X395.242 Y189.191 I0.118 J-0.276
X395.424 Y189.467 I-0.118 J0.276
X395.316 Y189.698 I-0.3 J0.
G1 X394.892 Y190.048
G3 X394.51 Y189.586 I-0.191 J-0.231
X394.939 Y189.635 I0.191 J0.231
G1 X394.969 Y189.674
G3 X395.108 Y189.909 I-1.287 J0.921
X395.246 Y190.358 Z-2.39 I-1.426 J0.686
G2 X395.451 Y191.025 I1.488 J-0.091
G1 X395.833 Y191.634
G3 X395.424 Y192.045 I-0.259 J0.151
G1 X395.366 Y192.011 Z-2.382
X395.311 Y191.98 Z-2.36
X395.262 Y191.951 Z-2.325
X395.22 Y191.928 Z-2.277
X395.189 Y191.91 Z-2.22
X395.17 Y191.899 Z-2.157
X395.164 Y191.895 Z-2.09
G0 Z2.51
X419.633 Y191.529
Z-1.79
G1 Z-2.09 F1000.
X419.64 Y191.525 Z-2.157
X419.657 Y191.512 Z-2.22
X419.686 Y191.49 Z-2.277
X419.724 Y191.462 Z-2.325
X419.769 Y191.428 Z-2.36
X419.82 Y191.39 Z-2.382
X419.874 Y191.35 Z-2.39
G3 X421.398 Y190.719 I1.993 J2.661
G1 X421.824 Y190.672
X432.883 Y189.429
X433.381 Y189.365
X444.652 Y187.765
X445.077 Y187.701
X445.219 Y187.678
X456.854 Y185.679
X459.114 Y185.222
X464.928 Y184.048
X465.006 Y184.032
X465.041 Y184.025
X465.189 Y184.003 F900.
X465.423 Y184.016
X465.46 Y184.024
X465.583 Y184.08
X465.669 Y184.185
X465.7 Y184.317 F1000.
G3 X465.41 Y184.607 Z-2.198 I-0.3 J-0.01
G1 X465.39 Y184.608 Z-2.19
X465.121 Y184.617
X465.117
G3 X464.819 Y184.386 I-0.006 J-0.3
X465.041 Y184.025 Z-2.39 I0.292 J-0.069
G1 X465.28 Y183.977
X465.353 Y183.963 F900.
X465.387 Y183.961
X465.42 Y183.962
X465.453 Y183.968
X465.495 Y183.98
X465.53 Y183.996
X465.566 Y184.018
X465.586 Y184.034
X465.607 Y184.054
X465.637 Y184.09
X465.657 Y184.119
X465.675 Y184.154
X465.688 Y184.19
X465.696 Y184.225 F1000.
X465.7 Y184.261
Y193.052
G3 X465.593 Y193.282 Z-2.279 I-0.3 J0.
G1 X465.557 Y193.318 Z-2.257
X465.527 Y193.359 Z-2.235
X465.473 Y193.452 Z-2.19
X465.334 Y193.688
X465.234 Y193.857
G2 X465.235 Y194.163 I0.259 J0.152
G3 X465.591 Y195.011 I-2.858 J1.699
G1 X465.65 Y195.278
G3 X465.7 Y195.746 Z-2.39 I-3.273 J0.584
G1 Y239.013
Y239.277 F900.
X465.699 Y239.312
X465.695 Y239.347
X465.686 Y239.383
X465.672 Y239.418
X465.656 Y239.447
X465.637 Y239.476
X465.617 Y239.501
X465.593 Y239.527
X465.571 Y239.545
X465.549 Y239.56
X465.522 Y239.575 F1000.
X465.495 Y239.587
X465.46 Y239.598
X465.353 Y239.616
X453.726 Y241.609
X453.301 Y241.679
X440.54 Y243.492
X440.115 Y243.55
X439.973 Y243.568
X435.01 Y244.128
G3 X434.817 Y243.582 I-0.023 J-0.299
G1 X434.872 Y243.544 Z-2.382
X434.925 Y243.508 Z-2.36
X434.972 Y243.476 Z-2.325
X435.011 Y243.449 Z-2.277
X435.04 Y243.429 Z-2.22
X435.058 Y243.416 Z-2.157
X435.065 Y243.412 Z-2.09
G0 Z2.51
X426.48 Y250.598
Z-1.79
G1 Z-2.09 F1000.
X426.487 Y250.602 Z-2.157
X426.505 Y250.615 Z-2.22
X426.534 Y250.636 Z-2.277
X426.572 Y250.664 Z-2.325
X426.618 Y250.697 Z-2.36
X426.67 Y250.734 Z-2.382
X426.724 Y250.773 Z-2.39
G3 X427.784 Y252.038 I-1.94 J2.7
G1 X430.816 Y258.986
X430.875 Y259.128
X431.324 Y260.239
G3 X431.158 Y260.629 Z-2.19 I-0.278 J0.112
X430.933 Y260.073 I-0.113 J-0.278
X431.337 Y260.424 I0.113 J0.278
G1 X431.163 Y261.123
G3 X430.581 Y260.978 I-0.291 J-0.072
X431.053 Y260.811 I0.291 J0.072
X431.701 Y261.464 I-2.014 J2.646
G1 X431.856 Y261.69
G3 X432.077 Y262.105 Z-2.39 I-2.816 J1.767
G1 X435.627 Y270.896
X435.736 Y271.18
X435.861 Y271.511
X440.219 Y283.233
X444.372 Y295.427
X444.419 Y295.569
X447.231 Y304.643
G3 X447.313 Y304.995 I-1.127 J0.451
X447.216 Y305.58 I-1.21 J0.1 F900.
G1 X447.111 Y305.668
X446.977 Y305.7 F1000.
G3 X446.688 Y305.418 Z-2.202 I0.01 J-0.3
G1 X446.686 Y305.39 Z-2.19
X446.669 Y305.117
X446.648 Y304.76
G3 X446.849 Y304.459 I0.299 J-0.018
X447.231 Y304.643 Z-2.39 I0.099 J0.283
G1 X447.397 Y305.18
X447.428 Y305.281 F900.
X447.438 Y305.317
X447.444 Y305.352
X447.446 Y305.388
X447.443 Y305.423
X447.436 Y305.459
X447.425 Y305.494
X447.412 Y305.522
X447.395 Y305.551
X447.373 Y305.579
X447.346 Y305.607
X447.313 Y305.636
X447.286 Y305.655
X447.259 Y305.67
X447.231 Y305.682
X447.204 Y305.69
X447.169 Y305.697 F1000.
X447.133 Y305.7
X439.547
G3 X439.258 Y305.401 I0.01 J-0.3
G1 X439.259 Y305.376
X439.276 Y305.326 Z-2.385
X439.293 Y305.277 Z-2.371
X439.309 Y305.232 Z-2.348
X439.346 Y305.199 Z-2.311
X439.376 Y305.172 Z-2.264
X439.399 Y305.152 Z-2.21
X439.412 Y305.14 Z-2.152
X439.417 Y305.135 Z-2.09
G0 Z2.51
X407.217 Y305.082
Z-1.79
G1 Z-2.09 F1000.
X407.211 Y305.086 Z-2.157
X407.192 Y305.097 Z-2.22
X407.161 Y305.115 Z-2.277
X407.12 Y305.139 Z-2.325
X407.071 Y305.169 Z-2.36
X407.017 Y305.201 Z-2.382
X406.959 Y305.235 Z-2.39
G3 X405.376 Y305.7 I-1.699 J-2.858
G1 X390.741
X390.417 F900.
X390.382 Y305.696
X390.346 Y305.689
X390.321 Y305.68
X390.295 Y305.669
X390.269 Y305.654
X390.243 Y305.636
X390.205 Y305.603
X390.179 Y305.576
X390.159 Y305.548 F1000.
X390.143 Y305.521
X390.131 Y305.494
X388.246 Y300.106
X388.234 Y300.058 Z-2.369
X388.229 Y300.008 Z-2.348
Y300.007 Z-2.347
X388.234 Y299.954 Z-2.324
X388.248 Y299.902 Z-2.302
X388.271 Y299.854 Z-2.279
X388.294 Y299.807 Z-2.257
X388.308 Y299.756 Z-2.234
X388.314 Y299.704 Z-2.212
X388.31 Y299.652 Z-2.19
X388.299 Y299.608
X388.229 Y299.391
X386.372 Y293.623
X386.348 Y293.569
X386.315 Y293.521
X386.273 Y293.48
G3 X385.638 Y292.814 I2.067 J-2.604
G1 X385.488 Y292.585
G3 X385.275 Y292.166 Z-2.39 I2.852 J-1.709
G1 X384.391 Y289.841
G3 X384.873 Y289.519 I0.284 J-0.097
G1 X384.923 Y289.562 Z-2.382
X384.971 Y289.604 Z-2.36
X385.014 Y289.642 Z-2.325
X385.049 Y289.673 Z-2.277
X385.076 Y289.696 Z-2.22
X385.093 Y289.711 Z-2.157
X385.099 Y289.716 Z-2.09
G0 Z2.51
X376.196 Y268.748
Z-1.79
G1 Z-2.09 F1000.
X376.189 Y268.744 Z-2.157
X376.171 Y268.732 Z-2.22
X376.141 Y268.712 Z-2.277
X376.102 Y268.686 Z-2.325
X376.054 Y268.654 Z-2.36
X376.002 Y268.619 Z-2.382
X375.946 Y268.581 Z-2.39
G3 X374.846 Y267.352 I1.85 J-2.762
G1 X371.54 Y260.404
G3 X371.538 Y260.15 Z-2.279 I0.271 J-0.129
G1 X371.556 Y260.101 Z-2.257
X371.565 Y260.049 Z-2.234
X371.564 Y259.997 Z-2.212
X371.555 Y259.946 Z-2.19
X371.54 Y259.904
X371.447 Y259.694
X368.907 Y253.937
X368.878 Y253.886
X368.839 Y253.841
X368.793 Y253.805
G3 X368.09 Y253.211 I1.775 J-2.811
G1 X367.916 Y253.
G3 X367.66 Y252.605 Z-2.39 I2.652 J-2.006
G1 X365.855 Y249.06
X365.834 Y248.999
X365.827 Y248.934
G3 X366.013 Y248.656 I0.3 J0.
G1 X366.071 Y248.645 Z-2.384
X366.127 Y248.634 Z-2.366
X366.172 Y248.646 Z-2.341
X366.213 Y248.656 Z-2.307
X366.247 Y248.665 Z-2.266
X366.274 Y248.672 Z-2.22
X366.292 Y248.684 Z-2.157
X366.299 Y248.688 Z-2.09
G0 Z2.51
X361.878 Y246.567
Z-1.79
G1 Z-2.09 F1000.
Y246.574 Z-2.157
X361.876 Y246.596 Z-2.22
X361.873 Y246.632 Z-2.277
X361.869 Y246.679 Z-2.325
X361.865 Y246.736 Z-2.36
X361.86 Y246.799 Z-2.382
X361.855 Y246.866 Z-2.39
G3 X361.324 Y248.428 I-3.315 J-0.256
G1 X355.183 Y257.15
X354.875 Y257.568
X348.22 Y266.501
X348.093 Y266.67
X340.968 Y275.717
X340.74 Y276.001
X333.427 Y284.792
X333.307 Y284.934
X325.69 Y293.609
X325.587 Y293.725
X325.123 Y294.227
X317.835 Y302.091
X317.568 Y302.375
X317.432 Y302.516
X316.332 Y303.641
G3 X315.983 Y303.699 Z-2.229 I-0.215 J-0.21
G1 X315.901 Y303.658 Z-2.19
X315.656 Y303.534
X315.587 Y303.499
G3 X315.857 Y302.964 I0.135 J-0.268
X316.014 Y303.302 I-0.135 J0.268
X315.675 Y304.157 I-3.231 J-0.783
G1 X315.531 Y304.39
G3 X315.239 Y304.759 Z-2.39 I-2.749 J-1.871
G1 X314.489 Y305.526
G3 X313.923 Y305.698 I-0.408 J-0.326
G1 X313.213 Y305.7
G3 X312.923 Y305.401 I0.01 J-0.3
G1 X312.924 Y305.376
X312.942 Y305.326 Z-2.385
X312.959 Y305.277 Z-2.371
X312.975 Y305.232 Z-2.348
X313.011 Y305.199 Z-2.311
X313.042 Y305.172 Z-2.264
X313.064 Y305.152 Z-2.21
X313.078 Y305.14 Z-2.152
X313.083 Y305.135 Z-2.09
G0 Z2.51
X-353.51 Y135.359
Z-1.79
G1 Z-2.09 F1000.
X-353.508 Y135.352 Z-2.157
X-353.504 Y135.33 Z-2.22
X-353.498 Y135.295 Z-2.277
X-353.49 Y135.248 Z-2.325
X-353.48 Y135.192 Z-2.36
X-353.468 Y135.13 Z-2.382
X-353.457 Y135.064 Z-2.39
G3 X-352.772 Y133.563 I3.273 J0.585
G1 X-350.753 Y131.23
X-350.504 Y130.944
X-344.974 Y124.784
X-344.69 Y124.477
X-340.578 Y120.059
G3 X-340.343 Y119.963 Z-2.279 I0.22 J0.204
G1 X-340.292 Y119.962 Z-2.257
X-340.242 Y119.951 Z-2.235
X-340.194 Y119.932 Z-2.213
X-340.145 Y119.908 Z-2.19
X-339.9 Y119.786
X-338.242 Y118.96
G2 X-338.122 Y118.53 I-0.134 J-0.269
G3 X-338.564 Y117.736 I6.462 J-4.112
G1 X-338.678 Y117.488
X-338.853 Y117.051 Z-2.39
X-342.561 Y105.707
X-345.856 Y94.364
X-345.968 Y93.938
X-348.749 Y83.02
X-348.852 Y82.595
X-348.885 Y82.453
X-351.354 Y71.207
X-351.456 Y70.684
X-352.374 Y65.721
G3 X-352.134 Y65.372 Z-2.19 I0.295 J-0.055
G1 X-352.076 Y65.367
X-352.017 Y65.373
X-351.961 Y65.391
X-351.91 Y65.419
X-351.878 Y65.441
X-351.418 Y65.756
G3 X-351.363 Y66.202 I-0.169 J0.248
X-351.813 Y66.201 I-0.224 J-0.199
X-352.317 Y65.432 I2.501 J-2.191
G1 X-352.424 Y65.18
G3 X-352.558 Y64.729 Z-2.39 I3.112 J-1.17
G1 X-353.528 Y59.482
X-353.554 Y59.341
X-353.747 Y58.064
X-355.329 Y47.572
X-355.346 Y47.43
X-356.126 Y40.766
X-356.706 Y35.803
X-356.721 Y35.661
X-357.702 Y23.892
X-357.735 Y23.27
X-358.291 Y12.123
X-358.297 Y11.982
X-358.308 Y11.556
X-358.496 Y0.213
Y-0.213
X-358.308 Y-11.556
X-358.297 Y-11.982
X-358.291 Y-12.123
X-357.725 Y-23.467
X-357.702 Y-23.892
X-356.721 Y-35.661
X-356.706 Y-35.803
X-355.346 Y-47.43
X-355.329 Y-47.572
X-353.597 Y-59.057
X-353.554 Y-59.341
X-353.476 Y-59.766
X-351.456 Y-70.684
X-351.354 Y-71.207
X-350.691 Y-74.229
G3 X-350.537 Y-74.43 Z-2.279 I0.293 J0.064
G1 X-350.493 Y-74.459 Z-2.257
X-350.454 Y-74.494 Z-2.234
X-350.423 Y-74.535 Z-2.212
X-350.399 Y-74.582 Z-2.19
X-350.396 Y-74.587
X-350.299 Y-74.837
X-349.71 Y-76.35
X-349.692 Y-76.417
X-349.69 Y-76.486
X-349.704 Y-76.553
G3 X-349.87 Y-77.458 I3.156 J-1.047
G1 X-349.871 Y-77.731
G3 X-349.819 Y-78.199 Z-2.39 I3.322 J0.132
G1 X-348.885 Y-82.453
X-348.852 Y-82.595
X-348.749 Y-83.02
X-345.966 Y-93.943
X-345.856 Y-94.364
X-342.561 Y-105.707
X-338.899 Y-116.909
G3 X-338.554 Y-117.099 Z-2.207 I0.282 J0.103
G1 X-338.514 Y-117.09 Z-2.19
X-338.247 Y-117.032
X-338.186 Y-117.018
G2 X-337.957 Y-117.562 I0.064 J-0.293
G3 X-338.686 Y-118.104 I4.199 J-6.405
G1 X-338.892 Y-118.284
X-339.232 Y-118.61 Z-2.39
X-339.362 Y-118.752
X-344.832 Y-124.63
X-344.974 Y-124.784
X-350.506 Y-130.946
X-350.787 Y-131.269
X-354.474 Y-135.529
G3 X-354.132 Y-135.997 I0.234 J-0.188
G1 X-354.07 Y-135.973 Z-2.382
X-354.011 Y-135.95 Z-2.36
X-353.958 Y-135.929 Z-2.325
X-353.913 Y-135.912 Z-2.277
X-353.88 Y-135.899 Z-2.22
X-353.859 Y-135.891 Z-2.157
X-353.852 Y-135.889 Z-2.09
G0 Z2.51
X-366.837 Y-115.333
Z-1.79
G1 Z-2.09 F1000.
X-366.835 Y-115.326 Z-2.157
X-366.83 Y-115.304 Z-2.22
X-366.821 Y-115.27 Z-2.277
X-366.809 Y-115.224 Z-2.325
X-366.795 Y-115.169 Z-2.36
X-366.779 Y-115.107 Z-2.382
X-366.763 Y-115.043 Z-2.39
G3 Y-113.393 I-3.221 J0.826
G1 X-369.975 Y-102.446
X-370.017 Y-102.304
X-370.055 Y-102.162
X-373.071 Y-90.535
X-373.105 Y-90.393
X-375.762 Y-78.625
X-375.954 Y-77.632
X-378.03 Y-66.856
X-378.105 Y-66.43
G3 X-378.249 Y-66.222 Z-2.279 I-0.296 J-0.051
G1 X-378.297 Y-66.2 Z-2.257
X-378.347 Y-66.186 Z-2.234
X-378.399 Y-66.181 Z-2.212
X-378.451 Y-66.186 Z-2.19
X-378.498 Y-66.198
X-378.543 Y-66.217
X-378.583 Y-66.244
X-378.685 Y-66.322
X-378.965 Y-66.538
G3 X-378.599 Y-67.013 I0.183 J-0.238
X-378.503 Y-66.886 I-0.183 J0.238
X-378.286 Y-65.993 I-3.09 J1.226
G1 X-378.27 Y-65.72
G3 X-378.294 Y-65.25 Z-2.39 I-3.324 J0.06
G1 X-379.942 Y-54.945
X-379.996 Y-54.6
X-380.008 Y-54.52
X-381.509 Y-42.751
X-381.556 Y-42.325
X-381.584 Y-42.042
X-382.152 Y-36.086
G3 X-382.727 Y-36.01 I-0.297 J-0.039
G1 X-382.752 Y-36.072 Z-2.382
X-382.777 Y-36.131 Z-2.36
X-382.798 Y-36.183 Z-2.325
X-382.817 Y-36.227 Z-2.277
X-382.83 Y-36.26 Z-2.22
X-382.839 Y-36.28 Z-2.157
X-382.842 Y-36.287 Z-2.09
G0 Z2.51
X-382.332 Y41.187
Z-1.79
G1 Z-2.09 F1000.
X-382.327 Y41.193 Z-2.157
X-382.313 Y41.211 Z-2.22
X-382.291 Y41.239 Z-2.277
X-382.262 Y41.276 Z-2.325
X-382.227 Y41.321 Z-2.36
X-382.188 Y41.371 Z-2.382
X-382.147 Y41.424 Z-2.39
G3 X-381.485 Y42.935 I-2.62 J2.047
G1 X-380.008 Y54.52
X-379.964 Y54.803
X-379.897 Y55.229
X-378.128 Y66.288
X-378.08 Y66.572
X-378.03 Y66.856
X-375.817 Y78.341
X-375.762 Y78.625
X-373.105 Y90.393
X-373.071 Y90.535
X-370.055 Y102.162
X-370.017 Y102.304
X-369.559 Y103.864
X-367.27 Y111.662
G3 X-367.775 Y111.947 I-0.291 J0.074
G1 X-367.822 Y111.899 Z-2.382
X-367.866 Y111.853 Z-2.36
X-367.906 Y111.813 Z-2.325
X-367.939 Y111.779 Z-2.277
X-367.964 Y111.753 Z-2.22
X-367.98 Y111.737 Z-2.157
X-367.985 Y111.732 Z-2.09
G0 Z2.51
X-313.468 Y-187.757
Z-1.79
G1 Z-2.09 F1000.
X-313.475 Y-187.754 Z-2.157
X-313.495 Y-187.746 Z-2.22
X-313.528 Y-187.733 Z-2.277
X-313.573 Y-187.715 Z-2.325
X-313.625 Y-187.694 Z-2.36
X-313.684 Y-187.671 Z-2.382
X-313.746 Y-187.646 Z-2.39
G3 X-315.383 Y-187.435 I-1.231 J-3.089
G1 X-318.743 Y-187.967
X-319.026 Y-188.012
X-322.571 Y-188.529
G3 X-322.619 Y-189.106 I0.054 J-0.295
G1 X-322.556 Y-189.129 Z-2.382
X-322.496 Y-189.15 Z-2.36
X-322.443 Y-189.169 Z-2.325
X-322.398 Y-189.185 Z-2.277
X-322.364 Y-189.197 Z-2.22
X-322.343 Y-189.205 Z-2.157
X-322.336 Y-189.207 Z-2.09
G0 Z2.51
X-323.36 Y-182.559
Z-1.79
G1 Z-2.09 F1000.
X-323.353 Y-182.556 Z-2.157
X-323.332 Y-182.548 Z-2.22
X-323.298 Y-182.536 Z-2.277
X-323.254 Y-182.52 Z-2.325
X-323.2 Y-182.5 Z-2.36
X-323.141 Y-182.478 Z-2.382
X-323.078 Y-182.455 Z-2.39
G3 X-321.72 Y-181.517 I-1.151 J3.119
G1 X-319.463 Y-178.731
G3 X-319.401 Y-178.485 Z-2.279 I-0.233 J0.189
G1 X-319.407 Y-178.433 Z-2.257
X-319.403 Y-178.381 Z-2.234
X-319.391 Y-178.33 Z-2.212
X-319.369 Y-178.282 Z-2.19
X-319.337 Y-178.235
X-319.198 Y-178.069
X-314.655 Y-172.662
G2 X-314.148 Y-172.742 I0.23 J-0.193
G3 X-313.755 Y-173.561 I7.09 J2.896
G1 X-313.618 Y-173.798
X-313.363 Y-174.193 Z-2.39
G3 X-308.451 Y-182.704 I626.923 J356.165
G1 X-308.413 Y-182.751
X-308.366 Y-182.789
X-308.312 Y-182.817
X-308.254 Y-182.834
X-308.194 Y-182.839
X-308.133 Y-182.833
X-308.074 Y-182.814
X-308.02 Y-182.784
X-307.986 Y-182.744 Z-2.385
X-307.953 Y-182.704 Z-2.371
X-307.923 Y-182.668 Z-2.348
X-307.913 Y-182.625 Z-2.315
X-307.905 Y-182.588 Z-2.276
X-307.898 Y-182.56 Z-2.23
X-307.894 Y-182.539 Z-2.179
Y-182.529 Z-2.135
Y-182.526 Z-2.09
G0 Z2.51
X-323.737 Y189.323
Z-1.79
G1 Z-2.09 F1000.
X-323.731 Y189.318 Z-2.157
X-323.714 Y189.304 Z-2.22
X-323.686 Y189.282 Z-2.277
X-323.649 Y189.252 Z-2.325
X-323.605 Y189.216 Z-2.36
X-323.555 Y189.176 Z-2.382
X-323.504 Y189.134 Z-2.39
G3 X-322.004 Y188.446 I2.093 J2.583
G1 X-319.026 Y188.012
X-318.176 Y187.878
X-315.037 Y187.38
G3 X-314.82 Y187.917 I0.037 J0.298
G1 X-314.873 Y187.958 Z-2.382
X-314.924 Y187.996 Z-2.36
X-314.969 Y188.03 Z-2.325
X-315.007 Y188.059 Z-2.277
X-315.036 Y188.08 Z-2.22
X-315.054 Y188.093 Z-2.157
X-315.06 Y188.098 Z-2.09
G0 Z2.51
X-306.551 Y186.107
Z-1.79
G1 Z-2.09 F1000.
X-306.556 Y186.101 Z-2.157
X-306.568 Y186.083 Z-2.22
X-306.588 Y186.053 Z-2.277
X-306.615 Y186.014 Z-2.325
X-306.647 Y185.967 Z-2.36
X-306.683 Y185.914 Z-2.382
X-306.72 Y185.859 Z-2.39
G3 X-307.495 Y184.402 I6.334 J-4.306
G1 X-307.547 Y184.261
G3 X-312.932 Y174.917 I490.835 J-289.127
G1 X-312.956 Y174.856
X-312.965 Y174.791
X-312.961 Y174.725
X-312.942 Y174.662
X-312.91 Y174.604
X-312.866 Y174.555
X-312.813 Y174.517
X-312.753 Y174.491
X-312.689 Y174.478
X-312.623 Y174.48
X-312.56 Y174.496
X-312.501 Y174.525
X-312.445 Y174.561 Z-2.382
X-312.392 Y174.595 Z-2.36
X-312.344 Y174.626 Z-2.325
X-312.304 Y174.651 Z-2.277
X-312.274 Y174.671 Z-2.22
X-312.255 Y174.683 Z-2.157
X-312.249 Y174.687 Z-2.09
G0 Z2.51
X-315.944 Y173.517
Z-1.79
G1 Z-2.09 F1000.
X-315.945 Y173.524 Z-2.157
X-315.948 Y173.546 Z-2.22
X-315.954 Y173.581 Z-2.277
X-315.962 Y173.628 Z-2.325
X-315.97 Y173.684 Z-2.36
X-315.98 Y173.747 Z-2.382
X-315.991 Y173.813 Z-2.39
G3 X-316.645 Y175.328 I-3.284 J-0.52
G1 X-319.002 Y178.164
X-319.735 Y179.067
X-320.267 Y179.723
G3 X-320.788 Y179.469 I-0.226 J-0.197
G1 X-320.775 Y179.404 Z-2.382
X-320.763 Y179.341 Z-2.36
X-320.752 Y179.285 Z-2.325
X-320.743 Y179.239 Z-2.277
X-320.736 Y179.204 Z-2.22
X-320.732 Y179.182 Z-2.157
X-320.73 Y179.175 Z-2.09
G0 Z2.51
X323.878 Y-189.344
Z-1.79
G1 Z-2.09 F1000.
X323.873 Y-189.339 Z-2.157
X323.855 Y-189.325 Z-2.22
X323.828 Y-189.303 Z-2.277
X323.791 Y-189.273 Z-2.325
X323.746 Y-189.237 Z-2.36
X323.697 Y-189.197 Z-2.382
X323.645 Y-189.155 Z-2.39
G3 X322.146 Y-188.467 I-2.093 J-2.583
G1 X319.026 Y-188.012
X318.176 Y-187.878
X315.037 Y-187.38
G3 X314.82 Y-187.917 I-0.037 J-0.298
G1 X314.873 Y-187.958 Z-2.382
X314.924 Y-187.996 Z-2.36
X314.969 Y-188.03 Z-2.325
X315.007 Y-188.059 Z-2.277
X315.036 Y-188.08 Z-2.22
X315.054 Y-188.093 Z-2.157
X315.06 Y-188.098 Z-2.09
G0 Z2.51
X306.551 Y-186.107
Z-1.79
G1 Z-2.09 F1000.
X306.556 Y-186.101 Z-2.157
X306.568 Y-186.083 Z-2.22
X306.588 Y-186.053 Z-2.277
X306.615 Y-186.014 Z-2.325
X306.647 Y-185.967 Z-2.36
X306.683 Y-185.914 Z-2.382
X306.72 Y-185.859 Z-2.39
G3 X307.495 Y-184.402 I-6.334 J4.306
G1 X307.547 Y-184.261
G3 X313.213 Y-174.416 I-482.264 J284.153
X312.789 Y-174.02 I-0.265 J0.141
G1 X312.733 Y-174.056 Z-2.382
X312.679 Y-174.089 Z-2.36
X312.631 Y-174.119 Z-2.325
X312.59 Y-174.144 Z-2.277
X312.56 Y-174.163 Z-2.22
X312.541 Y-174.175 Z-2.157
X312.535 Y-174.179 Z-2.09
G0 Z2.51
X317.241 Y-175.076
Z-1.79
G1 Z-2.09 F1000.
X317.242 Y-175.084 Z-2.157
X317.245 Y-175.106 Z-2.22
X317.251 Y-175.141 Z-2.277
X317.258 Y-175.188 Z-2.325
X317.267 Y-175.244 Z-2.36
X317.277 Y-175.307 Z-2.382
X317.287 Y-175.373 Z-2.39
G3 X317.942 Y-176.887 I3.284 J0.52
G1 X319.002 Y-178.164
X319.735 Y-179.067
X321.99 Y-181.85
G3 X322.511 Y-181.596 I0.226 J0.197
G1 X322.498 Y-181.53 Z-2.382
X322.486 Y-181.468 Z-2.36
X322.475 Y-181.412 Z-2.325
X322.466 Y-181.366 Z-2.277
X322.459 Y-181.331 Z-2.22
X322.455 Y-181.309 Z-2.157
X322.454 Y-181.302 Z-2.09
G0 Z2.51
X313.567 Y187.773
Z-1.79
G1 Z-2.09 F1000.
X313.574 Y187.77 Z-2.157
X313.594 Y187.762 Z-2.22
X313.627 Y187.749 Z-2.277
X313.671 Y187.731 Z-2.325
X313.724 Y187.71 Z-2.36
X313.783 Y187.687 Z-2.382
X313.845 Y187.662 Z-2.39
G3 X315.482 Y187.451 I1.231 J3.089
G1 X318.743 Y187.967
X319.026 Y188.012
X322.571 Y188.529
G3 X322.619 Y189.106 I-0.054 J0.295
G1 X322.556 Y189.129 Z-2.382
X322.496 Y189.15 Z-2.36
X322.443 Y189.169 Z-2.325
X322.398 Y189.185 Z-2.277
X322.364 Y189.197 Z-2.22
X322.343 Y189.205 Z-2.157
X322.336 Y189.207 Z-2.09
G0 Z2.51
X323.36 Y182.559
Z-1.79
G1 Z-2.09 F1000.
X323.353 Y182.556 Z-2.157
X323.332 Y182.548 Z-2.22
X323.298 Y182.536 Z-2.277
X323.254 Y182.52 Z-2.325
X323.2 Y182.5 Z-2.36
X323.141 Y182.478 Z-2.382
X323.078 Y182.455 Z-2.39
G3 X321.72 Y181.517 I1.151 J-3.119
G1 X319.348 Y178.589
G3 X319.287 Y178.343 Z-2.279 I0.233 J-0.189
G1 X319.292 Y178.291 Z-2.257
X319.288 Y178.239 Z-2.234
X319.276 Y178.188 Z-2.212
X319.255 Y178.14 Z-2.19
X319.222 Y178.093
X319.083 Y177.928
X314.655 Y172.662
G2 X314.148 Y172.742 I-0.23 J0.193
G3 X313.755 Y173.561 I-7.09 J-2.896
G1 X313.618 Y173.798
X313.363 Y174.193 Z-2.39
G3 X307.683 Y184.002 I-555.045 J-314.853
X307.128 Y183.838 I-0.256 J-0.157
G1 X307.129 Y183.771 Z-2.382
X307.131 Y183.708 Z-2.36
X307.132 Y183.651 Z-2.325
X307.134 Y183.603 Z-2.277
X307.135 Y183.568 Z-2.22
Y183.546 Z-2.157
Y183.538 Z-2.09
G0 Z2.51
X353.51 Y-135.359
Z-1.79
G1 Z-2.09 F1000.
X353.508 Y-135.352 Z-2.157
X353.504 Y-135.33 Z-2.22
X353.498 Y-135.295 Z-2.277
X353.49 Y-135.248 Z-2.325
X353.48 Y-135.192 Z-2.36
X353.468 Y-135.13 Z-2.382
X353.457 Y-135.064 Z-2.39
G3 X352.772 Y-133.563 I-3.273 J-0.585
G1 X350.753 Y-131.23
X350.504 Y-130.944
X344.974 Y-124.784
X344.69 Y-124.477
X341.146 Y-120.668
G3 X340.911 Y-120.573 Z-2.279 I-0.22 J-0.204
G1 X340.853 Y-120.57 Z-2.254
X340.797 Y-120.557 Z-2.23
X340.745 Y-120.533 Z-2.206
X340.713 Y-120.515 Z-2.19
X340.476 Y-120.378
X338.298 Y-119.12
G2 X338.185 Y-118.717 I0.15 J0.26
G3 X338.573 Y-117.896 I-6.718 J3.677
G1 X338.671 Y-117.64
X338.817 Y-117.192 Z-2.39
X338.853 Y-117.051
X342.561 Y-105.707
X345.856 Y-94.364
X345.968 Y-93.938
X348.749 Y-83.02
X348.852 Y-82.595
X348.885 Y-82.453
X351.354 Y-71.207
X351.456 Y-70.684
X353.528 Y-59.482
X353.554 Y-59.341
X353.747 Y-58.064
X355.329 Y-47.572
X355.346 Y-47.43
X356.706 Y-35.803
X356.721 Y-35.661
X357.702 Y-23.892
X357.735 Y-23.27
X358.291 Y-12.123
X358.297 Y-11.982
X358.308 Y-11.556
X358.496 Y-0.213
Y0.213
X358.308 Y11.556
X358.297 Y11.982
X358.291 Y12.123
X357.725 Y23.467
X357.702 Y23.892
X356.721 Y35.661
X356.706 Y35.803
X355.943 Y42.325
X355.346 Y47.43
X355.329 Y47.572
X353.597 Y59.057
X353.554 Y59.341
X353.476 Y59.766
X351.456 Y70.684
X351.354 Y71.207
X348.885 Y82.453
X348.852 Y82.595
X348.749 Y83.02
X345.966 Y93.943
X345.856 Y94.364
X342.561 Y105.707
X338.899 Y116.909
G3 X338.554 Y117.099 Z-2.207 I-0.282 J-0.103
G1 X338.514 Y117.09 Z-2.19
X338.247 Y117.032
X338.186 Y117.018
G2 X337.957 Y117.562 I-0.064 J0.293
G3 X338.686 Y118.104 I-4.199 J6.405
G1 X338.892 Y118.284
X339.232 Y118.61 Z-2.39
X339.362 Y118.752
X344.832 Y124.63
X344.974 Y124.784
X350.506 Y130.946
X350.787 Y131.269
X354.474 Y135.529
G3 X354.132 Y135.997 I-0.234 J0.188
G1 X354.07 Y135.973 Z-2.382
X354.011 Y135.95 Z-2.36
X353.958 Y135.929 Z-2.325
X353.913 Y135.912 Z-2.277
X353.88 Y135.899 Z-2.22
X353.859 Y135.891 Z-2.157
X353.852 Y135.889 Z-2.09
G0 Z2.51
X366.837 Y115.333
Z-1.79
G1 Z-2.09 F1000.
X366.835 Y115.326 Z-2.157
X366.83 Y115.304 Z-2.22
X366.821 Y115.27 Z-2.277
X366.809 Y115.224 Z-2.325
X366.795 Y115.169 Z-2.36
X366.779 Y115.107 Z-2.382
X366.763 Y115.043 Z-2.39
G3 Y113.393 I3.221 J-0.826
G1 X369.975 Y102.446
X370.017 Y102.304
X370.055 Y102.162
X373.071 Y90.535
X373.105 Y90.393
X375.762 Y78.625
X375.954 Y77.632
X378.03 Y66.856
X378.105 Y66.43
G3 X378.249 Y66.222 Z-2.279 I0.296 J0.051
G1 X378.297 Y66.2 Z-2.257
X378.347 Y66.186 Z-2.234
X378.399 Y66.181 Z-2.212
X378.451 Y66.186 Z-2.19
X378.498 Y66.198
X378.543 Y66.217
X378.583 Y66.244
X378.685 Y66.322
X378.965 Y66.538
G3 X378.599 Y67.013 I-0.183 J0.238
X378.503 Y66.886 I0.183 J-0.238
X378.286 Y65.993 I3.09 J-1.226
G1 X378.27 Y65.72
G3 X378.294 Y65.25 Z-2.39 I3.324 J-0.06
G1 X379.942 Y54.945
X379.996 Y54.6
X380.008 Y54.52
X381.509 Y42.751
X381.556 Y42.325
X381.584 Y42.042
X382.152 Y36.086
G3 X382.727 Y36.01 I0.297 J0.039
G1 X382.752 Y36.072 Z-2.382
X382.777 Y36.131 Z-2.36
X382.798 Y36.183 Z-2.325
X382.817 Y36.227 Z-2.277
X382.83 Y36.26 Z-2.22
X382.839 Y36.28 Z-2.157
X382.842 Y36.287 Z-2.09
G0 Z2.51
X382.332 Y-41.187
Z-1.79
G1 Z-2.09 F1000.
X382.327 Y-41.193 Z-2.157
X382.313 Y-41.211 Z-2.22
X382.291 Y-41.239 Z-2.277
X382.262 Y-41.276 Z-2.325
X382.227 Y-41.321 Z-2.36
X382.188 Y-41.371 Z-2.382
X382.147 Y-41.424 Z-2.39
G3 X381.485 Y-42.935 I2.62 J-2.047
G1 X380.008 Y-54.52
X379.964 Y-54.803
X379.897 Y-55.229
X378.128 Y-66.288
X378.08 Y-66.572
X378.03 Y-66.856
X375.817 Y-78.341
X375.762 Y-78.625
X373.105 Y-90.393
X373.071 Y-90.535
X370.055 Y-102.162
X370.017 Y-102.304
X369.559 Y-103.864
X367.27 Y-111.662
G3 X367.5 Y-112.031 I0.291 J-0.074
G1 X367.561 Y-112.037 Z-2.384
X367.615 Y-112.023 Z-2.366
X367.665 Y-112.01 Z-2.337
X367.708 Y-111.998 Z-2.3
X367.737 Y-111.976 Z-2.254
X367.758 Y-111.96 Z-2.203
X367.771 Y-111.95 Z-2.148
X367.775 Y-111.947 Z-2.09
G0 Z2.51
X-304.473 Y-250.286
Z-4.18
G1 Z-4.48 F1000.
X-304.474 Y-250.278 Z-4.547
X-304.477 Y-250.256 Z-4.61
X-304.482 Y-250.221 Z-4.667
X-304.488 Y-250.174 Z-4.715
X-304.496 Y-250.118 Z-4.75
X-304.504 Y-250.055 Z-4.772
X-304.513 Y-249.989 Z-4.78
G3 X-305.131 Y-248.459 I-3.295 J-0.442
G1 X-311.053 Y-240.978
G3 X-311.577 Y-241.226 I-0.229 J-0.194
G1 X-311.565 Y-241.292 Z-4.772
X-311.554 Y-241.354 Z-4.75
X-311.543 Y-241.41 Z-4.715
X-311.535 Y-241.457 Z-4.667
X-311.528 Y-241.492 Z-4.61
X-311.524 Y-241.514 Z-4.547
X-311.523 Y-241.521 Z-4.48
G0 Z2.51
X-312.608 Y-237.471
Z-4.18
G1 Z-4.48 F1000.
X-312.6 Y-237.47 Z-4.547
X-312.578 Y-237.468 Z-4.61
X-312.542 Y-237.465 Z-4.667
X-312.495 Y-237.461 Z-4.715
X-312.438 Y-237.456 Z-4.75
X-312.375 Y-237.45 Z-4.772
X-312.309 Y-237.444 Z-4.78
G3 X-311.538 Y-237.291 I-0.321 J3.632
G1 X-311.37 Y-237.235
X-310.928 Y-237.15
X-299.601 Y-235.268
X-299.176 Y-235.192
X-298.892 Y-235.138
X-287.833 Y-233.004
X-287.407 Y-232.917
X-287.266 Y-232.888
X-276.35 Y-230.485
G3 X-276.149 Y-230.331 Z-4.669 I-0.064 J0.293
G1 X-276.129 Y-230.283 Z-4.647
X-276.117 Y-230.232 Z-4.624
X-276.115 Y-230.18 Z-4.602
X-276.122 Y-230.128 Z-4.58
G3 X-276.708 Y-230.257 I-0.293 J-0.064
X-276.249 Y-230.442 I0.293 J0.064
G1 X-274.849 Y-229.51
G3 X-275.181 Y-229.011 I-0.166 J0.25
X-275.281 Y-229.401 I0.166 J-0.25
X-274.81 Y-230.177 I6.776 J3.571
G1 X-274.651 Y-230.4
X-274.359 Y-230.769 Z-4.78
X-274.221 Y-230.921
X-273.937 Y-231.246
X-268.676 Y-237.291
X-268.266 Y-237.754
X-264.997 Y-241.403
X-264.863 Y-241.551
X-260.893 Y-245.82
X-260.609 Y-246.123
X-257.128 Y-249.769
X-256.923 Y-249.983
X-255.646 Y-251.268
G3 X-255.222 Y-251.27 Z-4.58 I0.213 J0.211
G1 X-255.18 Y-251.216
X-255.15 Y-251.155
X-255.135 Y-251.088
X-255.128 Y-251.02
X-255.078 Y-250.546
G3 X-255.361 Y-250.215 I-0.298 J0.031
X-255.677 Y-250.514 I-0.016 J-0.3
G1 X-255.676 Y-250.539
X-255.673 Y-250.563
X-255.668 Y-250.587
G3 X-255.323 Y-251.44 I3.225 J0.808
G1 X-255.176 Y-251.671
G3 X-254.882 Y-252.038 Z-4.78 I2.734 J1.892
G1 X-252.628 Y-254.307
X-248.841 Y-258.031
X-248.557 Y-258.303
X-244.303 Y-262.312
X-243.915 Y-262.672
X-240.333 Y-265.977
X-240.191 Y-266.105
X-235.563 Y-270.188
X-231.633 Y-273.591
X-231.542 Y-273.667
X-231.117 Y-274.02
X-226.826 Y-277.561
X-226.58 Y-277.763
X-222.811 Y-280.822
X-222.326 Y-281.206
X-217.647 Y-284.815
G3 X-213.194 Y-288.195 I202.59 J262.257
G1 X-208.074 Y-291.882
X-204.288 Y-294.576
X-203.886 Y-294.86
X-198.505 Y-298.471
G3 X-193.889 Y-301.524 I113.667 J166.846
G1 X-188.296 Y-305.016
X-187.297 Y-305.636
X-187.23 Y-305.672
X-187.196 Y-305.685
X-187.162 Y-305.694
X-187.127 Y-305.699
X-187.091 Y-305.7
X187.091
X187.127 Y-305.699
X187.162 Y-305.694
X187.196 Y-305.685
X187.23 Y-305.672
X187.304 Y-305.632
X188.58 Y-304.84
X193.968 Y-301.474
G3 X199.45 Y-297.837 I-218.643 J335.494
G1 X203.886 Y-294.86
X204.46 Y-294.454
X208.147 Y-291.83
X213.251 Y-288.154
G3 X227.17 Y-277.277 I-217.703 J292.93
G1 X231.4 Y-273.785
X231.542 Y-273.667
X231.684 Y-273.546
X235.563 Y-270.188
X240.225 Y-266.076
X240.38 Y-265.934
X244.162 Y-262.444
X244.445 Y-262.179
X248.584 Y-258.277
X248.841 Y-258.031
X252.628 Y-254.307
X256.923 Y-249.983
X257.67 Y-249.202
X260.647 Y-246.083
X261.177 Y-245.515
X264.868 Y-241.545
X265.005 Y-241.395
X268.299 Y-237.717
X268.691 Y-237.274
X273.654 Y-231.572
G3 X273.724 Y-231.328 Z-4.669 I-0.226 J0.197
G1 X273.685 Y-231.122 Z-4.58
X273.633 Y-230.853
G2 X273.5 Y-230.126 I2.844 J0.898
X273.916 Y-229.849 I0.3 J0.
G3 X274.772 Y-230.151 I2.972 J7.059
G1 X275.037 Y-230.222
X275.497 Y-230.322 Z-4.78
X275.641 Y-230.344
X275.922 Y-230.393
X276.064 Y-230.422
X287.302 Y-232.896
X287.691 Y-232.976
X287.833 Y-233.004
X299.034 Y-235.166
X299.176 Y-235.192
X299.601 Y-235.268
X310.944 Y-237.152
X311.164 Y-237.195
G3 X311.399 Y-236.665 I0.047 J0.296
G1 X311.347 Y-236.623 Z-4.772
X311.298 Y-236.583 Z-4.75
X311.254 Y-236.548 Z-4.715
X311.217 Y-236.518 Z-4.667
X311.189 Y-236.495 Z-4.61
X311.172 Y-236.481 Z-4.547
X311.166 Y-236.477 Z-4.48
G0 Z2.51
X255.252 Y-300.282
Z-4.18
G1 Z-4.48 F1000.
X255.245 Y-300.283 Z-4.547
X255.223 Y-300.287 Z-4.61
X255.188 Y-300.292 Z-4.667
X255.141 Y-300.3 Z-4.715
X255.085 Y-300.308 Z-4.75
X255.022 Y-300.318 Z-4.772
X254.956 Y-300.328 Z-4.78
G3 X253.44 Y-300.979 I0.511 J-3.285
G1 X250.894 Y-303.084
G3 X250.309 Y-305.082 I1.296 J-1.465
X250.558 Y-305.625 I1.882 J0.534 F900.
G1 X250.655 Y-305.68 F1000.
X250.762 Y-305.7
G3 X251.048 Y-305.447 Z-4.604 I-0.01 J0.3
G1 X251.057 Y-305.39 Z-4.58
X251.099 Y-305.12
X251.369 Y-303.397
X251.373 Y-303.368
X251.377 Y-303.307
X251.368 Y-303.247
X251.347 Y-303.19
X251.315 Y-303.138
G3 X250.894 Y-303.084 Z-4.78 I-0.238 J-0.183
G1 X249.55 Y-304.195
G3 X249.083 Y-304.931 I0.996 J-1.147
X249.037 Y-305.526 I1.462 J-0.412 F900.
G1 X249.113 Y-305.617 F1000.
X249.209 Y-305.678
X249.32 Y-305.7
G3 X249.585 Y-305.52 Z-4.637 I-0.01 J0.3
G1 X249.638 Y-305.398 Z-4.58
X249.748 Y-305.147
X250.007 Y-304.553
X250.016 Y-304.531
X250.023 Y-304.509
G3 X249.97 Y-304.25 I-0.29 J0.076
X249.55 Y-304.195 Z-4.78 I-0.238 J-0.183
G1 X248.493 Y-305.069
X248.415 Y-305.133
X248.371 Y-305.172
X248.338 Y-305.211
X248.317 Y-305.246
X248.301 Y-305.281 F900.
X248.291 Y-305.317
X248.285 Y-305.352
X248.284 Y-305.388
X248.286 Y-305.423
X248.293 Y-305.459
X248.305 Y-305.494
X248.322 Y-305.53
X248.343 Y-305.565
X248.371 Y-305.6
X248.409 Y-305.636
X248.415 Y-305.641
X248.451 Y-305.664
X248.486 Y-305.68
X248.522 Y-305.691 F1000.
X248.557 Y-305.698
X248.699 Y-305.7
X305.131
G3 X305.361 Y-305.593 Z-4.669 I0. J0.3
G1 X305.398 Y-305.556 Z-4.647
X305.441 Y-305.526 Z-4.624
X305.488 Y-305.504 Z-4.602
X305.538 Y-305.49 Z-4.58
X305.575 Y-305.486
X305.811 Y-305.474
X311.363 Y-305.193
X311.421 Y-305.196
X311.478 Y-305.21
X311.531 Y-305.235
G3 X312.379 Y-305.591 I1.699 J2.858
G1 X312.646 Y-305.65
G3 X313.114 Y-305.7 Z-4.78 I0.584 J3.273
G1 X313.716
X314.064 F900.
X314.206 Y-305.699
X314.241 Y-305.694
X314.276 Y-305.685
X314.312 Y-305.67
X314.347 Y-305.65 F1000.
X314.367 Y-305.636
X314.489 Y-305.516
X315.338 Y-304.643
G3 X315.422 Y-304.404 Z-4.669 I-0.215 J0.209
G1 X315.412 Y-304.353 Z-4.647
X315.394 Y-304.304 Z-4.624
X315.367 Y-304.259 Z-4.602
X315.333 Y-304.219 Z-4.58
X315.288 Y-304.183
X315.236 Y-304.156
X315.181 Y-304.14
X315.123 Y-304.134
X315.081
X314.534
G3 X314.236 Y-304.473 I0. J-0.3
X314.612 Y-304.724 I0.297 J0.039
X315.458 Y-304.364 I-0.863 J3.211
G1 X315.687 Y-304.214
G3 X316.049 Y-303.913 Z-4.78 I-1.939 J2.701
G1 X317.959 Y-301.949
X318.317 Y-301.571
X319.735 Y-300.041
G3 X319.719 Y-299.617 Z-4.58 I-0.22 J0.204
X319.465 Y-299.541 I-0.204 J-0.22
G1 X319.099 Y-299.604
G3 X319.201 Y-300.195 I0.051 J-0.296
X319.312 Y-300.152 I-0.051 J0.296
X320.045 Y-299.615 I-4.15 J6.437
G1 X320.253 Y-299.437
X320.595 Y-299.113 Z-4.78
X321.513 Y-298.121
X326.258 Y-292.96
X326.335 Y-292.874
X329.697 Y-289.046
X334.056 Y-284.025
X334.371 Y-283.658
X337.673 Y-279.688
X341.857 Y-274.583
G3 X345.872 Y-269.479 I-339.781 J271.38
G1 X349.27 Y-265.083
X349.511 Y-264.768
X352.55 Y-260.687
X352.772 Y-260.388
X356.601 Y-255.135
G3 X360.571 Y-249.469 I-365.309 J260.196
G1 X364.841 Y-243.247
X365.036 Y-242.963
X365.065 Y-242.905 Z-4.752
X365.081 Y-242.842 Z-4.725
X365.083 Y-242.777 Z-4.697
X365.06 Y-242.502 Z-4.58
X365.044 Y-242.311
G2 X365.333 Y-242.115 I0.199 J0.017
G1 X365.377 Y-242.136
G3 X365.634 Y-242.229 I0.662 J1.437
X366.1 Y-242.28 Z-4.78 I0.405 J1.53
G2 X366.809 Y-242.283 I0.336 J-4.627
G1 X366.81 Y-242.282
G3 X367.11 Y-241.968 I0. J0.3
G1 X367.094 Y-241.918 Z-4.775
X367.079 Y-241.869 Z-4.761
X367.065 Y-241.823 Z-4.738
X367.03 Y-241.789 Z-4.701
X367. Y-241.761 Z-4.654
X366.979 Y-241.74 Z-4.6
X366.965 Y-241.727 Z-4.542
X366.961 Y-241.722 Z-4.48
G0 Z2.51
X392.494 Y-295.826
Z-4.18
G1 Z-4.48 F1000.
X392.492 Y-295.834 Z-4.547
X392.488 Y-295.855 Z-4.61
X392.481 Y-295.89 Z-4.667
X392.471 Y-295.937 Z-4.715
X392.46 Y-295.993 Z-4.75
X392.447 Y-296.055 Z-4.772
X392.434 Y-296.12 Z-4.78
G3 X392.516 Y-297.768 I3.258 J-0.665
G1 X395.095 Y-305.173
X395.207 Y-305.494 F900.
X395.222 Y-305.528
X395.243 Y-305.562
X395.271 Y-305.596
X395.309 Y-305.631
X395.35 Y-305.658
X395.384 Y-305.675
X395.417 Y-305.688 F1000.
X395.451 Y-305.696
X395.593 Y-305.7
X429.339
G3 X429.628 Y-305.401 I-0.01 J0.3
G1 X429.627 Y-305.376
X429.61 Y-305.326 Z-4.775
X429.593 Y-305.277 Z-4.761
X429.577 Y-305.232 Z-4.738
X429.54 Y-305.199 Z-4.701
X429.51 Y-305.172 Z-4.654
X429.488 Y-305.152 Z-4.6
X429.474 Y-305.14 Z-4.542
X429.469 Y-305.135 Z-4.48
G0 Z2.51
X437.139 Y-305.082
Z-4.18
G1 Z-4.48 F1000.
X437.146 Y-305.086 Z-4.547
X437.165 Y-305.097 Z-4.61
X437.196 Y-305.115 Z-4.667
X437.236 Y-305.139 Z-4.715
X437.285 Y-305.169 Z-4.75
X437.34 Y-305.201 Z-4.772
X437.397 Y-305.235 Z-4.78
G3 X438.98 Y-305.7 I1.699 J2.858
G1 X441.533
G3 X441.922 Y-305.65 I0.075 J0.953
X442.392 Y-305.293 I-0.314 J0.902 F900.
G1 X442.367 Y-305.145 F1000.
G3 X442.001 Y-304.956 Z-4.587 I-0.283 J-0.099
G1 X441.986 Y-304.96 Z-4.58
X441.723 Y-305.036
X441.46 Y-305.112
G3 X441.243 Y-305.39 I0.083 J-0.288
X441.533 Y-305.7 Z-4.78 I0.3 J-0.01
X442.007 Y-305.716 I0.3 J1.865
G1 X442.107 Y-305.704 F900.
X442.206 Y-305.687
X442.241 Y-305.673
X442.272 Y-305.657
X442.303 Y-305.636
X442.35 Y-305.592
X442.368 Y-305.571
X442.383 Y-305.549
X442.398 Y-305.522
X442.41 Y-305.494
X442.421 Y-305.459
X442.427 Y-305.423
X442.429 Y-305.388
X442.427 Y-305.352 F1000.
X442.42 Y-305.317
X440.152 Y-297.979
X440.107 Y-297.837
X439.966 Y-297.412
X436.427 Y-286.919
X436.286 Y-286.51
X432.285 Y-275.576
X432.23 Y-275.434
X428.028 Y-264.799
X427.912 Y-264.516
X427.794 Y-264.232
X423.396 Y-253.881
X423.271 Y-253.598
X423.1 Y-253.221
G3 X422.532 Y-253.337 I-0.269 J-0.134
G1 X422.528 Y-253.403 Z-4.772
X422.524 Y-253.467 Z-4.75
X422.52 Y-253.524 Z-4.715
X422.518 Y-253.571 Z-4.667
X422.515 Y-253.607 Z-4.61
X422.514 Y-253.629 Z-4.547
X422.513 Y-253.636 Z-4.48
G0 Z2.51
X419.506 Y-240.28
Z-4.18
G1 Z-4.48 F1000.
X419.513 Y-240.283 Z-4.547
X419.533 Y-240.292 Z-4.61
X419.566 Y-240.307 Z-4.667
X419.609 Y-240.328 Z-4.715
X419.66 Y-240.352 Z-4.75
X419.717 Y-240.379 Z-4.772
X419.778 Y-240.407 Z-4.78
G3 X421.398 Y-240.717 I1.415 J3.009
G1 X431.465 Y-239.74
X431.607 Y-239.725
X432.033 Y-239.678
X443.801 Y-238.223
X443.943 Y-238.202
X455.656 Y-236.441
X456.137 Y-236.36
X465.158 Y-234.76
X465.424 Y-234.713 F900.
X465.46 Y-234.706
X465.495 Y-234.695
X465.529 Y-234.68
X465.563 Y-234.66
X465.597 Y-234.632
X465.631 Y-234.597
X465.637 Y-234.59
X465.659 Y-234.556
X465.676 Y-234.523
X465.688 Y-234.489 F1000.
X465.696 Y-234.456
X465.7 Y-234.314
Y-189.507
Y-189.429
Y-189.394
X465.693 Y-189.244
X465.63 Y-189.055
X465.622 Y-189.039
X465.541 Y-188.938
X465.426 Y-188.881
X465.297 Y-188.878
G3 X464.982 Y-189.028 Z-4.631 I0.179 J-0.783
G1 X464.937 Y-189.067 Z-4.605
X464.899 Y-189.113 Z-4.58
G3 X465.46 Y-189.774 I0.357 J-0.266
G1 X465.484 Y-189.76 Z-4.592
G3 X465.7 Y-189.394 Z-4.78 I-0.228 J0.382
G1 Y-189.223 F900.
X465.698 Y-189.153
X465.693 Y-189.117
X465.682 Y-189.082
X465.662 Y-189.038
X465.637 Y-188.995
X465.615 Y-188.967
X465.588 Y-188.94
X465.565 Y-188.921 F1000.
X465.542 Y-188.906
G3 X465.07 Y-188.922 I-0.22 J-0.463
G1 X456.562 Y-190.608
G3 X456.358 Y-190.758 Z-4.669 I0.058 J-0.294
G1 X456.329 Y-190.801 Z-4.647
X456.292 Y-190.839 Z-4.624
X456.25 Y-190.87 Z-4.602
X456.203 Y-190.893 Z-4.58
X456.187 Y-190.899
X455.943 Y-190.978
X454.29 Y-191.513
X454.223 Y-191.527
X454.154 Y-191.525
X454.089 Y-191.507
G3 X453.193 Y-191.296 I-1.204 J-3.099
G1 X452.92 Y-191.282
G3 X452.45 Y-191.31 Z-4.78 I-0.035 J-3.325
G1 X444.227 Y-192.688
X443.801 Y-192.755
X443.659 Y-192.775
X433.025 Y-194.234
G3 X432.769 Y-194.572 Z-4.58 I0.041 J-0.297
G1 X432.778 Y-194.616
X432.794 Y-194.658
X432.872 Y-194.824
X432.987 Y-195.07
G3 X433.53 Y-194.816 I0.272 J0.127
X433.378 Y-194.668 I-0.272 J-0.127
X432.492 Y-194.422 I-1.324 J-3.05
G1 X432.22 Y-194.397
G3 X431.749 Y-194.407 Z-4.78 I-0.166 J-3.321
G1 X431.465 Y-194.443
X419.697 Y-195.702
G3 X419.627 Y-196.277 I0.042 J-0.297
G1 X419.689 Y-196.302 Z-4.772
X419.748 Y-196.326 Z-4.75
X419.801 Y-196.347 Z-4.715
X419.845 Y-196.365 Z-4.667
X419.878 Y-196.378 Z-4.61
X419.899 Y-196.386 Z-4.547
X419.906 Y-196.389 Z-4.48
G0 Z2.51
X408.237 Y-197.254
Z-4.18
G1 Z-4.48 F1000.
X408.23 Y-197.251 Z-4.547
X408.211 Y-197.24 Z-4.61
X408.179 Y-197.223 Z-4.667
X408.137 Y-197.201 Z-4.715
X408.087 Y-197.174 Z-4.75
X408.031 Y-197.145 Z-4.772
X407.972 Y-197.113 Z-4.78
G3 X406.369 Y-196.724 I-1.562 J-2.935
G1 X394.742 Y-197.273
G2 X393.057 Y-196.22 I-0.163 J1.613
G1 X393.011 Y-196.168 Z-4.752
X392.955 Y-196.128 Z-4.724
X392.893 Y-196.102 Z-4.697
X392.827 Y-196.089 Z-4.669
X392.776 Y-196.078 Z-4.647
X392.728 Y-196.058 Z-4.624
X392.684 Y-196.03 Z-4.602
X392.646 Y-195.994 Z-4.58
X392.608 Y-195.944
X392.583 Y-195.887
X392.536 Y-195.746
X392.29 Y-195.007
G2 X392.407 Y-194.663 I0.285 J0.095
G3 X393.094 Y-194.051 I-1.848 J2.764
G1 X393.263 Y-193.835
G3 X393.509 Y-193.434 Z-4.78 I-2.703 J1.937
G1 X396.803 Y-186.529
X397.011 Y-186.089
X399.62 Y-180.432
X399.747 Y-180.149
X402.187 Y-174.619
X402.311 Y-174.335
X402.553 Y-173.768
X404.847 Y-168.38
X406.172 Y-165.119
X407.266 Y-162.424
X407.544 Y-161.715
X409.651 Y-156.327
X409.916 Y-155.618
X411.921 Y-150.23
X412.023 Y-149.947
X414.148 Y-143.991
X416.213 Y-137.894
G3 X418.407 Y-131.088 I-423.363 J140.255
G1 X420.098 Y-125.558
X420.266 Y-124.991
X421.875 Y-119.461
X422.036 Y-118.894
X423.627 Y-113.08
X423.704 Y-112.797
X425.283 Y-106.7
X425.424 Y-106.132
X426.796 Y-100.461
X426.897 Y-100.035
X428.283 Y-93.938
X428.989 Y-90.607
X429.687 Y-87.274
X430.898 Y-81.101
X431.04 Y-80.321
X432.009 Y-74.938
X432.083 Y-74.512
X433.092 Y-68.415
X433.137 Y-68.132
X433.202 Y-67.706
X434.071 Y-61.893
X434.092 Y-61.751
X434.934 Y-55.512
X434.989 Y-55.087
X435.719 Y-48.964
X435.793 Y-48.281
X436.416 Y-42.325
X436.973 Y-36.086
X437.009 Y-35.661
X437.485 Y-29.28
X437.864 Y-22.9
X437.891 Y-22.332
X438.157 Y-16.377
X438.167 Y-16.094
X438.344 Y-10.138
X438.355 Y-9.713
X438.391 Y-7.302
X438.448 Y-3.474
X438.452 Y-3.049
Y-0.213
Y3.049
X438.446 Y3.616
X438.355 Y9.713
X438.34 Y10.28
X438.162 Y16.235
X438.157 Y16.377
X437.877 Y22.616
X437.864 Y22.9
X437.485 Y29.28
X437.009 Y35.661
X436.961 Y36.228
X436.416 Y42.325
X435.763 Y48.564
X435.716 Y48.99
X434.989 Y55.087
X434.915 Y55.654
X434.092 Y61.751
G3 X433.025 Y68.821 I-523.549 J-75.37
G1 X432.083 Y74.512
X431.983 Y75.08
X430.962 Y80.751
X430.898 Y81.101
X429.687 Y87.274
X429.6 Y87.699
X428.375 Y93.513
X428.314 Y93.796
X428.283 Y93.938
X426.897 Y100.035
X426.762 Y100.602
X425.424 Y106.132
X425.283 Y106.7
X423.704 Y112.797
X423.356 Y114.073
X422.036 Y118.894
X421.875 Y119.461
X420.224 Y125.133
X420.098 Y125.558
X418.364 Y131.23
X418.232 Y131.655
X418.095 Y132.081
X416.259 Y137.752
X416.213 Y137.894
X414.148 Y143.991
X411.972 Y150.088
X411.898 Y150.29
X409.772 Y156.006
X409.651 Y156.327
X407.378 Y162.141
X407.266 Y162.424
X404.905 Y168.238
X404.847 Y168.38
X402.372 Y174.193
X402.249 Y174.477
X402. Y175.044
X399.747 Y180.149
X399.62 Y180.432
X397.004 Y186.104
X396.803 Y186.529
X392.947 Y194.612
G2 X393.253 Y196.515 I1.465 J0.741
G1 X393.281 Y196.58
X393.294 Y196.649
X393.292 Y196.719
X393.275 Y196.787
X393.244 Y196.849
X393.2 Y196.902
X393.146 Y196.944
X393.084 Y196.973
X393.019 Y196.988
X392.952
X392.887 Y196.973
X392.827 Y196.945
X392.769 Y196.912 Z-4.772
X392.714 Y196.88 Z-4.75
X392.664 Y196.852 Z-4.715
X392.623 Y196.829 Z-4.667
X392.592 Y196.811 Z-4.61
X392.573 Y196.8 Z-4.547
X392.566 Y196.796 Z-4.48
G0 Z2.51
X405.999 Y197.39
Z-4.18
G1 Z-4.48 F1000.
X406.005 Y197.385 Z-4.547
X406.023 Y197.373 Z-4.61
X406.052 Y197.352 Z-4.667
X406.091 Y197.325 Z-4.715
X406.137 Y197.292 Z-4.75
X406.189 Y197.255 Z-4.772
X406.244 Y197.217 Z-4.78
G3 X407.787 Y196.632 I1.914 J2.719
G1 X413.316 Y196.205
G3 X413.554 Y196.295 Z-4.669 I0.023 J0.299
G1 X413.593 Y196.329 Z-4.647
X413.638 Y196.355 Z-4.624
X413.687 Y196.374 Z-4.602
X413.739 Y196.383 Z-4.58
X413.768 Y196.385
X414.012
X418.07 Y196.384
X418.134 Y196.378
X418.195 Y196.357
X418.25 Y196.324
G3 X419.056 Y195.88 I1.994 J2.661
G1 X419.315 Y195.793
G3 X419.775 Y195.694 Z-4.78 I0.929 J3.192
G1 X431.465 Y194.443
X431.891 Y194.389
X434.159 Y194.078
X436.712 Y193.728
X436.752 Y193.725 Z-4.763
X436.807 Y193.731 Z-4.739
X436.86 Y193.746 Z-4.716
X436.91 Y193.77 Z-4.692
X436.954 Y193.803 Z-4.669
X436.996 Y193.835 Z-4.647
X437.042 Y193.859 Z-4.624
X437.092 Y193.874 Z-4.602
X437.144 Y193.881 Z-4.58
X437.181 Y193.88
X437.417 Y193.86
X443.254 Y193.364
X443.314 Y193.353
X443.371 Y193.329
X443.422 Y193.294
G3 X444.2 Y192.803 I2.148 J2.538
G1 X444.453 Y192.7
G3 X444.907 Y192.574 Z-4.78 I1.117 J3.132
G1 X455.995 Y190.717
X456.137 Y190.69
X456.562 Y190.608
X464.981 Y188.94
X465.211 Y188.894 F900.
X465.353 Y188.867
X465.389 Y188.865
X465.424 Y188.867
X465.46 Y188.873
X465.495 Y188.884
X465.542 Y188.906
X465.565 Y188.921
X465.588 Y188.94
X465.615 Y188.967
X465.637 Y188.995 F1000.
X465.662 Y189.038
X465.682 Y189.082
X465.693 Y189.117
X465.698 Y189.153
X465.7 Y189.223
Y233.926
Y234.314 F900.
X465.696 Y234.456
X465.688 Y234.489
X465.676 Y234.523
X465.659 Y234.556
X465.637 Y234.59
X465.631 Y234.597
X465.597 Y234.632
X465.563 Y234.66
X465.529 Y234.68
X465.495 Y234.695 F1000.
X465.46 Y234.706
X464.928 Y234.801
X456.137 Y236.36
X455.656 Y236.441
X443.943 Y238.202
X443.801 Y238.223
X432.033 Y239.678
X431.607 Y239.725
X431.324 Y239.754
X420.831 Y240.772
G3 X420.647 Y240.223 I-0.019 J-0.299
G1 X420.703 Y240.186 Z-4.772
X420.755 Y240.151 Z-4.75
X420.803 Y240.119 Z-4.715
X420.842 Y240.093 Z-4.667
X420.872 Y240.073 Z-4.61
X420.891 Y240.061 Z-4.547
X420.897 Y240.057 Z-4.48
G0 Z2.51
X420.215 Y248.376
Z-4.18
G1 Z-4.48 F1000.
X420.221 Y248.381 Z-4.547
X420.239 Y248.393 Z-4.61
X420.268 Y248.414 Z-4.667
X420.307 Y248.441 Z-4.715
X420.354 Y248.473 Z-4.75
X420.406 Y248.509 Z-4.772
X420.461 Y248.547 Z-4.78
G3 X421.54 Y249.796 I-1.897 J2.731
G1 X423.271 Y253.598
X423.396 Y253.881
X423.577 Y254.307
X423.595 Y254.364 Z-4.755
X423.601 Y254.423 Z-4.729
Y254.424
X423.597 Y254.471 Z-4.709
X423.586 Y254.517 Z-4.689
X423.568 Y254.56 Z-4.669
X423.489 Y254.754 Z-4.58
X423.386 Y255.007
X423.353 Y255.088
G3 X422.798 Y254.861 I-0.278 J-0.114
X423.253 Y254.733 I0.278 J0.114
X423.912 Y255.374 I-1.966 J2.681
G1 X424.071 Y255.597
G3 X424.3 Y256.008 Z-4.78 I-2.784 J1.817
G1 X427.794 Y264.232
X427.921 Y264.537
X428.028 Y264.799
X428.204 Y265.245
G3 X428.036 Y265.634 Z-4.58 I-0.279 J0.11
X427.815 Y265.076 I-0.11 J-0.279
X428.212 Y265.443 I0.11 J0.279
G1 X428.014 Y266.092
G3 X427.44 Y265.916 I-0.287 J-0.088
X427.911 Y265.767 I0.287 J0.088
X428.553 Y266.424 I-2.034 J2.63
G1 X428.707 Y266.651
G3 X428.925 Y267.068 Z-4.78 I-2.829 J1.746
G1 X432.23 Y275.434
X432.285 Y275.576
X436.286 Y286.51
X436.428 Y286.923
X439.973 Y297.432
X440.115 Y297.86
X440.284 Y298.404
X442.241 Y304.738
G3 X442.307 Y305.13 I-0.878 J0.349
X442.098 Y305.681 I-0.944 J-0.042 F900.
G1 X441.953 Y305.7 F1000.
G3 X441.664 Y305.403 Z-4.586 I0.01 J-0.3
G1 X441.663 Y305.39 Z-4.58
X441.661 Y305.116
X441.658 Y304.839
G3 X441.86 Y304.553 I0.3 J-0.003
X442.241 Y304.738 Z-4.78 I0.098 J0.283
G1 X442.349 Y305.088
X442.42 Y305.317 F900.
X442.427 Y305.352
X442.429 Y305.388
X442.427 Y305.423
X442.421 Y305.459
X442.41 Y305.494
X442.398 Y305.522
X442.383 Y305.549
X442.368 Y305.571
X442.35 Y305.592
X442.303 Y305.636
X442.272 Y305.657 F1000.
X442.241 Y305.673
G3 X441.674 Y305.7 I-0.328 J-0.925
G1 X439.264
G3 X438.974 Y305.401 I0.01 J-0.3
G1 X438.975 Y305.376
X438.993 Y305.326 Z-4.775
X439.01 Y305.277 Z-4.761
X439.026 Y305.232 Z-4.738
X439.062 Y305.199 Z-4.701
X439.092 Y305.172 Z-4.654
X439.115 Y305.152 Z-4.6
X439.129 Y305.14 Z-4.542
X439.134 Y305.135 Z-4.48
G0 Z2.51
X402.255 Y305.082
Z-4.18
G1 Z-4.48 F1000.
X402.248 Y305.086 Z-4.547
X402.229 Y305.097 Z-4.61
X402.198 Y305.115 Z-4.667
X402.157 Y305.139 Z-4.715
X402.109 Y305.169 Z-4.75
X402.054 Y305.201 Z-4.772
X401.997 Y305.235 Z-4.78
G3 X400.414 Y305.7 I-1.699 J-2.858
G1 X395.981
X395.593 F900.
X395.451 Y305.696
X395.417 Y305.688
X395.384 Y305.675
X395.35 Y305.658
X395.309 Y305.631
X395.271 Y305.596
X395.243 Y305.562
X395.222 Y305.528 F1000.
X395.207 Y305.494
X393.04 Y299.275
X393.03 Y299.231
X393.027 Y299.186
G3 X393.252 Y298.896 I0.3 J0.
G1 X393.29 Y298.891 Z-4.778
X393.327 Y298.886 Z-4.77
X393.382 Y298.901 Z-4.748
X393.432 Y298.914 Z-4.716
X393.474 Y298.925 Z-4.673
X393.498 Y298.943 Z-4.63
X393.516 Y298.956 Z-4.583
X393.527 Y298.964 Z-4.532
X393.531 Y298.966 Z-4.48
G0 Z2.51
X374.712 Y254.445
Z-4.18
G1 Z-4.48 F1000.
X374.706 Y254.441 Z-4.547
X374.687 Y254.43 Z-4.61
X374.657 Y254.411 Z-4.667
X374.616 Y254.386 Z-4.715
X374.568 Y254.355 Z-4.75
X374.514 Y254.322 Z-4.772
X374.458 Y254.287 Z-4.78
G3 X373.318 Y253.094 I1.759 J-2.822
G1 X369.645 Y245.988
G3 X370.087 Y245.613 I0.271 J-0.128
G1 X370.142 Y245.651 Z-4.772
X370.194 Y245.687 Z-4.75
X370.241 Y245.719 Z-4.715
X370.28 Y245.746 Z-4.667
X370.309 Y245.767 Z-4.61
X370.328 Y245.779 Z-4.547
X370.334 Y245.783 Z-4.48
G0 Z2.51
X366.427 Y241.11
Z-4.18
G1 Z-4.48 F1000.
X366.423 Y241.117 Z-4.547
X366.411 Y241.136 Z-4.61
X366.393 Y241.166 Z-4.667
X366.368 Y241.207 Z-4.715
X366.339 Y241.256 Z-4.75
X366.306 Y241.31 Z-4.772
X366.272 Y241.367 Z-4.78
G3 X365.272 Y242.68 I-6.557 J-3.958
G2 X364.646 Y243.53 I2.724 J2.66
G1 X363.265 Y245.543
G3 X363.046 Y245.672 Z-4.669 I-0.247 J-0.17
G1 X362.986 Y245.684 Z-4.642
X362.929 Y245.709 Z-4.616
X362.878 Y245.745 Z-4.59
X362.861 Y245.76 Z-4.58
X362.655 Y245.94
X361.993 Y246.517
X361.953 Y246.56
X361.921 Y246.61
X361.9 Y246.665
X361.891 Y246.724
G3 X361.705 Y247.624 I-3.318 J-0.216
G1 X361.602 Y247.878
G3 X361.379 Y248.292 Z-4.78 I-3.029 J-1.37
X356.585 Y255.157 I-318.263 J-217.136
G1 X352.772 Y260.388
X352.34 Y260.971
X349.511 Y264.768
X349.228 Y265.138
X345.541 Y269.906
G3 X341.625 Y274.867 I-199.648 J-153.595
G1 X337.673 Y279.688
X334.371 Y283.658
X334.056 Y284.025
X329.661 Y289.087
X326.335 Y292.874
X325.974 Y293.268
X321.513 Y298.121
G3 X321.09 Y298.139 Z-4.58 I-0.221 J-0.203
G1 X321.057 Y298.104
X320.917 Y297.927
X320.792 Y297.769
G3 X321.263 Y297.397 I0.235 J-0.186
X321.321 Y297.646 I-0.235 J0.186
X321.006 Y298.51 I-3.251 J-0.696
G1 X320.868 Y298.746
G3 X320.586 Y299.123 Z-4.78 I-2.798 J-1.796
G1 X318.317 Y301.571
X317.959 Y301.949
X317.041 Y302.893
G3 X316.804 Y302.983 Z-4.669 I-0.215 J-0.209
G1 X316.76 Z-4.65
X316.717 Y302.99 Z-4.632
X316.599 Y303.016 Z-4.58
X316.331 Y303.075
X316.195 Y303.106
G2 X315.969 Y303.329 I0.065 J0.293
G3 X315.633 Y304.185 I-3.233 J-0.775
G1 X315.489 Y304.417
G3 X315.198 Y304.788 Z-4.78 I-2.753 J-1.864
G1 X314.489 Y305.516
G3 X313.922 Y305.699 I-0.411 J-0.305
G1 X313.213 Y305.7
G3 X312.923 Y305.401 I0.01 J-0.3
G1 X312.924 Y305.376
X312.942 Y305.326 Z-4.775
X312.959 Y305.277 Z-4.761
X312.975 Y305.232 Z-4.738
X313.011 Y305.199 Z-4.701
X313.042 Y305.172 Z-4.654
X313.064 Y305.152 Z-4.6
X313.078 Y305.14 Z-4.542
X313.083 Y305.135 Z-4.48
G0 Z2.51
X273.51 Y305.082
Z-4.18
G1 Z-4.48 F1000.
X273.503 Y305.086 Z-4.547
X273.484 Y305.097 Z-4.61
X273.453 Y305.115 Z-4.667
X273.413 Y305.139 Z-4.715
X273.364 Y305.169 Z-4.75
X273.309 Y305.201 Z-4.772
X273.252 Y305.235 Z-4.78
G3 X271.669 Y305.7 I-1.699 J-2.858
G1 X251.818
G3 X250.11 Y304.413 I0.108 J-1.921
X250.003 Y303.825 I1.816 J-0.633 F900.
G1 X250.1 Y303.74 F1000.
G3 X250.488 Y303.758 Z-4.601 I0.183 J0.238
G1 X250.523 Y303.792 Z-4.58
X250.724 Y303.979
X251.985 Y305.155
X252.012 Y305.181
X252.051 Y305.225
X252.081 Y305.276
X252.1 Y305.332
X252.108 Y305.39
G3 X251.818 Y305.7 Z-4.78 I-0.3 J0.01
G1 X250.117
G3 X249.277 Y305.413 I0.059 J-1.546
X248.868 Y304.98 I0.899 J-1.259 F900.
G1 X248.87 Y304.862 F1000.
X248.905 Y304.756
X248.976 Y304.669
G3 X249.298 Y304.641 Z-4.635 I0.183 J0.238
G1 X249.413 Y304.701 Z-4.58
X249.656 Y304.827
X250.245 Y305.134
X250.264 Y305.145
X250.282 Y305.157
G3 X250.406 Y305.39 I-0.175 J0.243
X250.117 Y305.7 Z-4.78 I-0.3 J0.01
G1 X248.763
X248.699 F900.
X248.557 Y305.698
X248.522 Y305.691
X248.486 Y305.68
X248.451 Y305.664 F1000.
X248.415 Y305.641
X248.409 Y305.636
X248.371 Y305.6
X248.343 Y305.565
X248.322 Y305.53
X248.305 Y305.494
X248.293 Y305.459
X248.286 Y305.423
X248.284 Y305.388
X248.285 Y305.352
X248.291 Y305.317
X248.301 Y305.281
X248.317 Y305.246
X248.338 Y305.211
X248.371 Y305.172
X248.415 Y305.133
X254.796 Y299.858
G3 X255.256 Y300.21 I0.183 J0.238
G1 X255.231 Y300.272 Z-4.772
X255.206 Y300.33 Z-4.75
X255.185 Y300.383 Z-4.715
X255.167 Y300.427 Z-4.667
X255.153 Y300.46 Z-4.61
X255.145 Y300.48 Z-4.547
X255.142 Y300.487 Z-4.48
G0 Z2.51
X304.473 Y250.286
Z-4.18
G1 Z-4.48 F1000.
X304.474 Y250.278 Z-4.547
X304.477 Y250.256 Z-4.61
X304.482 Y250.221 Z-4.667
X304.488 Y250.174 Z-4.715
X304.496 Y250.118 Z-4.75
X304.504 Y250.055 Z-4.772
X304.513 Y249.989 Z-4.78
G3 X305.131 Y248.459 I3.295 J0.442
G1 X309.81 Y242.548
G3 X310.037 Y242.435 Z-4.669 I0.235 J0.186
G1 X310.089 Y242.429 Z-4.647
X310.139 Y242.414 Z-4.624
X310.185 Y242.39 Z-4.602
X310.227 Y242.359 Z-4.58
X310.27 Y242.313
X310.394 Y242.143
X313.372 Y238.089
G2 X313.157 Y237.613 I-0.242 J-0.178
G3 X312.259 Y237.479 I0.674 J-7.629
G1 X311.992 Y237.419
X311.538 Y237.291 Z-4.78
X311.37 Y237.235
X310.928 Y237.15
X299.601 Y235.268
X299.176 Y235.192
X298.892 Y235.138
X287.833 Y233.004
X287.407 Y232.917
X287.266 Y232.888
X276.064 Y230.422
X275.922 Y230.393
X275.704 Y230.355
G3 X275.496 Y230.209 Z-4.669 I0.052 J-0.296
G1 X275.456 Y230.155 Z-4.64
X275.405 Y230.111 Z-4.612
X275.346 Y230.08 Z-4.583
X275.339 Y230.078 Z-4.58
X275.084 Y229.978
X274.747 Y229.846
G2 X274.342 Y230.072 I-0.109 J0.279
G3 X274.054 Y230.946 I-3.271 J-0.594
G1 X273.923 Y231.186
G3 X273.654 Y231.572 Z-4.78 I-2.852 J-1.708
G1 X268.676 Y237.291
X268.266 Y237.754
X264.997 Y241.403
X264.863 Y241.551
X260.893 Y245.82
X260.609 Y246.123
X257.128 Y249.769
X256.923 Y249.983
X252.628 Y254.307
X248.841 Y258.031
X248.557 Y258.303
X244.303 Y262.312
X243.915 Y262.672
X240.333 Y265.977
X240.191 Y266.105
X235.563 Y270.188
X231.633 Y273.591
X231.542 Y273.667
X231.117 Y274.02
X226.826 Y277.561
X226.58 Y277.763
X222.811 Y280.822
X222.326 Y281.206
X217.647 Y284.815
G3 X213.194 Y288.195 I-204.316 J-264.531
G1 X208.074 Y291.882
X204.288 Y294.576
X203.886 Y294.86
X198.505 Y298.471
G3 X193.889 Y301.524 I-113.727 J-166.936
G1 X188.296 Y305.016
X187.297 Y305.636
X187.23 Y305.672
X187.196 Y305.685
X187.162 Y305.694
X187.127 Y305.699
X187.091 Y305.7
X-187.091
X-187.127 Y305.699
X-187.162 Y305.694
X-187.196 Y305.685
X-187.23 Y305.672
X-187.304 Y305.632
X-188.58 Y304.84
X-193.968 Y301.474
G3 X-201.276 Y296.609 I316.708 J-483.668
G1 X-201.326 Y296.568 Z-4.752
X-201.366 Y296.516 Z-4.724
X-201.394 Y296.457 Z-4.697
X-201.408 Y296.394 Z-4.669
X-201.41 Y296.351 Z-4.651
X-201.405 Y296.309 Z-4.633
X-201.384 Y296.187 Z-4.58
X-201.335 Y295.917
X-201.324 Y295.854
G3 X-200.733 Y295.96 I0.295 J0.053
X-201.045 Y296.207 I-0.295 J-0.053
X-201.948 Y296.03 I0.182 J-3.32
G1 X-202.202 Y295.93
G3 X-202.619 Y295.71 Z-4.78 I1.339 J-3.043
G1 X-203.893 Y294.854
X-204.46 Y294.454
X-205.878 Y293.445
G3 X-205.949 Y293.026 Z-4.58 I0.174 J-0.244
G1 X-205.913 Y292.984
X-205.87 Y292.95
X-205.821 Y292.924
X-205.768 Y292.907
X-205.717 Y292.896
X-205.208 Y292.786
G3 X-204.846 Y293.06 I0.063 J0.293
X-205.17 Y293.378 I-0.299 J0.02
X-206.067 Y293.177 I0.273 J-3.314
G1 X-206.319 Y293.07
G3 X-206.729 Y292.839 Z-4.78 I1.422 J-3.005
G1 X-208.147 Y291.83
X-213.251 Y288.154
G3 X-227.17 Y277.277 I217.713 J-292.942
G1 X-231.4 Y273.785
X-231.542 Y273.667
X-231.684 Y273.546
X-235.563 Y270.188
X-240.225 Y266.076
X-240.38 Y265.934
X-244.162 Y262.444
X-244.445 Y262.179
X-248.584 Y258.277
X-248.841 Y258.031
X-251.109 Y255.801
G3 X-251.113 Y255.377 Z-4.58 I0.21 J-0.214
X-250.873 Y255.288 I0.214 J0.21
G1 X-250.864 Y255.289
X-250.211 Y255.346
G3 X-249.941 Y255.693 I-0.026 J0.299
X-250.309 Y255.936 I-0.296 J-0.049
X-251.163 Y255.595 I0.792 J-3.229
G1 X-251.395 Y255.45
G3 X-251.764 Y255.157 Z-4.78 I1.878 J-2.743
G1 X-252.628 Y254.307
X-256.923 Y249.983
X-257.67 Y249.202
X-260.647 Y246.083
X-261.177 Y245.515
X-264.868 Y241.545
X-265.005 Y241.395
X-268.299 Y237.717
X-268.691 Y237.274
X-274.106 Y231.053
X-274.23 Y230.911
X-274.301 Y230.833
X-274.334 Y230.789 Z-4.757
X-274.358 Y230.74 Z-4.733
X-274.373 Y230.687 Z-4.71
X-274.378 Y230.632 Z-4.687
Y230.611 Z-4.678
X-274.376 Y230.59 Z-4.669
X-274.326 Y230.387 Z-4.58
X-274.303 Y230.295
G2 X-274.784 Y229.992 I-0.292 J-0.07
G1 X-274.823 Y230.023
G3 X-275.053 Y230.169 I-0.962 J-1.257
X-275.497 Y230.322 Z-4.78 I-0.731 J-1.404
G1 X-275.641 Y230.344
X-275.922 Y230.393
X-276.064 Y230.422
X-287.302 Y232.896
X-287.691 Y232.976
X-287.833 Y233.004
X-299.034 Y235.166
X-299.176 Y235.192
X-299.601 Y235.268
X-310.944 Y237.152
X-311.164 Y237.195
G3 X-311.399 Y236.665 I-0.047 J-0.296
G1 X-311.347 Y236.623 Z-4.772
X-311.298 Y236.583 Z-4.75
X-311.254 Y236.548 Z-4.715
X-311.217 Y236.518 Z-4.667
X-311.189 Y236.495 Z-4.61
X-311.172 Y236.481 Z-4.547
X-311.166 Y236.477 Z-4.48
G0 Z2.51
X-255.166 Y300.354
Z-4.18
G1 Z-4.48 F1000.
X-255.158 Y300.355 Z-4.547
X-255.136 Y300.359 Z-4.61
X-255.101 Y300.364 Z-4.667
X-255.054 Y300.372 Z-4.715
X-254.998 Y300.38 Z-4.75
X-254.935 Y300.39 Z-4.772
X-254.869 Y300.4 Z-4.78
G3 X-253.353 Y301.051 I-0.511 J3.285
G1 X-250.894 Y303.084
G3 X-250.309 Y305.082 I-1.296 J1.465
X-250.558 Y305.625 I-1.882 J-0.534 F900.
G1 X-250.655 Y305.68 F1000.
X-250.762 Y305.7
G3 X-251.048 Y305.447 Z-4.604 I0.01 J-0.3
G1 X-251.057 Y305.39 Z-4.58
X-251.099 Y305.12
X-251.369 Y303.397
X-251.373 Y303.368
X-251.377 Y303.307
X-251.368 Y303.247
X-251.347 Y303.19
X-251.315 Y303.138
G3 X-250.894 Y303.084 Z-4.78 I0.238 J0.183
G1 X-249.55 Y304.195
G3 X-249.083 Y304.931 I-0.996 J1.147
X-249.037 Y305.526 I-1.462 J0.412 F900.
G1 X-249.113 Y305.617 F1000.
X-249.209 Y305.678
X-249.32 Y305.7
G3 X-249.585 Y305.52 Z-4.637 I0.01 J-0.3
G1 X-249.638 Y305.398 Z-4.58
X-249.748 Y305.147
X-250.007 Y304.553
X-250.016 Y304.531
X-250.023 Y304.509
G3 X-249.97 Y304.25 I0.29 J-0.076
X-249.55 Y304.195 Z-4.78 I0.238 J0.183
G1 X-248.493 Y305.069
X-248.415 Y305.133
X-248.371 Y305.172
X-248.338 Y305.211
X-248.317 Y305.246
X-248.301 Y305.281 F900.
X-248.291 Y305.317
X-248.285 Y305.352
X-248.284 Y305.388
X-248.286 Y305.423
X-248.293 Y305.459
X-248.305 Y305.494
X-248.322 Y305.53
X-248.343 Y305.565
X-248.371 Y305.6
X-248.409 Y305.636
X-248.415 Y305.641
X-248.451 Y305.664
X-248.486 Y305.68
X-248.522 Y305.691 F1000.
X-248.557 Y305.698
X-248.699 Y305.7
X-305.131
G3 X-305.361 Y305.593 Z-4.669 I0. J-0.3
G1 X-305.398 Y305.556 Z-4.647
X-305.441 Y305.526 Z-4.624
X-305.488 Y305.504 Z-4.602
X-305.538 Y305.49 Z-4.58
X-305.575 Y305.486
X-305.811 Y305.474
X-311.363 Y305.193
X-311.421 Y305.196
X-311.478 Y305.21
X-311.531 Y305.235
G3 X-312.379 Y305.591 I-1.699 J-2.858
G1 X-312.646 Y305.65
