(3MM-ADAPTIVE)
(T2 D=3.175 CR=0. - ZMIN=-28.68 - FLAT END MILL)
G90 G94 G91.1 G40 G49 G17
G21
G28 G91 Z0.
G90

(ADAPTIVE2 2)
T2 M6
S5000 M3
G17 G90 G94
G54
M8
G0 X394.045 Y304.958
G43 Z2.51 H2
G0 Z-1.755
G1 Z-2.072 F1000.
X394.038 Y304.962 Z-2.143
X394.018 Y304.974 Z-2.21
X393.985 Y304.994 Z-2.27
X393.942 Y305.019 Z-2.321
X393.891 Y305.05 Z-2.359
X393.833 Y305.084 Z-2.382
X393.772 Y305.12 Z-2.39
G3 X392.097 Y305.613 I-1.798 J-3.024
G1 X390.608
X390.462 Y305.611
X390.425 Y305.605
X390.389 Y305.594
X390.352 Y305.579
X390.316 Y305.558
X390.291 Y305.539
X390.265 Y305.515
X390.231 Y305.473
X390.21 Y305.44
X390.194 Y305.406
X389.961 Y304.743
X388.174 Y299.635
G3 X388.193 Y299.381 Z-2.285 I0.3 J-0.105
G1 X388.3 Y299.17 Z-2.19
X388.413 Y298.948
X388.484 Y298.807
G3 X389.051 Y299.094 I0.283 J0.144
X388.57 Y299.199 I-0.283 J-0.144
X387.875 Y298.46 I2.188 J-2.756
G1 X387.74 Y298.252
G3 X387.515 Y297.808 Z-2.39 I3.018 J-1.809
G1 X384.491 Y289.856
G3 X384.964 Y289.487 I0.301 J-0.102
G1 X385.023 Y289.526 Z-2.382
X385.079 Y289.562 Z-2.359
X385.13 Y289.595 Z-2.321
X385.172 Y289.622 Z-2.27
X385.204 Y289.643 Z-2.21
X385.224 Y289.655 Z-2.143
X385.23 Y289.66 Z-2.072
G0 Z2.51
X376.42 Y268.933
Z-1.755
G1 Z-2.072 F1000.
X376.414 Y268.928 Z-2.143
X376.394 Y268.915 Z-2.21
X376.363 Y268.894 Z-2.27
X376.321 Y268.866 Z-2.321
X376.271 Y268.833 Z-2.359
X376.215 Y268.795 Z-2.382
X376.156 Y268.756 Z-2.39
G3 X374.992 Y267.455 I1.958 J-2.923
G1 X370.859 Y258.769
G3 X370.851 Y258.514 Z-2.285 I0.287 J-0.136
G1 X370.87 Y258.446 Z-2.256
X370.873 Y258.375 Z-2.228
X370.861 Y258.306 Z-2.2
X370.854 Y258.283 Z-2.19
X370.783 Y258.045
X370.298 Y256.421
X370.277 Y256.369
X370.247 Y256.32
X370.208 Y256.278
X370.163 Y256.244
G3 X369.393 Y255.584 I1.879 J-2.975
G1 X369.236 Y255.392
G3 X368.964 Y254.974 Z-2.39 I2.806 J-2.123
G1 X365.944 Y249.043
G3 X366.375 Y248.625 I0.288 J-0.134
G1 X366.438 Y248.657 Z-2.382
X366.498 Y248.687 Z-2.359
X366.551 Y248.714 Z-2.321
X366.596 Y248.737 Z-2.27
X366.63 Y248.754 Z-2.21
X366.651 Y248.764 Z-2.143
X366.658 Y248.768 Z-2.072
G0 Z2.51
X361.802 Y246.461
Z-1.755
G1 Z-2.072 F1000.
X361.801 Y246.469 Z-2.143
X361.799 Y246.492 Z-2.21
X361.796 Y246.53 Z-2.27
X361.792 Y246.58 Z-2.321
X361.788 Y246.64 Z-2.359
X361.783 Y246.707 Z-2.382
X361.777 Y246.777 Z-2.39
G3 X361.215 Y248.431 I-3.508 J-0.271
G1 X355.272 Y256.871
X355.144 Y257.051
X354.849 Y257.455
X348.285 Y266.267
X347.993 Y266.655
X341.102 Y275.407
X340.696 Y275.916
X333.35 Y284.748
X333.107 Y285.03
X325.664 Y293.506
X325.519 Y293.668
X325.227 Y293.986
X317.557 Y302.262
X317.054 Y302.778
X316.417 Y303.429
G3 X316.109 Y303.515 Z-2.256 I-0.227 J-0.222
G1 X315.951 Y303.473 Z-2.19
X315.71 Y303.41
X315.611 Y303.384
G3 X315.772 Y302.77 I0.081 J-0.307
X316. Y303.152 I-0.081 J0.307
X315.622 Y304.093 I-3.42 J-0.829
G1 X315.489 Y304.303
G3 X315.181 Y304.694 Z-2.39 I-2.909 J-1.98
G1 X314.419 Y305.473
X314.35 Y305.54
X314.316 Y305.565
X314.281 Y305.583
X314.245 Y305.597
X314.208 Y305.606
X314.172 Y305.611
X314.135 Y305.613
X313.325
G3 X313.149 Y305.039 I0.011 J-0.317
G1 X313.206 Y304.997 Z-2.382
X313.26 Y304.958 Z-2.359
X313.308 Y304.922 Z-2.321
X313.349 Y304.892 Z-2.27
X313.379 Y304.87 Z-2.21
X313.398 Y304.856 Z-2.143
X313.405 Y304.851 Z-2.072
G0 Z2.51
X263.253 Y304.958
Z-1.755
G1 Z-2.072 F1000.
X263.247 Y304.962 Z-2.143
X263.226 Y304.974 Z-2.21
X263.194 Y304.994 Z-2.27
X263.151 Y305.019 Z-2.321
X263.099 Y305.05 Z-2.359
X263.041 Y305.084 Z-2.382
X262.981 Y305.12 Z-2.39
G3 X261.305 Y305.613 I-1.798 J-3.024
G1 X236.641
G3 X235.007 Y304.339 I0.183 J-1.919
X234.896 Y303.717 I1.817 J-0.646 F900.
G1 X235.004 Y303.62 F1000.
G3 X235.411 Y303.652 Z-2.212 I0.185 J0.258
G1 X235.45 Y303.69 Z-2.19
X235.627 Y303.864
X236.848 Y305.064
X236.853 Y305.069
X236.892 Y305.115
X236.921 Y305.167
X236.94 Y305.225
X236.947 Y305.284
G3 X236.641 Y305.613 Z-2.39 I-0.317 J0.011
G1 X235.182
G3 X234.184 Y305.276 I-0.013 J-1.61
X233.77 Y304.8 I0.985 J-1.273 F900.
G1 X233.776 Y304.675 F1000.
X233.817 Y304.563
X233.896 Y304.474
G3 X234.226 Y304.45 Z-2.25 I0.185 J0.258
G1 X234.359 Y304.519 Z-2.19
X234.58 Y304.633
X235.316 Y305.013
G3 X235.488 Y305.284 I-0.146 J0.282
G1 Y305.295 Z-2.194
G3 X235.182 Y305.613 Z-2.39 I-0.318 J0.
G1 X233.722
X233.573 Y305.605 F900.
X233.427 Y305.567
X233.29 Y305.507
X233.268 Y305.492
X233.165 Y305.384
X233.123 Y305.239
X233.153 Y305.092
X233.246 Y304.975 F1000.
G3 X233.624 Y304.808 Z-2.223 I0.585 J0.811
G1 X233.665 Y304.801 Z-2.206
X233.706 Y304.799 Z-2.19
G3 X234.096 Y305.33 I0.003 J0.407
X233.722 Y305.613 Z-2.39 I-0.387 J-0.124
G1 X233.431
X233.358 Y305.611
X233.321 Y305.606
X233.285 Y305.596
X233.248 Y305.581
X233.212 Y305.56 F900.
X233.175 Y305.532
X233.139 Y305.493
X233.123 Y305.473
X233.1 Y305.436
X233.082 Y305.4
X233.069 Y305.363
X233.061 Y305.327
X233.057 Y305.29
X233.058 Y305.254
X233.063 Y305.217
X233.072 Y305.181
X233.083 Y305.152
X233.097 Y305.122
X233.115 Y305.093
X233.139 Y305.064 F1000.
X233.169 Y305.035
X238.849 Y300.656
G3 X239.339 Y301.002 I0.185 J0.258
G1 X239.32 Y301.07 Z-2.382
X239.301 Y301.134 Z-2.359
X239.285 Y301.192 Z-2.321
X239.271 Y301.241 Z-2.27
X239.26 Y301.277 Z-2.21
X239.254 Y301.3 Z-2.143
X239.252 Y301.307 Z-2.072
G0 Z2.51
X289.599 Y253.157
Z-1.755
G1 Z-2.072 F1000.
X289.601 Y253.149 Z-2.143
X289.605 Y253.126 Z-2.21
X289.611 Y253.088 Z-2.27
X289.62 Y253.039 Z-2.321
X289.631 Y252.98 Z-2.359
X289.642 Y252.914 Z-2.382
X289.654 Y252.844 Z-2.39
G3 X290.375 Y251.253 I3.465 J0.61
G1 X290.438 Y251.179
X297.292 Y243.006
G3 X297.845 Y243.239 I0.236 J0.212
G1 X297.84 Y243.31 Z-2.382
X297.836 Y243.377 Z-2.359
X297.832 Y243.437 Z-2.321
X297.829 Y243.487 Z-2.27
X297.826 Y243.525 Z-2.21
X297.825 Y243.548 Z-2.143
X297.824 Y243.556 Z-2.072
G0 Z2.51
X298.592 Y239.808
Z-1.755
G1 Z-2.072 F1000.
X298.585 Y239.809 Z-2.143
X298.561 Y239.812 Z-2.21
X298.524 Y239.817 Z-2.27
X298.474 Y239.824 Z-2.321
X298.414 Y239.831 Z-2.359
X298.348 Y239.84 Z-2.382
X298.278 Y239.849 Z-2.39
G3 X297.498 Y239.753 I-0.202 J-1.57
G1 X297.352 Y239.69
X297.24 Y239.649
X297.06 Y239.601
X288.888 Y238.031
X288.596 Y237.971
X286.407 Y237.51
X280.569 Y236.279
X279.839 Y236.112
X272.369 Y234.395
X272.251 Y234.371
G3 X272.043 Y234.223 Z-2.285 I0.064 J-0.311
G1 X272.008 Y234.176 Z-2.261
X271.965 Y234.136 Z-2.237
X271.915 Y234.104 Z-2.214
X271.86 Y234.082 Z-2.19
X271.799 Y234.071
X271.737 Y234.072
X271.676 Y234.084
X271.619 Y234.108
X271.603 Y234.118
X270.408 Y234.862
X270.363 Y234.896
X270.325 Y234.938
X270.295 Y234.985
G3 X269.778 Y235.844 I-7.191 J-3.741
G1 X269.634 Y236.046
X269.327 Y236.439 Z-2.39
X263.312 Y243.152
X263.18 Y243.298
X263.045 Y243.444
X255.613 Y251.229
X255.379 Y251.471
X255.176 Y251.68
X247.295 Y259.429
X247.149 Y259.567
X247.003 Y259.703
X238.976 Y267.11
X238.83 Y267.243
X230.366 Y274.571
X230.242 Y274.677
X221.609 Y281.685
X221.464 Y281.803
X221.239 Y281.975
X212.561 Y288.574
X212.409 Y288.689
X212.123 Y288.893
X203.513 Y295.02
X203.075 Y295.326
X202.964 Y295.402
X198.697 Y298.239
G3 X198.257 Y298.151 Z-2.19 I-0.176 J-0.264
X198.217 Y297.883 I0.264 J-0.176
G1 X198.419 Y297.212
G3 X198.723 Y296.986 I0.304 J0.092
X199.01 Y297.44 I0. J0.318
X198.444 Y298.282 I-3.172 J-1.523
G1 X198.27 Y298.46
G3 X197.887 Y298.778 Z-2.39 I-2.433 J-2.542
G1 X193.735 Y301.539
X193.151 Y301.902
X187.713 Y305.275
X187.314 Y305.523 F900.
X187.241 Y305.567
X187.204 Y305.586
X187.168 Y305.599
X187.131 Y305.608 F1000.
X187.095 Y305.612
X186.292 Y305.613
X-187.022
G3 X-187.46 Y305.432 I-0.021 J-0.571
G1 X-193.443 Y301.721
X-193.745 Y301.532
X-202.964 Y295.402
X-203.385 Y295.11
X-203.592 Y294.964
X-204.68 Y294.19
G3 X-204.811 Y293.971 Z-2.285 I0.184 J-0.259
G1 X-204.826 Y293.909 Z-2.259
X-204.852 Y293.851 Z-2.234
X-204.907 Y293.757 Z-2.19
X-205.033 Y293.543
X-205.263 Y293.15
G2 X-205.511 Y292.995 I-0.274 J0.161
G3 X-206.499 Y292.767 I0.288 J-3.507
G1 X-206.727 Y292.668
G3 X-207.161 Y292.424 Z-2.39 I1.505 J-3.181
G1 X-212.269 Y288.789
X-212.415 Y288.684
X-212.707 Y288.463
X-221.43 Y281.829
X-221.464 Y281.803
X-225.747 Y278.326
X-230.242 Y274.677
X-230.512 Y274.445
X-238.83 Y267.243
X-239.122 Y266.976
X-247.066 Y259.645
X-247.222 Y259.499
X-247.295 Y259.429
X-255.176 Y251.68
X-255.521 Y251.325
X-256.636 Y250.158
X-263.056 Y243.432
X-263.202 Y243.273
X-263.348 Y243.113
X-270.634 Y234.979
X-270.781 Y234.833
G3 X-270.875 Y234.597 Z-2.285 I0.223 J-0.226
G1 X-270.878 Y234.36 Z-2.19
X-270.88 Y234.112
X-270.886 Y233.531
G3 X-270.251 Y233.525 I0.317 J-0.003
X-270.44 Y233.818 I-0.317 J0.003
X-271.38 Y234.165 I-3.269 J-7.417
G1 X-271.619 Y234.233
X-272.105 Y234.346 Z-2.39
X-272.251 Y234.371
X-272.396 Y234.401
X-280.423 Y236.246
X-280.569 Y236.279
X-288.45 Y237.941
X-288.742 Y238.001
X-288.956 Y238.044
X-296.703 Y239.532
G3 X-296.984 Y239.003 I-0.049 J-0.314
G1 X-296.936 Y238.951 Z-2.382
X-296.891 Y238.902 Z-2.359
X-296.85 Y238.858 Z-2.321
X-296.816 Y238.821 Z-2.27
X-296.79 Y238.793 Z-2.21
X-296.774 Y238.776 Z-2.143
X-296.769 Y238.77 Z-2.072
G0 Z2.51
X-258.525 Y284.834
Z-1.755
G1 Z-2.072 F1000.
X-258.517 Y284.835 Z-2.143
X-258.494 Y284.839 Z-2.21
X-258.457 Y284.846 Z-2.27
X-258.407 Y284.855 Z-2.321
X-258.348 Y284.866 Z-2.359
X-258.282 Y284.878 Z-2.382
X-258.213 Y284.891 Z-2.39
G3 X-256.627 Y285.624 I-0.637 J3.461
G1 X-252.987 Y288.807
G3 X-252.878 Y289.037 Z-2.285 I-0.209 J0.239
G1 X-252.871 Y289.095 Z-2.261
X-252.853 Y289.152 Z-2.238
X-252.825 Y289.203 Z-2.214
X-252.788 Y289.249 Z-2.19
Y289.25
X-252.615 Y289.428
X-249.6 Y292.532
X-249.547 Y292.575
X-249.486 Y292.607
X-249.42 Y292.624
G3 X-248.449 Y292.92 I-0.53 J3.479
G1 X-248.229 Y293.034
G3 X-247.812 Y293.307 Z-2.39 I-1.721 J3.069
G1 X-239.122 Y300.444
X-239.038 Y300.51
X-235.819 Y302.992
G3 X-235.267 Y305.053 I-1.249 J1.439
X-235.57 Y305.608 I-1.801 J-0.622 F900.
G1 X-235.706 Y305.613 F1000.
G3 X-236.009 Y305.343 Z-2.213 I0.011 J-0.317
G1 X-236.018 Y305.285 Z-2.19
X-236.055 Y305.039
X-236.318 Y303.3
Y303.297
X-236.322 Y303.236
X-236.313 Y303.175
X-236.293 Y303.117
X-236.262 Y303.065
G3 X-235.819 Y302.992 Z-2.39 I0.258 J0.185
G1 X-234.598 Y303.933
G3 X-234.032 Y304.801 I-0.989 J1.264
X-233.999 Y305.431 I-1.555 J0.396 F900.
G1 X-234.079 Y305.526 F1000.
X-234.18 Y305.59
X-234.297 Y305.613
G3 X-234.575 Y305.426 Z-2.248 I0.011 J-0.317
G1 X-234.635 Y305.293 Z-2.19
X-234.737 Y305.067
X-235.073 Y304.321
G3 X-235.041 Y304.006 I0.289 J-0.13
X-234.598 Y303.933 Z-2.39 I0.258 J0.185
G1 X-233.431 Y304.833
X-233.316 Y304.93 F900.
X-233.23 Y305.052
X-233.163 Y305.187
X-233.159 Y305.2
X-233.149 Y305.347
X-233.206 Y305.483
X-233.318 Y305.578
X-233.462 Y305.613 F1000.
X-233.695 Y305.604 Z-2.296
G3 X-233.94 Y305.514 Z-2.19 I0.017 J-0.425
X-233.901 Y304.816 I0.262 J-0.336
X-233.431 Y304.833 Z-2.39 I0.222 J0.363
G1 X-233.169 Y305.035
X-233.139 Y305.064
X-233.115 Y305.093
X-233.097 Y305.122
X-233.083 Y305.152
X-233.072 Y305.181
X-233.063 Y305.217
X-233.058 Y305.254
X-233.057 Y305.29
X-233.061 Y305.327
X-233.069 Y305.363
X-233.082 Y305.4
X-233.1 Y305.436
X-233.123 Y305.473
X-233.139 Y305.493
X-233.175 Y305.532
X-233.212 Y305.56
X-233.248 Y305.581
X-233.285 Y305.596
X-233.321 Y305.606
X-233.358 Y305.611
X-233.431 Y305.613
X-291.369
G3 X-291.545 Y305.039 I0.011 J-0.317
G1 X-291.488 Y304.997 Z-2.382
X-291.434 Y304.958 Z-2.359
X-291.386 Y304.922 Z-2.321
X-291.345 Y304.892 Z-2.27
X-291.315 Y304.87 Z-2.21
X-291.296 Y304.856 Z-2.143
X-291.289 Y304.851 Z-2.072
G0 Z2.51
X-311.165 Y304.958
Z-1.755
G1 Z-2.072 F1000.
X-311.172 Y304.962 Z-2.143
X-311.192 Y304.974 Z-2.21
X-311.225 Y304.994 Z-2.27
X-311.268 Y305.019 Z-2.321
X-311.32 Y305.05 Z-2.359
X-311.377 Y305.084 Z-2.382
X-311.438 Y305.12 Z-2.39
G3 X-313.114 Y305.613 I-1.798 J-3.024
G1 X-314.135
X-314.172 Y305.611
X-314.208 Y305.606
X-314.245 Y305.597
X-314.281 Y305.583
X-314.316 Y305.565
X-314.35 Y305.54
X-314.427 Y305.464
X-315.275 Y304.597
G3 X-315.365 Y304.359 Z-2.285 I0.227 J-0.222
G1 X-315.359 Y304.308 Z-2.264
X-315.344 Y304.259 Z-2.244
X-315.321 Y304.213 Z-2.223
X-315.279 Y304.142 Z-2.19
X-315.152 Y303.928
X-315.085 Y303.815
G3 X-314.539 Y304.138 I0.273 J0.162
X-314.894 Y304.283 I-0.273 J-0.162
X-315.826 Y303.884 I0.905 J-3.4
G1 X-316.033 Y303.747
G3 X-316.417 Y303.429 Z-2.39 I2.045 J-2.864
G1 X-317.415 Y302.408
X-317.557 Y302.262
X-319.992 Y299.635
G3 X-319.975 Y299.186 Z-2.19 I0.233 J-0.216
X-319.512 Y299.22 I0.216 J0.233
X-319.734 Y299.398 I-0.111 J0.089
X-319.751 Y299.247 I0.111 J-0.089
X-319.179 Y299.524 I0.286 J0.138
X-319.637 Y299.652 I-0.286 J-0.138
X-320.444 Y299.058 I4.392 J-6.813
G1 X-320.632 Y298.896
X-320.994 Y298.553 Z-2.39
X-325.267 Y293.943
X-325.534 Y293.651
X-325.665 Y293.505
X-333.107 Y285.03
X-333.35 Y284.748
X-340.696 Y275.916
X-341.102 Y275.407
X-347.997 Y266.65
X-348.326 Y266.212
X-351.479 Y261.98
G3 X-351.414 Y261.536 Z-2.19 I0.255 J-0.19
X-351.133 Y261.486 I0.19 J0.254
G1 X-350.414 Y261.702
G3 X-350.188 Y262.006 I-0.091 J0.304
G1 Y262.007
G3 X-350.627 Y262.3 I-0.318 J0.
X-351.498 Y261.779 I1.351 J-3.249
G1 X-351.685 Y261.616
G3 X-352.023 Y261.25 Z-2.39 I2.409 J-2.565
G1 X-354.852 Y257.451
X-355.169 Y257.017
X-355.478 Y256.58
X-361.16 Y248.508
G3 X-360.793 Y248.034 I0.266 J-0.174
G1 X-360.726 Y248.056 Z-2.382
X-360.663 Y248.078 Z-2.359
X-360.606 Y248.097 Z-2.321
X-360.558 Y248.113 Z-2.27
X-360.522 Y248.125 Z-2.21
X-360.5 Y248.132 Z-2.143
X-360.492 Y248.135 Z-2.072
G0 Z2.51
X-365.583 Y246.891
Z-1.755
G1 Z-2.072 F1000.
X-365.582 Y246.899 Z-2.143
X-365.581 Y246.923 Z-2.21
X-365.578 Y246.96 Z-2.27
X-365.575 Y247.011 Z-2.321
X-365.571 Y247.071 Z-2.359
X-365.566 Y247.138 Z-2.382
X-365.562 Y247.208 Z-2.39
G3 X-365.884 Y248.925 I-3.511 J0.23
G1 X-369.738 Y256.494
G3 X-370.165 Y256.633 Z-2.19 I-0.283 J-0.144
G1 X-370.169 Y256.631
X-370.385 Y256.517
X-370.593 Y256.408
G3 X-370.298 Y255.846 I0.148 J-0.281
X-370.129 Y256.098 I-0.148 J0.281
X-370.185 Y257.111 I-3.504 J0.316
G1 X-370.242 Y257.353
G3 X-370.409 Y257.822 Z-2.39 I-3.391 J-0.938
G1 X-374.957 Y267.38
G3 X-375.55 Y267.293 I-0.282 J-0.146
G1 X-375.563 Y267.224 Z-2.382
X-375.576 Y267.158 Z-2.359
X-375.587 Y267.099 Z-2.321
X-375.597 Y267.049 Z-2.27
X-375.604 Y267.012 Z-2.21
X-375.608 Y266.989 Z-2.143
X-375.61 Y266.981 Z-2.072
G0 Z2.51
X-384.454 Y287.919
Z-1.755
G1 Z-2.072 F1000.
X-384.453 Y287.927 Z-2.143
X-384.449 Y287.95 Z-2.21
X-384.442 Y287.987 Z-2.27
X-384.433 Y288.037 Z-2.321
X-384.423 Y288.096 Z-2.359
X-384.411 Y288.162 Z-2.382
X-384.399 Y288.232 Z-2.39
G3 X-384.535 Y289.973 I-3.466 J0.606
G1 X-385.49 Y292.483
G3 X-385.668 Y292.665 Z-2.285 I-0.297 J-0.113
G1 X-385.72 Y292.692 Z-2.261
X-385.767 Y292.728 Z-2.237
X-385.806 Y292.773 Z-2.214
X-385.836 Y292.823 Z-2.19
X-385.941 Y293.048
X-387.909 Y297.255
X-387.93 Y297.319
X-387.938 Y297.386
X-387.932 Y297.453
G3 X-387.876 Y298.466 I-3.449 J0.699
G1 X-387.907 Y298.712
G3 X-388.021 Y299.197 Z-2.39 I-3.474 J-0.56
G1 X-390.17 Y305.34
X-390.194 Y305.406
X-390.21 Y305.44
X-390.231 Y305.473
X-390.265 Y305.515
X-390.291 Y305.539
X-390.316 Y305.558
X-390.352 Y305.579
X-390.389 Y305.594
X-390.425 Y305.605
X-390.462 Y305.611
X-390.608 Y305.613
X-446.357
G3 X-446.67 Y305.583 I-0.041 J-1.248
X-447.229 Y305.296 I0.272 J-1.218 F900.
G1 X-447.269 Y305.162 F1000.
X-447.258 Y305.027
G3 X-446.873 Y304.826 Z-2.198 I0.3 J0.104
G1 X-446.854 Y304.831 Z-2.19
X-446.614 Y304.897
X-446.283 Y304.989
G3 X-446.05 Y305.284 I-0.085 J0.306
X-446.357 Y305.613 Z-2.39 I-0.317 J0.011
X-447.086 Y305.597 I-0.326 J-1.878
G1 X-447.123 Y305.583
X-447.159 Y305.563
X-447.196 Y305.537
X-447.232 Y305.505
X-447.26 Y305.473
X-447.283 Y305.436
X-447.301 Y305.4
X-447.312 Y305.363
X-447.32 Y305.327
X-447.322 Y305.29
X-447.321 Y305.254
X-447.315 Y305.217
X-447.306 Y305.181
X-444.366 Y295.694
X-444.313 Y295.531
X-444.122 Y294.964
X-440.195 Y283.434
X-440.038 Y282.996
X-435.697 Y271.32
X-435.585 Y271.029
X-435.232 Y270.153
G3 X-435.05 Y269.975 Z-2.285 I0.294 J0.119
G1 X-434.997 Y269.949 Z-2.261
X-434.95 Y269.914 Z-2.237
X-434.91 Y269.87 Z-2.214
X-434.879 Y269.82 Z-2.19
X-434.874 Y269.81
X-434.775 Y269.594
X-434.378 Y268.728
X-434.362 Y268.684
X-434.352 Y268.638
G3 X-434.158 Y267.655 I8.034 J1.075
G1 X-434.092 Y267.415
X-433.936 Y266.942 Z-2.39
X-430.813 Y259.207
X-430.741 Y259.035
X-428.114 Y253.014
G3 X-427.518 Y253.082 I0.286 J0.137
G1 X-427.503 Y253.151 Z-2.382
X-427.488 Y253.216 Z-2.359
X-427.475 Y253.275 Z-2.321
X-427.464 Y253.324 Z-2.27
X-427.455 Y253.361 Z-2.21
X-427.45 Y253.384 Z-2.143
X-427.448 Y253.391 Z-2.072
G0 Z2.51
X-424.887 Y244.855
Z-1.755
G1 Z-2.072 F1000.
X-424.895 Y244.856 Z-2.143
X-424.918 Y244.859 Z-2.21
X-424.955 Y244.864 Z-2.27
X-425.005 Y244.871 Z-2.321
X-425.065 Y244.88 Z-2.359
X-425.131 Y244.889 Z-2.382
X-425.201 Y244.899 Z-2.39
G3 X-426.947 Y244.951 I-1.117 J-8.028
G1 X-439.935 Y243.483
X-440.081 Y243.467
X-440.258 Y243.444
X-453.216 Y241.603
X-453.362 Y241.581
X-453.654 Y241.533
X-464.799 Y239.623
X-465.329 Y239.532 F900.
X-465.375 Y239.521
X-465.422 Y239.503
X-465.448 Y239.489
X-465.475 Y239.471
X-465.504 Y239.447
X-465.533 Y239.414
X-465.572 Y239.358
X-465.59 Y239.321
X-465.602 Y239.285
X-465.609 Y239.248 F1000.
X-465.612 Y239.212
X-465.613 Y184.772
Y184.692
Y184.656
X-465.605 Y184.506 F900.
X-465.552 Y184.337
X-465.519 Y184.266
X-465.433 Y184.155
X-465.308 Y184.092
X-465.168 Y184.089 F1000.
G3 X-464.824 Y184.255 Z-2.235 I-0.208 J0.87
G1 X-464.782 Y184.292 Z-2.213
X-464.744 Y184.334 Z-2.19
G3 X-465.365 Y185.064 I-0.381 J0.304
G1 X-465.399 Y185.043 Z-2.206
G3 X-465.613 Y184.656 Z-2.39 I0.274 J-0.404
G1 Y184.407
X-465.611 Y184.371
X-465.606 Y184.334
X-465.596 Y184.298
X-465.581 Y184.261
X-465.56 Y184.225
X-465.531 Y184.189
X-465.503 Y184.159
X-465.475 Y184.135
X-465.438 Y184.112
X-465.402 Y184.094
X-465.365 Y184.082
X-465.329 Y184.075
X-465.292 Y184.072
X-465.256 Y184.073
X-465.183 Y184.086
X-457.156 Y185.707
X-456.864 Y185.762
X-456.572 Y185.816
X-445.335 Y187.747
X-445.043 Y187.795
X-444.897 Y187.818
X-433.368 Y189.455
X-433.222 Y189.475
X-432.784 Y189.528
X-421.255 Y190.824
X-421.109 Y190.838
X-418.581 Y191.048
G3 X-418.452 Y191.634 I-0.037 J0.315
G1 X-418.513 Y191.671 Z-2.382
X-418.57 Y191.706 Z-2.359
X-418.621 Y191.738 Z-2.321
X-418.664 Y191.764 Z-2.27
X-418.696 Y191.784 Z-2.21
X-418.716 Y191.796 Z-2.143
X-418.723 Y191.8 Z-2.072
G0 Z2.51
X-410.641 Y192.405
Z-1.755
G1 Z-2.072 F1000.
X-410.634 Y192.401 Z-2.143
X-410.613 Y192.39 Z-2.21
X-410.579 Y192.372 Z-2.27
X-410.535 Y192.349 Z-2.321
X-410.482 Y192.321 Z-2.359
X-410.422 Y192.29 Z-2.382
X-410.36 Y192.257 Z-2.39
G3 X-408.66 Y191.856 I1.633 J3.117
G1 X-402.283 Y192.198
G3 X-402.056 Y192.313 Z-2.285 I-0.017 J0.317
G1 X-402.005 Y192.362 Z-2.257
X-401.945 Y192.398 Z-2.228
X-401.878 Y192.42 Z-2.2
X-401.853 Y192.426 Z-2.19
X-401.611 Y192.478
X-398.956 Y193.05
X-398.895 Y193.057
X-398.833 Y193.052
X-398.774 Y193.035
X-398.719 Y193.007
G3 X-397.793 Y192.593 I1.886 J2.971
G1 X-397.552 Y192.533
G3 X-397.059 Y192.467 Z-2.39 I0.719 J3.445
G2 X-395.646 Y191.482 I-0.089 J-1.633
G1 X-395.457 Y191.194
G3 X-395.248 Y191.049 Z-2.285 I0.271 J0.166
G1 X-395.189 Y191.043 Z-2.261
X-395.131 Y191.048 Z-2.237
X-395.074 Y191.063 Z-2.214
X-395.021 Y191.089 Z-2.19
G3 X-395.352 Y191.631 I-0.166 J0.271
X-395.407 Y191.132 I0.166 J-0.271
G1 X-394.496 Y190.253
G3 X-394.055 Y190.71 I0.22 J0.229
X-394.522 Y190.682 I-0.22 J-0.229
X-395.105 Y189.867 I6.287 J-5.116
G1 X-395.233 Y189.654
X-395.471 Y189.216 Z-2.39
X-400.619 Y178.059
X-400.752 Y177.767
X-400.823 Y177.608
X-405.85 Y165.799
X-405.911 Y165.653
X-410.533 Y153.831
X-410.698 Y153.393
X-410.752 Y153.247
X-414.919 Y141.571
X-415.073 Y141.133
X-419.041 Y128.874
X-419.172 Y128.436
X-422.697 Y116.322
X-422.852 Y115.738
X-424.612 Y108.943
X-424.619 Y108.904 Z-2.374
X-424.622 Y108.864 Z-2.358
G3 X-424.384 Y108.556 Z-2.19 I0.318 J0.
X-424.224 Y109.171 I0.08 J0.307
X-424.594 Y108.734 I-0.08 J-0.307
G1 X-424.301 Y108.08
G3 X-423.694 Y108.21 I0.29 J0.13
X-424.235 Y108.436 I-0.318 J0.
X-424.845 Y107.625 I2.477 J-2.499
G1 X-424.956 Y107.403
G3 X-425.131 Y106.937 Z-2.39 I3.198 J-1.467
G1 X-425.951 Y103.77
X-425.988 Y103.624
X-426.09 Y103.186
X-428.845 Y91.073
X-428.876 Y90.927
X-428.967 Y90.489
X-431.344 Y78.375
X-431.427 Y77.937
X-431.452 Y77.791
X-431.96 Y74.726
G3 X-431.897 Y74.48 Z-2.285 I0.313 J-0.052
G1 X-431.862 Y74.423 Z-2.258
X-431.839 Y74.36 Z-2.231
X-431.83 Y74.294 Z-2.205
X-431.829 Y74.258 Z-2.19
X-431.822 Y74.01
X-431.778 Y72.573
X-431.781 Y72.515
X-431.795 Y72.459
X-431.819 Y72.406
X-431.852 Y72.358
G3 X-432.388 Y71.497 I2.69 J-2.268
G1 X-432.479 Y71.266
G3 X-432.611 Y70.786 Z-2.39 I3.317 J-1.175
G1 X-433.529 Y65.24
X-433.592 Y64.802
X-434.223 Y60.131
X-435.247 Y52.542
X-435.304 Y52.104
X-435.35 Y51.666
X-436.634 Y39.406
X-436.674 Y38.969
X-436.772 Y37.655
X-437.622 Y26.271
X-437.646 Y25.833
X-438.214 Y13.135
X-438.225 Y12.552
X-438.412 Y0.
X-438.223 Y-12.698
X-438.214 Y-13.135
X-437.646 Y-25.833
X-437.622 Y-26.271
X-437.524 Y-27.584
G3 X-437.184 Y-27.877 Z-2.19 I0.317 J0.024
G1 X-437.123 Y-27.867
X-437.065 Y-27.845
X-437.013 Y-27.812
X-436.968 Y-27.769
X-436.951 Y-27.748
X-436.544 Y-27.189
G3 X-436.636 Y-26.73 I-0.257 J0.187
X-437.085 Y-26.86 I-0.165 J-0.271
X-437.401 Y-27.824 I3.15 J-1.568
G1 X-437.435 Y-28.07
G3 X-437.451 Y-28.568 Z-2.39 I3.5 J-0.358
G1 X-436.685 Y-38.823
X-436.674 Y-38.969
X-436.634 Y-39.406
X-435.32 Y-51.958
X-435.304 Y-52.104
X-435.227 Y-52.688
X-433.612 Y-64.656
X-433.55 Y-65.094
X-433.529 Y-65.24
X-431.452 Y-77.791
X-431.427 Y-77.937
X-431.344 Y-78.375
X-428.967 Y-90.489
X-428.876 Y-90.927
X-428.844 Y-91.077
X-426.09 Y-103.186
X-425.988 Y-103.624
X-425.925 Y-103.871
X-422.814 Y-115.884
X-422.697 Y-116.322
X-419.172 Y-128.436
X-419.041 Y-128.874
X-416.538 Y-136.609
G3 X-416.369 Y-136.799 Z-2.285 I0.302 J0.098
G1 X-416.314 Y-136.832 Z-2.259
X-416.266 Y-136.875 Z-2.233
X-416.228 Y-136.927 Z-2.208
X-416.206 Y-136.965 Z-2.19
X-416.08 Y-137.179
X-415.45 Y-138.251
X-415.425 Y-138.305
X-415.41 Y-138.363
X-415.406 Y-138.423
X-415.414 Y-138.483
G3 X-415.494 Y-139.494 I3.431 J-0.78
G1 X-415.469 Y-139.741
G3 X-415.366 Y-140.228 Z-2.39 I3.486 J0.479
G1 X-415.073 Y-141.133
X-414.867 Y-141.717
X-410.747 Y-153.26
X-410.698 Y-153.393
X-410.533 Y-153.831
X-405.911 Y-165.653
X-405.602 Y-166.383
X-400.818 Y-177.621
X-400.678 Y-177.93
X-400.35 Y-178.642
X-395.424 Y-189.32
X-395.308 Y-189.589
G3 X-395.123 Y-189.763 Z-2.285 I0.292 J0.125
G1 X-395.066 Y-189.777 Z-2.261
X-395.007 Y-189.781 Z-2.237
X-394.948 Y-189.774 Z-2.214
X-394.892 Y-189.756 Z-2.19
G3 X-395.141 Y-189.172 I-0.125 J0.292
X-395.227 Y-189.702 I0.125 J-0.292
G1 X-394.827 Y-190.055
G3 X-394.407 Y-189.578 I0.21 J0.238
X-394.616 Y-189.499 I-0.21 J-0.238
G1 X-394.617
G3 X-394.874 Y-189.631 I0. J-0.318
G1 X-394.901 Y-189.67
X-394.966 Y-189.775
X-395.023 Y-189.885
G3 X-395.16 Y-190.363 Z-2.39 I1.434 J-0.67
G2 X-395.846 Y-191.765 I-2.447 J0.328
G1 X-395.876 Y-191.827
X-395.893 Y-191.894
X-395.895 Y-191.963
X-395.884 Y-192.03
X-395.858 Y-192.093
X-395.821 Y-192.15
X-395.773 Y-192.197
X-395.716 Y-192.233
X-395.654 Y-192.257
X-395.588 Y-192.267
X-395.522 Y-192.264
X-395.458 Y-192.247
X-395.392 Y-192.223 Z-2.382
X-395.329 Y-192.201 Z-2.359
X-395.272 Y-192.181 Z-2.321
X-395.224 Y-192.164 Z-2.27
X-395.189 Y-192.151 Z-2.21
X-395.167 Y-192.143 Z-2.143
X-395.159 Y-192.141 Z-2.072
G0 Z2.51
X-419.582 Y-191.671
Z-1.755
G1 Z-2.072 F1000.
X-419.588 Y-191.666 Z-2.143
X-419.607 Y-191.652 Z-2.21
X-419.637 Y-191.629 Z-2.27
X-419.677 Y-191.598 Z-2.321
X-419.725 Y-191.562 Z-2.359
X-419.779 Y-191.522 Z-2.382
X-419.835 Y-191.479 Z-2.39
G3 X-421.445 Y-190.803 I-2.125 J-2.805
G1 X-432.784 Y-189.528
X-433.222 Y-189.475
X-433.368 Y-189.455
X-444.897 Y-187.818
X-445.043 Y-187.795
X-445.627 Y-187.697
X-456.572 Y-185.816
X-457.01 Y-185.735
X-457.156 Y-185.707
X-464.891 Y-184.145
X-464.935 Y-184.136
X-464.966 Y-184.13
X-465.114 Y-184.107 F900.
X-465.336 Y-184.126
X-465.363 Y-184.132
X-465.492 Y-184.193
X-465.581 Y-184.303
X-465.613 Y-184.442 F1000.
G3 X-465.52 Y-184.818 Z-2.234 I0.939 J0.033
G1 X-465.493 Y-184.865 Z-2.212
X-465.462 Y-184.909 Z-2.19
G3 X-464.615 Y-184.453 I0.383 J0.304
G1 X-464.627 Y-184.421 Z-2.204
G3 X-464.966 Y-184.13 Z-2.39 I-0.453 J-0.185
G1 X-465.183 Y-184.086
X-465.256 Y-184.073
X-465.292 Y-184.072
X-465.329 Y-184.075
X-465.365 Y-184.082
X-465.402 Y-184.094
X-465.438 Y-184.112
X-465.475 Y-184.135
X-465.503 Y-184.159
X-465.531 Y-184.189
X-465.56 Y-184.225
X-465.581 Y-184.261
X-465.596 Y-184.298
X-465.606 Y-184.334
X-465.611 Y-184.371
X-465.613 Y-184.407
Y-192.216
X-465.612 Y-238.942
Y-239.212 F900.
X-465.609 Y-239.248
X-465.602 Y-239.285
X-465.59 Y-239.321
X-465.572 Y-239.358
X-465.533 Y-239.414
X-465.504 Y-239.447
X-465.475 Y-239.471
X-465.448 Y-239.489
X-465.422 Y-239.503
X-465.375 Y-239.521 F1000.
X-465.329 Y-239.532
X-453.508 Y-241.557
X-453.362 Y-241.581
X-453.07 Y-241.624
X-440.227 Y-243.449
X-440.081 Y-243.467
X-439.206 Y-243.566
X-434.39 Y-244.11
G3 X-434.15 Y-243.561 I0.025 J0.317
G1 X-434.202 Y-243.513 Z-2.382
X-434.251 Y-243.467 Z-2.359
X-434.295 Y-243.426 Z-2.321
X-434.332 Y-243.392 Z-2.27
X-434.36 Y-243.367 Z-2.21
X-434.377 Y-243.351 Z-2.143
X-434.383 Y-243.345 Z-2.072
G0 Z2.51
X-425.934 Y-249.655
Z-1.755
G1 Z-2.072 F1000.
X-425.941 Y-249.66 Z-2.143
X-425.96 Y-249.674 Z-2.21
X-425.991 Y-249.696 Z-2.27
X-426.031 Y-249.725 Z-2.321
X-426.08 Y-249.76 Z-2.359
X-426.135 Y-249.799 Z-2.382
X-426.192 Y-249.841 Z-2.39
G3 X-427.313 Y-251.179 I2.053 J-2.858
G1 X-430.741 Y-259.035
X-430.813 Y-259.207
X-431.179 Y-260.114
G3 X-431.172 Y-260.368 Z-2.285 I0.294 J-0.119
G1 X-431.142 Y-260.419 Z-2.261
X-431.103 Y-260.464 Z-2.237
X-431.056 Y-260.5 Z-2.214
X-431.004 Y-260.527 Z-2.19
G3 X-430.765 Y-259.939 I0.119 J0.294
X-431.2 Y-260.269 I-0.119 J-0.294
G1 X-431.094 Y-261.202
G3 X-430.463 Y-261.13 I0.315 J0.036
X-430.971 Y-260.913 I-0.315 J-0.036
X-431.681 Y-261.638 I2.131 J-2.8
G1 X-431.82 Y-261.843
G3 X-432.055 Y-262.283 Z-2.39 I2.981 J-1.87
G1 X-435.585 Y-271.029
X-435.703 Y-271.337
X-440.038 Y-282.996
X-440.195 Y-283.434
X-444.172 Y-295.11
X-444.319 Y-295.548
X-444.366 Y-295.694
X-447.125 Y-304.597
G3 X-447.201 Y-304.998 I0.942 J-0.388
X-447.002 Y-305.59 I1.019 J0.013 F900.
G1 X-446.84 Y-305.613 F1000.
G3 X-446.534 Y-305.309 Z-2.2 I-0.011 J0.317
G1 X-446.533 Y-305.284 Z-2.19
X-446.522 Y-305.036
X-446.508 Y-304.716
G3 X-446.721 Y-304.402 I-0.317 J0.014
X-447.125 Y-304.597 Z-2.39 I-0.104 J-0.3
X-447.322 Y-305.29 I1.582 J-0.826
G1 X-447.32 Y-305.327
X-447.312 Y-305.363
X-447.301 Y-305.4
X-447.283 Y-305.436
X-447.26 Y-305.473
X-447.232 Y-305.505
X-447.196 Y-305.537
X-447.159 Y-305.563
X-447.123 Y-305.583
X-447.086 Y-305.597
X-447.05 Y-305.607
X-447.013 Y-305.612
X-446.94 Y-305.613
X-439.417
G3 X-439.24 Y-305.039 I-0.011 J0.317
G1 X-439.297 Y-304.997 Z-2.382
X-439.352 Y-304.958 Z-2.359
X-439.4 Y-304.922 Z-2.321
X-439.441 Y-304.892 Z-2.27
X-439.471 Y-304.87 Z-2.21
X-439.49 Y-304.856 Z-2.143
X-439.496 Y-304.851 Z-2.072
G0 Z2.51
X-394.045 Y-304.958
Z-1.755
G1 Z-2.072 F1000.
X-394.038 Y-304.962 Z-2.143
X-394.018 Y-304.974 Z-2.21
X-393.985 Y-304.994 Z-2.27
X-393.942 Y-305.019 Z-2.321
X-393.891 Y-305.05 Z-2.359
X-393.833 Y-305.084 Z-2.382
X-393.772 Y-305.12 Z-2.39
G3 X-392.097 Y-305.613 I1.798 J3.024
G1 X-390.608
X-390.462 Y-305.611
X-390.425 Y-305.605
X-390.389 Y-305.594
X-390.352 Y-305.579
X-390.316 Y-305.558
X-390.291 Y-305.539
X-390.265 Y-305.515
X-390.231 Y-305.473
X-390.21 Y-305.44
X-390.194 Y-305.406
X-389.961 Y-304.743
X-388.174 Y-299.635
G3 X-388.193 Y-299.381 Z-2.285 I-0.3 J0.105
G1 X-388.3 Y-299.17 Z-2.19
X-388.413 Y-298.948
X-388.484 Y-298.807
G3 X-389.051 Y-299.094 I-0.283 J-0.144
X-388.57 Y-299.199 I0.283 J0.144
X-387.875 Y-298.46 I-2.188 J2.756
G1 X-387.74 Y-298.252
G3 X-387.515 Y-297.808 Z-2.39 I-3.018 J1.809
G1 X-384.491 Y-289.856
G3 X-384.964 Y-289.487 I-0.301 J0.102
G1 X-385.023 Y-289.526 Z-2.382
X-385.079 Y-289.562 Z-2.359
X-385.13 Y-289.595 Z-2.321
X-385.172 Y-289.622 Z-2.27
X-385.204 Y-289.643 Z-2.21
X-385.224 Y-289.655 Z-2.143
X-385.23 Y-289.66 Z-2.072
G0 Z2.51
X-376.42 Y-268.933
Z-1.755
G1 Z-2.072 F1000.
X-376.414 Y-268.928 Z-2.143
X-376.394 Y-268.915 Z-2.21
X-376.363 Y-268.894 Z-2.27
X-376.321 Y-268.866 Z-2.321
X-376.271 Y-268.833 Z-2.359
X-376.215 Y-268.795 Z-2.382
X-376.156 Y-268.756 Z-2.39
G3 X-374.992 Y-267.455 I-1.958 J2.923
G1 X-370.859 Y-258.769
G3 X-370.851 Y-258.514 Z-2.285 I-0.287 J0.136
G1 X-370.87 Y-258.446 Z-2.256
X-370.873 Y-258.375 Z-2.228
X-370.861 Y-258.306 Z-2.2
X-370.854 Y-258.283 Z-2.19
X-370.783 Y-258.045
X-370.298 Y-256.421
X-370.277 Y-256.369
X-370.247 Y-256.32
X-370.208 Y-256.278
X-370.163 Y-256.244
G3 X-369.393 Y-255.584 I-1.879 J2.975
G1 X-369.236 Y-255.392
G3 X-368.964 Y-254.974 Z-2.39 I-2.806 J2.123
G1 X-365.944 Y-249.043
G3 X-366.375 Y-248.625 I-0.288 J0.134
G1 X-366.438 Y-248.657 Z-2.382
X-366.498 Y-248.687 Z-2.359
X-366.551 Y-248.714 Z-2.321
X-366.596 Y-248.737 Z-2.27
X-366.63 Y-248.754 Z-2.21
X-366.651 Y-248.764 Z-2.143
X-366.658 Y-248.768 Z-2.072
G0 Z2.51
X-361.802 Y-246.461
Z-1.755
G1 Z-2.072 F1000.
X-361.801 Y-246.469 Z-2.143
X-361.799 Y-246.492 Z-2.21
X-361.796 Y-246.53 Z-2.27
X-361.792 Y-246.58 Z-2.321
X-361.788 Y-246.64 Z-2.359
X-361.783 Y-246.707 Z-2.382
X-361.777 Y-246.777 Z-2.39
G3 X-361.215 Y-248.431 I3.508 J0.271
G1 X-355.272 Y-256.871
X-355.144 Y-257.051
X-354.849 Y-257.455
X-348.285 Y-266.267
X-347.993 Y-266.655
X-341.102 Y-275.407
X-340.696 Y-275.916
X-333.35 Y-284.748
X-333.107 Y-285.03
X-325.664 Y-293.506
X-325.519 Y-293.668
X-325.227 Y-293.986
X-317.557 Y-302.262
X-317.054 Y-302.778
X-316.47 Y-303.375
G3 X-316.2 Y-303.467 Z-2.271 I0.227 J0.222
G1 X-316. Y-303.44 Z-2.19
X-315.754 Y-303.406
X-315.648 Y-303.391
G3 X-315.735 Y-302.762 I-0.043 J0.315
X-316. Y-303.152 I0.043 J-0.315
X-315.622 Y-304.093 I3.42 J0.829
G1 X-315.489 Y-304.303
G3 X-315.181 Y-304.694 Z-2.39 I2.909 J1.98
G1 X-314.419 Y-305.473
X-314.35 Y-305.54
X-314.316 Y-305.565
X-314.281 Y-305.583
X-314.245 Y-305.597
X-314.208 Y-305.606
X-314.172 Y-305.611
X-314.135 Y-305.613
X-313.325
G3 X-313.149 Y-305.039 I-0.011 J0.317
G1 X-313.206 Y-304.997 Z-2.382
X-313.26 Y-304.958 Z-2.359
X-313.308 Y-304.922 Z-2.321
X-313.349 Y-304.892 Z-2.27
X-313.379 Y-304.87 Z-2.21
X-313.398 Y-304.856 Z-2.143
X-313.405 Y-304.851 Z-2.072
G0 Z2.51
X-263.253 Y-304.958
Z-1.755
G1 Z-2.072 F1000.
X-263.247 Y-304.962 Z-2.143
X-263.226 Y-304.974 Z-2.21
X-263.194 Y-304.994 Z-2.27
X-263.151 Y-305.019 Z-2.321
X-263.099 Y-305.05 Z-2.359
X-263.041 Y-305.084 Z-2.382
X-262.981 Y-305.12 Z-2.39
G3 X-261.305 Y-305.613 I1.798 J3.024
G1 X-236.641
G3 X-235.007 Y-304.339 I-0.183 J1.919
X-234.896 Y-303.717 I-1.817 J0.646 F900.
G1 X-235.004 Y-303.62 F1000.
G3 X-235.411 Y-303.652 Z-2.212 I-0.185 J-0.258
G1 X-235.45 Y-303.69 Z-2.19
X-235.627 Y-303.864
X-236.848 Y-305.064
X-236.853 Y-305.069
X-236.892 Y-305.115
X-236.921 Y-305.167
X-236.94 Y-305.225
X-236.947 Y-305.284
G3 X-236.641 Y-305.613 Z-2.39 I0.317 J-0.011
G1 X-235.182
G3 X-234.184 Y-305.276 I0.013 J1.61
X-233.77 Y-304.8 I-0.985 J1.273 F900.
G1 X-233.776 Y-304.675 F1000.
X-233.817 Y-304.563
X-233.896 Y-304.474
G3 X-234.226 Y-304.45 Z-2.25 I-0.185 J-0.258
G1 X-234.359 Y-304.519 Z-2.19
X-234.58 Y-304.633
X-235.316 Y-305.013
G3 X-235.488 Y-305.284 I0.146 J-0.282
G1 Y-305.295 Z-2.194
G3 X-235.182 Y-305.613 Z-2.39 I0.318 J0.
G1 X-233.722
X-233.573 Y-305.605 F900.
X-233.427 Y-305.567
X-233.29 Y-305.507
X-233.268 Y-305.492
X-233.165 Y-305.384
X-233.123 Y-305.239
X-233.153 Y-305.092
X-233.246 Y-304.975 F1000.
G3 X-233.624 Y-304.808 Z-2.223 I-0.585 J-0.811
G1 X-233.665 Y-304.801 Z-2.206
X-233.706 Y-304.799 Z-2.19
G3 X-234.096 Y-305.33 I-0.003 J-0.407
X-233.722 Y-305.613 Z-2.39 I0.387 J0.124
G1 X-233.431
X-233.358 Y-305.611
X-233.321 Y-305.606
X-233.285 Y-305.596
X-233.248 Y-305.581
X-233.212 Y-305.56 F900.
X-233.175 Y-305.532
X-233.139 Y-305.493
X-233.123 Y-305.473
X-233.1 Y-305.436
X-233.082 Y-305.4
X-233.069 Y-305.363
X-233.061 Y-305.327
X-233.057 Y-305.29
X-233.058 Y-305.254
X-233.063 Y-305.217
X-233.072 Y-305.181
X-233.083 Y-305.152
X-233.097 Y-305.122
X-233.115 Y-305.093
X-233.139 Y-305.064 F1000.
X-233.169 Y-305.035
X-238.849 Y-300.656
G3 X-239.339 Y-301.002 I-0.185 J-0.258
G1 X-239.32 Y-301.07 Z-2.382
X-239.301 Y-301.134 Z-2.359
X-239.285 Y-301.192 Z-2.321
X-239.271 Y-301.241 Z-2.27
X-239.26 Y-301.277 Z-2.21
X-239.254 Y-301.3 Z-2.143
X-239.252 Y-301.307 Z-2.072
G0 Z2.51
X-289.599 Y-253.157
Z-1.755
G1 Z-2.072 F1000.
X-289.601 Y-253.149 Z-2.143
X-289.605 Y-253.126 Z-2.21
X-289.611 Y-253.088 Z-2.27
X-289.62 Y-253.039 Z-2.321
X-289.631 Y-252.98 Z-2.359
X-289.642 Y-252.914 Z-2.382
X-289.654 Y-252.844 Z-2.39
G3 X-290.375 Y-251.253 I-3.465 J-0.61
G1 X-290.438 Y-251.179
X-297.292 Y-243.006
G3 X-297.845 Y-243.239 I-0.236 J-0.212
G1 X-297.84 Y-243.31 Z-2.382
X-297.836 Y-243.377 Z-2.359
X-297.832 Y-243.437 Z-2.321
X-297.829 Y-243.487 Z-2.27
X-297.826 Y-243.525 Z-2.21
X-297.825 Y-243.548 Z-2.143
X-297.824 Y-243.556 Z-2.072
G0 Z2.51
X-298.592 Y-239.808
Z-1.755
G1 Z-2.072 F1000.
X-298.585 Y-239.809 Z-2.143
X-298.561 Y-239.812 Z-2.21
X-298.524 Y-239.817 Z-2.27
X-298.474 Y-239.824 Z-2.321
X-298.414 Y-239.831 Z-2.359
X-298.348 Y-239.84 Z-2.382
X-298.278 Y-239.849 Z-2.39
G3 X-297.498 Y-239.753 I0.202 J1.57
G1 X-297.352 Y-239.69
X-297.24 Y-239.649
X-297.06 Y-239.601
X-288.888 Y-238.031
X-288.596 Y-237.971
X-286.407 Y-237.51
X-280.569 Y-236.279
X-279.839 Y-236.112
X-272.369 Y-234.395
X-272.251 Y-234.371
G3 X-272.043 Y-234.223 Z-2.285 I-0.064 J0.311
G1 X-272.008 Y-234.176 Z-2.261
X-271.965 Y-234.136 Z-2.237
X-271.915 Y-234.104 Z-2.214
X-271.86 Y-234.082 Z-2.19
X-271.811 Y-234.072
X-271.761 Y-234.07
X-271.712 Y-234.075
X-271.615 Y-234.094
X-270.628 Y-234.28
G2 X-270.375 Y-234.531 I-0.059 J-0.312
G3 X-270.038 Y-235.487 I3.453 J0.679
G1 X-269.915 Y-235.703
G3 X-269.624 Y-236.107 Z-2.39 I2.993 J1.851
G1 X-263.312 Y-243.152
X-263.18 Y-243.298
X-263.045 Y-243.444
X-255.613 Y-251.229
X-255.379 Y-251.471
X-255.176 Y-251.68
X-250.36 Y-256.415
G3 X-249.911 Y-256.412 Z-2.19 I0.223 J0.226
X-249.823 Y-256.139 I-0.226 J0.223
G1 X-249.941 Y-255.396
G3 X-250.32 Y-255.135 I-0.314 J-0.05
X-250.561 Y-255.527 I0.065 J-0.311
X-250.164 Y-256.46 I3.403 J0.896
G1 X-250.028 Y-256.668
G3 X-249.712 Y-257.052 Z-2.39 I2.869 J2.037
G1 X-247.295 Y-259.429
X-247.149 Y-259.567
X-247.003 Y-259.703
X-238.976 Y-267.11
X-238.83 Y-267.243
X-230.366 Y-274.571
X-230.242 Y-274.677
X-221.609 Y-281.685
X-221.464 Y-281.803
X-221.239 Y-281.975
X-212.561 Y-288.574
X-212.409 Y-288.689
X-212.123 Y-288.893
X-203.513 Y-295.02
X-203.075 Y-295.326
X-202.964 Y-295.402
X-193.735 Y-301.539
X-193.151 Y-301.902
X-187.713 Y-305.275
X-187.314 Y-305.523 F900.
X-187.241 Y-305.567
X-187.204 Y-305.586
X-187.168 Y-305.599
X-187.131 Y-305.608 F1000.
X-187.095 Y-305.612
X-186.292 Y-305.613
X187.022
G3 X187.46 Y-305.432 I0.021 J0.571
G1 X193.443 Y-301.721
X193.745 Y-301.532
X202.964 Y-295.402
X203.385 Y-295.11
X203.592 Y-294.964
X212.269 Y-288.789
X212.415 Y-288.684
X212.707 Y-288.463
X221.43 Y-281.829
X221.464 Y-281.803
X225.747 Y-278.326
X230.242 Y-274.677
X230.512 Y-274.445
X238.83 Y-267.243
X239.122 Y-266.976
X247.066 Y-259.645
X247.222 Y-259.499
X247.295 Y-259.429
X255.176 Y-251.68
X255.521 Y-251.325
X256.636 Y-250.158
X263.056 Y-243.432
X263.202 Y-243.273
X263.348 Y-243.113
X270.634 Y-234.979
X270.781 Y-234.833
G3 X270.875 Y-234.597 Z-2.285 I-0.223 J0.226
G1 X270.878 Y-234.36 Z-2.19
X270.88 Y-234.112
X270.886 Y-233.531
G3 X270.251 Y-233.525 I-0.317 J0.003
X270.44 Y-233.818 I0.317 J-0.003
X271.38 Y-234.165 I3.269 J7.417
G1 X271.619 Y-234.233
X272.105 Y-234.346 Z-2.39
X272.251 Y-234.371
X272.396 Y-234.401
X280.423 Y-236.246
X280.569 Y-236.279
X288.45 Y-237.941
X288.742 Y-238.001
X288.956 Y-238.044
X296.703 Y-239.532
G3 X296.984 Y-239.003 I0.049 J0.314
G1 X296.936 Y-238.951 Z-2.382
X296.891 Y-238.902 Z-2.359
X296.85 Y-238.858 Z-2.321
X296.816 Y-238.821 Z-2.27
X296.79 Y-238.793 Z-2.21
X296.774 Y-238.776 Z-2.143
X296.769 Y-238.77 Z-2.072
G0 Z2.51
X258.525 Y-284.834
Z-1.755
G1 Z-2.072 F1000.
X258.517 Y-284.835 Z-2.143
X258.494 Y-284.839 Z-2.21
X258.457 Y-284.846 Z-2.27
X258.407 Y-284.855 Z-2.321
X258.348 Y-284.866 Z-2.359
X258.282 Y-284.878 Z-2.382
X258.213 Y-284.891 Z-2.39
G3 X256.627 Y-285.624 I0.637 J-3.461
G1 X252.987 Y-288.807
G3 X252.878 Y-289.037 Z-2.285 I0.209 J-0.239
G1 X252.871 Y-289.095 Z-2.261
X252.853 Y-289.152 Z-2.238
X252.825 Y-289.203 Z-2.214
X252.788 Y-289.249 Z-2.19
Y-289.25
X252.615 Y-289.428
X249.6 Y-292.532
X249.547 Y-292.575
X249.486 Y-292.607
X249.42 Y-292.624
G3 X248.449 Y-292.92 I0.53 J-3.479
G1 X248.229 Y-293.034
G3 X247.812 Y-293.307 Z-2.39 I1.721 J-3.069
G1 X239.122 Y-300.444
X239.038 Y-300.51
X235.819 Y-302.992
G3 X235.267 Y-305.053 I1.249 J-1.439
X235.57 Y-305.608 I1.801 J0.622 F900.
G1 X235.706 Y-305.613 F1000.
G3 X236.009 Y-305.343 Z-2.213 I-0.011 J0.317
G1 X236.018 Y-305.285 Z-2.19
X236.055 Y-305.039
X236.318 Y-303.3
Y-303.297
X236.322 Y-303.236
X236.313 Y-303.175
X236.293 Y-303.117
X236.262 Y-303.065
G3 X235.819 Y-302.992 Z-2.39 I-0.258 J-0.185
G1 X234.598 Y-303.933
G3 X234.032 Y-304.801 I0.989 J-1.264
X233.999 Y-305.431 I1.555 J-0.396 F900.
G1 X234.079 Y-305.526 F1000.
X234.18 Y-305.59
X234.297 Y-305.613
G3 X234.575 Y-305.426 Z-2.248 I-0.011 J0.317
G1 X234.635 Y-305.293 Z-2.19
X234.737 Y-305.067
X235.073 Y-304.321
G3 X235.041 Y-304.006 I-0.289 J0.13
X234.598 Y-303.933 Z-2.39 I-0.258 J-0.185
G1 X233.431 Y-304.833
X233.316 Y-304.93 F900.
X233.23 Y-305.052
X233.163 Y-305.187
X233.159 Y-305.2
X233.149 Y-305.347
X233.206 Y-305.483
X233.318 Y-305.578
X233.462 Y-305.613 F1000.
X233.695 Y-305.604 Z-2.296
G3 X233.94 Y-305.514 Z-2.19 I-0.017 J0.425
X233.901 Y-304.816 I-0.262 J0.336
X233.431 Y-304.833 Z-2.39 I-0.222 J-0.363
G1 X233.169 Y-305.035
X233.139 Y-305.064
X233.115 Y-305.093
X233.097 Y-305.122
X233.083 Y-305.152
X233.072 Y-305.181
X233.063 Y-305.217
X233.058 Y-305.254
X233.057 Y-305.29
X233.061 Y-305.327
X233.069 Y-305.363
X233.082 Y-305.4
X233.1 Y-305.436
X233.123 Y-305.473
X233.139 Y-305.493
X233.175 Y-305.532
X233.212 Y-305.56
X233.248 Y-305.581
X233.285 Y-305.596
X233.321 Y-305.606
X233.358 Y-305.611
X233.431 Y-305.613
X291.369
G3 X291.545 Y-305.039 I-0.011 J0.317
G1 X291.488 Y-304.997 Z-2.382
X291.434 Y-304.958 Z-2.359
X291.386 Y-304.922 Z-2.321
X291.345 Y-304.892 Z-2.27
X291.315 Y-304.87 Z-2.21
X291.296 Y-304.856 Z-2.143
X291.289 Y-304.851 Z-2.072
G0 Z2.51
X311.165 Y-304.958
Z-1.755
G1 Z-2.072 F1000.
X311.172 Y-304.962 Z-2.143
X311.192 Y-304.974 Z-2.21
X311.225 Y-304.994 Z-2.27
X311.268 Y-305.019 Z-2.321
X311.32 Y-305.05 Z-2.359
X311.377 Y-305.084 Z-2.382
X311.438 Y-305.12 Z-2.39
G3 X313.114 Y-305.613 I1.798 J3.024
G1 X314.135
X314.172 Y-305.611
X314.208 Y-305.606
X314.245 Y-305.597
X314.281 Y-305.583
X314.316 Y-305.565
X314.35 Y-305.54
X314.427 Y-305.464
X315.275 Y-304.597
G3 X315.365 Y-304.359 Z-2.285 I-0.227 J0.222
G1 X315.359 Y-304.308 Z-2.264
X315.344 Y-304.259 Z-2.244
X315.321 Y-304.213 Z-2.223
X315.279 Y-304.142 Z-2.19
X315.152 Y-303.928
X315.085 Y-303.815
G3 X314.539 Y-304.138 I-0.273 J-0.162
X314.894 Y-304.283 I0.273 J0.162
X315.826 Y-303.884 I-0.905 J3.4
G1 X316.033 Y-303.747
G3 X316.417 Y-303.429 Z-2.39 I-2.045 J2.864
G1 X317.415 Y-302.408
X317.557 Y-302.262
X319.992 Y-299.635
G3 X319.975 Y-299.186 Z-2.19 I-0.233 J0.216
X319.512 Y-299.22 I-0.216 J-0.233
X319.734 Y-299.398 I0.111 J-0.089
X319.751 Y-299.247 I-0.111 J0.089
X319.179 Y-299.524 I-0.286 J-0.138
X319.637 Y-299.652 I0.286 J0.138
X320.444 Y-299.058 I-4.392 J6.813
G1 X320.632 Y-298.896
X320.994 Y-298.553 Z-2.39
X325.267 Y-293.943
X325.534 Y-293.651
X325.665 Y-293.505
X333.107 Y-285.03
X333.35 Y-284.748
X340.696 Y-275.916
X341.102 Y-275.407
X347.997 Y-266.65
X348.326 Y-266.212
X354.852 Y-257.451
X355.169 Y-257.017
X355.478 Y-256.58
X361.128 Y-248.554
G3 X360.761 Y-248.08 I-0.266 J0.174
G1 X360.694 Y-248.102 Z-2.382
X360.63 Y-248.124 Z-2.359
X360.573 Y-248.143 Z-2.321
X360.526 Y-248.159 Z-2.27
X360.49 Y-248.171 Z-2.21
X360.467 Y-248.178 Z-2.143
X360.46 Y-248.181 Z-2.072
G0 Z2.51
X365.583 Y-246.891
Z-1.755
G1 Z-2.072 F1000.
X365.582 Y-246.899 Z-2.143
X365.581 Y-246.923 Z-2.21
X365.578 Y-246.96 Z-2.27
X365.575 Y-247.011 Z-2.321
X365.571 Y-247.071 Z-2.359
X365.566 Y-247.138 Z-2.382
X365.562 Y-247.208 Z-2.39
G3 X365.884 Y-248.925 I3.511 J-0.23
G1 X369.738 Y-256.494
G3 X370.165 Y-256.633 Z-2.19 I0.283 J0.144
G1 X370.169 Y-256.631
X370.385 Y-256.517
X370.593 Y-256.408
G3 X370.298 Y-255.846 I-0.148 J0.281
X370.129 Y-256.098 I0.148 J-0.281
X370.185 Y-257.111 I3.504 J-0.316
G1 X370.242 Y-257.353
G3 X370.409 Y-257.822 Z-2.39 I3.391 J0.938
G1 X374.957 Y-267.38
G3 X375.55 Y-267.293 I0.282 J0.146
G1 X375.563 Y-267.224 Z-2.382
X375.576 Y-267.158 Z-2.359
X375.587 Y-267.099 Z-2.321
X375.597 Y-267.049 Z-2.27
X375.604 Y-267.012 Z-2.21
X375.608 Y-266.989 Z-2.143
X375.61 Y-266.981 Z-2.072
G0 Z2.51
X384.454 Y-287.919
Z-1.755
G1 Z-2.072 F1000.
X384.453 Y-287.927 Z-2.143
X384.449 Y-287.95 Z-2.21
X384.442 Y-287.987 Z-2.27
X384.433 Y-288.037 Z-2.321
X384.423 Y-288.096 Z-2.359
X384.411 Y-288.162 Z-2.382
X384.399 Y-288.232 Z-2.39
G3 X384.535 Y-289.973 I3.466 J-0.606
G1 X385.49 Y-292.483
G3 X385.668 Y-292.665 Z-2.285 I0.297 J0.113
G1 X385.72 Y-292.692 Z-2.261
X385.767 Y-292.728 Z-2.237
X385.806 Y-292.773 Z-2.214
X385.836 Y-292.823 Z-2.19
X385.941 Y-293.048
X387.909 Y-297.255
X387.93 Y-297.319
X387.938 Y-297.386
X387.932 Y-297.453
G3 X387.876 Y-298.466 I3.449 J-0.699
G1 X387.907 Y-298.712
G3 X388.021 Y-299.197 Z-2.39 I3.474 J0.56
G1 X390.17 Y-305.34
X390.194 Y-305.406
X390.21 Y-305.44
X390.231 Y-305.473
X390.265 Y-305.515
X390.291 Y-305.539
X390.316 Y-305.558
X390.352 Y-305.579
X390.389 Y-305.594
X390.425 Y-305.605
X390.462 Y-305.611
X390.608 Y-305.613
X446.357
G3 X446.67 Y-305.583 I0.041 J1.248
X447.229 Y-305.296 I-0.272 J1.218 F900.
G1 X447.269 Y-305.162 F1000.
X447.258 Y-305.027
G3 X446.873 Y-304.826 Z-2.198 I-0.3 J-0.104
G1 X446.854 Y-304.831 Z-2.19
X446.614 Y-304.897
X446.283 Y-304.989
G3 X446.05 Y-305.284 I0.085 J-0.306
X446.357 Y-305.613 Z-2.39 I0.317 J-0.011
X447.086 Y-305.597 I0.326 J1.878
G1 X447.123 Y-305.583
X447.159 Y-305.563
X447.196 Y-305.537
X447.232 Y-305.505
X447.26 Y-305.473
X447.283 Y-305.436
X447.301 Y-305.4
X447.312 Y-305.363
X447.32 Y-305.327
X447.322 Y-305.29
X447.321 Y-305.254
X447.315 Y-305.217
X447.306 Y-305.181
X444.366 Y-295.694
X444.313 Y-295.531
X444.122 Y-294.964
X440.195 Y-283.434
X440.038 Y-282.996
X435.697 Y-271.32
X435.585 Y-271.029
X435.232 Y-270.153
G3 X435.05 Y-269.975 Z-2.285 I-0.294 J-0.119
G1 X434.997 Y-269.949 Z-2.261
X434.95 Y-269.914 Z-2.237
X434.91 Y-269.87 Z-2.214
X434.879 Y-269.82 Z-2.19
X434.874 Y-269.81
X434.775 Y-269.594
X434.378 Y-268.728
X434.362 Y-268.684
X434.352 Y-268.638
G3 X434.158 Y-267.655 I-8.034 J-1.075
G1 X434.092 Y-267.415
X433.936 Y-266.942 Z-2.39
X430.813 Y-259.207
X430.741 Y-259.035
X428.114 Y-253.014
G3 X427.518 Y-253.082 I-0.286 J-0.137
G1 X427.503 Y-253.151 Z-2.382
X427.488 Y-253.216 Z-2.359
X427.475 Y-253.275 Z-2.321
X427.464 Y-253.324 Z-2.27
X427.455 Y-253.361 Z-2.21
X427.45 Y-253.384 Z-2.143
X427.448 Y-253.391 Z-2.072
G0 Z2.51
X424.887 Y-244.855
Z-1.755
G1 Z-2.072 F1000.
X424.895 Y-244.856 Z-2.143
X424.918 Y-244.859 Z-2.21
X424.955 Y-244.864 Z-2.27
X425.005 Y-244.871 Z-2.321
X425.065 Y-244.88 Z-2.359
X425.131 Y-244.889 Z-2.382
X425.201 Y-244.899 Z-2.39
G3 X426.947 Y-244.951 I1.117 J8.028
G1 X439.935 Y-243.483
X440.081 Y-243.467
X440.258 Y-243.444
X453.216 Y-241.603
X453.362 Y-241.581
X453.654 Y-241.533
X464.799 Y-239.623
X465.329 Y-239.532 F900.
X465.375 Y-239.521
X465.422 Y-239.503
X465.448 Y-239.489
X465.475 Y-239.471
X465.504 Y-239.447
X465.533 Y-239.414
X465.572 Y-239.358
X465.59 Y-239.321
X465.602 Y-239.285
X465.609 Y-239.248 F1000.
X465.612 Y-239.212
X465.613 Y-184.772
Y-184.692
Y-184.656
X465.605 Y-184.506 F900.
X465.552 Y-184.337
X465.519 Y-184.266
X465.433 Y-184.155
X465.308 Y-184.092
X465.168 Y-184.089 F1000.
G3 X464.824 Y-184.255 Z-2.235 I0.208 J-0.87
G1 X464.782 Y-184.292 Z-2.213
X464.744 Y-184.334 Z-2.19
G3 X465.365 Y-185.064 I0.381 J-0.304
G1 X465.399 Y-185.043 Z-2.206
G3 X465.613 Y-184.656 Z-2.39 I-0.274 J0.404
G1 Y-184.407
X465.611 Y-184.371
X465.606 Y-184.334
X465.596 Y-184.298
X465.581 Y-184.261
X465.56 Y-184.225
X465.531 Y-184.189
X465.503 Y-184.159
X465.475 Y-184.135
X465.438 Y-184.112
X465.402 Y-184.094
X465.365 Y-184.082
X465.329 Y-184.075
X465.292 Y-184.072
X465.256 Y-184.073
X465.183 Y-184.086
X457.156 Y-185.707
X456.864 Y-185.762
X456.572 Y-185.816
X445.335 Y-187.747
X445.043 Y-187.795
X444.897 Y-187.818
X433.368 Y-189.455
X433.222 Y-189.475
X432.784 Y-189.528
X421.255 Y-190.824
X421.109 Y-190.838
X418.581 Y-191.048
G3 X418.452 Y-191.634 I0.037 J-0.315
G1 X418.513 Y-191.671 Z-2.382
X418.57 Y-191.706 Z-2.359
X418.621 Y-191.738 Z-2.321
X418.664 Y-191.764 Z-2.27
X418.696 Y-191.784 Z-2.21
X418.716 Y-191.796 Z-2.143
X418.723 Y-191.8 Z-2.072
G0 Z2.51
X410.641 Y-192.405
Z-1.755
G1 Z-2.072 F1000.
X410.634 Y-192.401 Z-2.143
X410.613 Y-192.39 Z-2.21
X410.579 Y-192.372 Z-2.27
X410.535 Y-192.349 Z-2.321
X410.482 Y-192.321 Z-2.359
X410.422 Y-192.29 Z-2.382
X410.36 Y-192.257 Z-2.39
G3 X408.66 Y-191.856 I-1.633 J-3.117
G1 X402.283 Y-192.198
G3 X402.056 Y-192.313 Z-2.285 I0.017 J-0.317
G1 X402.005 Y-192.362 Z-2.257
X401.945 Y-192.398 Z-2.228
X401.878 Y-192.42 Z-2.2
X401.853 Y-192.426 Z-2.19
X401.611 Y-192.478
X398.956 Y-193.05
X398.895 Y-193.057
X398.833 Y-193.052
X398.774 Y-193.035
X398.719 Y-193.007
G3 X397.793 Y-192.593 I-1.886 J-2.971
G1 X397.552 Y-192.533
G3 X397.059 Y-192.467 Z-2.39 I-0.719 J-3.445
G2 X395.646 Y-191.482 I0.089 J1.633
G1 X395.457 Y-191.194
G3 X395.248 Y-191.049 Z-2.285 I-0.271 J-0.166
G1 X395.189 Y-191.043 Z-2.261
X395.131 Y-191.048 Z-2.237
X395.074 Y-191.063 Z-2.214
X395.021 Y-191.089 Z-2.19
G3 X395.352 Y-191.631 I0.166 J-0.271
X395.407 Y-191.132 I-0.166 J0.271
G1 X394.496 Y-190.253
G3 X394.055 Y-190.71 I-0.22 J-0.229
X394.522 Y-190.682 I0.22 J0.229
X395.105 Y-189.867 I-6.287 J5.116
G1 X395.233 Y-189.654
X395.471 Y-189.216 Z-2.39
X400.619 Y-178.059
X400.752 Y-177.767
X400.823 Y-177.608
X405.85 Y-165.799
X405.911 Y-165.653
X410.533 Y-153.831
X410.698 Y-153.393
X410.752 Y-153.247
X414.919 Y-141.571
X415.073 Y-141.133
X419.041 Y-128.874
X419.172 Y-128.436
X422.697 Y-116.322
X422.852 Y-115.738
X424.628 Y-108.878
X424.636 Y-108.839 Z-2.374
X424.638 Y-108.799 Z-2.358
X424.633 Y-108.739 Z-2.333
X424.616 Y-108.681 Z-2.309
X424.588 Y-108.627 Z-2.285
X424.461 Y-108.428 Z-2.19
X424.327 Y-108.218
X424.26 Y-108.113
G3 X423.725 Y-108.455 I-0.268 J-0.171
X424.216 Y-108.509 I0.268 J0.171
X424.826 Y-107.699 I-2.477 J2.499
G1 X424.937 Y-107.477
G3 X425.112 Y-107.011 Z-2.39 I-3.198 J1.467
G1 X425.951 Y-103.77
X425.988 Y-103.624
X426.09 Y-103.186
X428.845 Y-91.073
X428.876 Y-90.927
X428.967 Y-90.489
X431.344 Y-78.375
X431.427 Y-77.937
X431.452 Y-77.791
X432.08 Y-73.996
G3 X432.018 Y-73.75 Z-2.285 I-0.313 J0.052
G1 X431.993 Y-73.713 Z-2.267
X431.973 Y-73.673 Z-2.249
X431.919 Y-73.536 Z-2.19
X431.827 Y-73.305
X431.735 Y-73.074
G2 X431.787 Y-72.752 I0.295 J0.117
G3 X432.322 Y-71.89 I-2.69 J2.268
G1 X432.414 Y-71.659
G3 X432.546 Y-71.179 Z-2.39 I-3.317 J1.175
G1 X433.529 Y-65.24
X433.592 Y-64.802
X434.223 Y-60.131
X435.247 Y-52.542
X435.304 Y-52.104
X435.35 Y-51.666
X436.634 Y-39.406
X436.674 Y-38.969
X436.772 Y-37.655
X437.622 Y-26.271
X437.646 Y-25.833
X438.214 Y-13.135
X438.225 Y-12.552
X438.412 Y0.
X438.223 Y12.698
X438.214 Y13.135
X437.646 Y25.833
X437.622 Y26.271
X437.524 Y27.584
G3 X437.184 Y27.877 Z-2.19 I-0.317 J-0.024
G1 X437.123 Y27.867
X437.065 Y27.845
X437.013 Y27.812
X436.968 Y27.769
X436.951 Y27.748
X436.544 Y27.189
G3 X436.636 Y26.73 I0.257 J-0.187
X437.085 Y26.86 I0.165 J0.271
X437.401 Y27.824 I-3.15 J1.568
G1 X437.435 Y28.07
G3 X437.451 Y28.568 Z-2.39 I-3.5 J0.358
G1 X436.685 Y38.823
X436.674 Y38.969
X436.634 Y39.406
X435.32 Y51.958
X435.304 Y52.104
X435.227 Y52.688
X433.612 Y64.656
X433.55 Y65.094
X433.529 Y65.24
X431.452 Y77.791
X431.427 Y77.937
X431.344 Y78.375
X428.967 Y90.489
X428.876 Y90.927
X428.844 Y91.077
X426.09 Y103.186
X425.988 Y103.624
X425.925 Y103.871
X422.814 Y115.884
X422.697 Y116.322
X419.172 Y128.436
X419.041 Y128.874
X415.073 Y141.133
X414.867 Y141.717
X410.747 Y153.26
X410.698 Y153.393
X410.533 Y153.831
X405.911 Y165.653
X405.602 Y166.383
X400.818 Y177.621
X400.678 Y177.93
X400.35 Y178.642
X395.424 Y189.32
X395.308 Y189.589
G3 X395.123 Y189.763 Z-2.285 I-0.292 J-0.125
G1 X395.066 Y189.777 Z-2.261
X395.007 Y189.781 Z-2.237
X394.948 Y189.774 Z-2.214
X394.892 Y189.756 Z-2.19
G3 X395.141 Y189.172 I0.125 J-0.292
X395.209 Y189.716 I-0.125 J0.292
G1 X394.805 Y190.025
G3 X394.42 Y189.52 I-0.193 J-0.252
X394.87 Y189.587 I0.193 J0.252
G1 X394.897 Y189.625
X394.963 Y189.731
X395.02 Y189.841
G3 X395.156 Y190.318 Z-2.39 I-1.434 J0.67
G2 X395.799 Y191.702 I2.32 J-0.236
G1 X395.828 Y191.764
X395.845 Y191.83
X395.847 Y191.898
X395.836 Y191.964
X395.811 Y192.027
X395.774 Y192.083
X395.727 Y192.13
X395.671 Y192.166
X395.609 Y192.19
X395.543 Y192.201
X395.477 Y192.197
X395.414 Y192.181
X395.347 Y192.157 Z-2.382
X395.284 Y192.135 Z-2.359
X395.227 Y192.115 Z-2.321
X395.18 Y192.098 Z-2.27
X395.144 Y192.086 Z-2.21
X395.122 Y192.078 Z-2.143
X395.114 Y192.075 Z-2.072
G0 Z2.51
X419.582 Y191.671
Z-1.755
G1 Z-2.072 F1000.
X419.588 Y191.666 Z-2.143
X419.607 Y191.652 Z-2.21
X419.637 Y191.629 Z-2.27
X419.677 Y191.598 Z-2.321
X419.725 Y191.562 Z-2.359
X419.779 Y191.522 Z-2.382
X419.835 Y191.479 Z-2.39
G3 X421.445 Y190.803 I2.125 J2.805
G1 X432.784 Y189.528
X433.222 Y189.475
X433.368 Y189.455
X444.897 Y187.818
X445.043 Y187.795
X445.627 Y187.697
X456.572 Y185.816
X457.01 Y185.735
X457.156 Y185.707
X464.891 Y184.145
X464.935 Y184.136
X464.966 Y184.13
X465.114 Y184.107 F900.
X465.336 Y184.126
X465.363 Y184.132
X465.491 Y184.193
X465.581 Y184.303
X465.613 Y184.442 F1000.
G3 X465.52 Y184.818 Z-2.234 I-0.939 J-0.033
G1 X465.493 Y184.865 Z-2.212
X465.462 Y184.909 Z-2.19
G3 X464.615 Y184.453 I-0.383 J-0.304
G1 X464.627 Y184.421 Z-2.204
G3 X464.966 Y184.13 Z-2.39 I0.453 J0.185
G1 X465.183 Y184.086
X465.256 Y184.073
X465.292 Y184.072
X465.329 Y184.075
X465.365 Y184.082
X465.402 Y184.094
X465.438 Y184.112
X465.475 Y184.135
X465.503 Y184.159
X465.531 Y184.189
X465.56 Y184.225
X465.581 Y184.261
X465.596 Y184.298
X465.606 Y184.334
X465.611 Y184.371
X465.613 Y184.407
X465.612 Y238.65
Y239.212 F900.
X465.609 Y239.248
X465.602 Y239.285
X465.59 Y239.321
X465.572 Y239.358
X465.533 Y239.414
X465.504 Y239.447
X465.475 Y239.471
X465.448 Y239.489
X465.422 Y239.503
X465.375 Y239.521 F1000.
X465.329 Y239.532
X453.508 Y241.557
X453.362 Y241.581
X453.07 Y241.624
X440.227 Y243.449
X440.081 Y243.467
X439.206 Y243.566
X434.39 Y244.11
G3 X434.15 Y243.561 I-0.025 J-0.317
G1 X434.202 Y243.513 Z-2.382
X434.251 Y243.467 Z-2.359
X434.295 Y243.426 Z-2.321
X434.332 Y243.392 Z-2.27
X434.36 Y243.367 Z-2.21
X434.377 Y243.351 Z-2.143
X434.383 Y243.345 Z-2.072
G0 Z2.51
X425.934 Y249.655
Z-1.755
G1 Z-2.072 F1000.
X425.941 Y249.66 Z-2.143
X425.96 Y249.674 Z-2.21
X425.991 Y249.696 Z-2.27
X426.031 Y249.725 Z-2.321
X426.08 Y249.76 Z-2.359
X426.135 Y249.799 Z-2.382
X426.192 Y249.841 Z-2.39
G3 X427.313 Y251.179 I-2.053 J2.858
G1 X430.741 Y259.035
X430.813 Y259.207
X431.179 Y260.114
G3 X431.172 Y260.368 Z-2.285 I-0.294 J0.119
G1 X431.142 Y260.419 Z-2.261
X431.103 Y260.464 Z-2.237
X431.056 Y260.5 Z-2.214
X431.004 Y260.527 Z-2.19
G3 X430.765 Y259.939 I-0.119 J-0.294
X431.2 Y260.269 I0.119 J0.294
G1 X431.094 Y261.202
G3 X430.463 Y261.13 I-0.315 J-0.036
X430.971 Y260.913 I0.315 J0.036
X431.681 Y261.638 I-2.131 J2.8
G1 X431.82 Y261.843
G3 X432.055 Y262.283 Z-2.39 I-2.981 J1.87
G1 X435.585 Y271.029
X435.703 Y271.337
X440.038 Y282.996
X440.195 Y283.434
X444.172 Y295.11
X444.319 Y295.548
X444.366 Y295.694
X447.125 Y304.597
G3 X447.201 Y304.998 I-0.942 J0.388
X447.002 Y305.59 I-1.019 J-0.013 F900.
G1 X446.84 Y305.613 F1000.
G3 X446.534 Y305.309 Z-2.2 I0.011 J-0.317
G1 X446.533 Y305.284 Z-2.19
X446.522 Y305.036
X446.508 Y304.716
G3 X446.721 Y304.402 I0.317 J-0.014
X447.125 Y304.597 Z-2.39 I0.104 J0.3
X447.322 Y305.29 I-1.582 J0.826
G1 X447.32 Y305.327
X447.312 Y305.363
X447.301 Y305.4
X447.283 Y305.436
X447.26 Y305.473
X447.232 Y305.505
X447.196 Y305.537
X447.159 Y305.563
X447.123 Y305.583
X447.086 Y305.597
X447.05 Y305.607
X447.013 Y305.612
X446.94 Y305.613
X439.417
G3 X439.24 Y305.039 I0.011 J-0.317
G1 X439.297 Y304.997 Z-2.382
X439.352 Y304.958 Z-2.359
X439.4 Y304.922 Z-2.321
X439.441 Y304.892 Z-2.27
X439.471 Y304.87 Z-2.21
X439.49 Y304.856 Z-2.143
X439.496 Y304.851 Z-2.072
G0 Z2.51
X-366.878 Y-115.632
Z-1.755
G1 Z-2.072 F1000.
X-366.876 Y-115.625 Z-2.143
X-366.87 Y-115.602 Z-2.21
X-366.861 Y-115.565 Z-2.27
X-366.849 Y-115.516 Z-2.321
X-366.834 Y-115.458 Z-2.359
X-366.817 Y-115.393 Z-2.382
X-366.799 Y-115.325 Z-2.39
G3 Y-113.578 I-3.409 J0.874
G1 X-370.03 Y-102.571
X-370.176 Y-102.045
X-373.06 Y-90.927
X-373.171 Y-90.489
X-373.206 Y-90.343
X-375.809 Y-78.813
X-375.841 Y-78.667
X-375.928 Y-78.229
X-378.093 Y-66.991
X-378.121 Y-66.845
G3 X-378.264 Y-66.635 Z-2.285 I-0.312 J-0.058
G1 X-378.311 Y-66.599 Z-2.261
X-378.35 Y-66.555 Z-2.237
X-378.381 Y-66.504 Z-2.214
X-378.401 Y-66.449 Z-2.19
X-378.406 Y-66.428
X-378.451 Y-66.205
X-378.656 Y-65.18
X-378.661 Y-65.134
Y-65.088
G3 X-378.63 Y-64.086 I-8.071 J0.746
G1 X-378.642 Y-63.838
X-378.688 Y-63.342 Z-2.39
X-380.042 Y-54.877
X-380.106 Y-54.439
X-381.596 Y-42.763
X-381.644 Y-42.325
X-381.705 Y-41.687
X-382.09 Y-37.655
G3 X-382.678 Y-37.534 I-0.315 J-0.041
G1 X-382.714 Y-37.594 Z-2.382
X-382.748 Y-37.652 Z-2.359
X-382.779 Y-37.704 Z-2.321
X-382.805 Y-37.747 Z-2.27
X-382.824 Y-37.779 Z-2.21
X-382.836 Y-37.799 Z-2.143
X-382.84 Y-37.806 Z-2.072
G0 Z2.51
X-382.491 Y40.913
Z-1.755
G1 Z-2.072 F1000.
X-382.486 Y40.92 Z-2.143
X-382.472 Y40.938 Z-2.21
X-382.449 Y40.968 Z-2.27
X-382.418 Y41.008 Z-2.321
X-382.381 Y41.055 Z-2.359
X-382.339 Y41.108 Z-2.382
X-382.296 Y41.164 Z-2.39
G3 X-381.596 Y42.763 I-2.773 J2.167
G1 X-380.106 Y54.439
X-380.042 Y54.877
X-378.175 Y66.553
X-378.093 Y66.991
X-375.928 Y78.229
X-375.841 Y78.667
X-375.809 Y78.813
X-373.206 Y90.343
X-373.171 Y90.489
X-373.06 Y90.927
X-370.176 Y102.045
X-370.03 Y102.571
X-366.765 Y113.695
X-366.63 Y114.133
X-366.583 Y114.279
X-365.673 Y117.052
G3 X-366.162 Y117.398 I-0.305 J0.088
G1 X-366.22 Y117.357 Z-2.382
X-366.274 Y117.318 Z-2.359
X-366.323 Y117.283 Z-2.321
X-366.364 Y117.254 Z-2.27
X-366.395 Y117.232 Z-2.21
X-366.414 Y117.218 Z-2.143
X-366.421 Y117.214 Z-2.072
G0 Z2.51
X-353.881 Y135.978
Z-1.755
G1 Z-2.072 F1000.
X-353.88 Y135.97 Z-2.143
X-353.876 Y135.947 Z-2.21
X-353.869 Y135.91 Z-2.27
X-353.86 Y135.86 Z-2.321
X-353.85 Y135.801 Z-2.359
X-353.838 Y135.735 Z-2.382
X-353.826 Y135.665 Z-2.39
G3 X-353.101 Y134.076 I3.464 J0.619
G1 X-350.619 Y131.209
X-350.474 Y131.043
X-344.859 Y124.787
X-340.649 Y120.263
G3 X-340.415 Y120.161 Z-2.285 I0.232 J0.216
G1 X-340.36 Y120.157 Z-2.263
X-340.307 Y120.143 Z-2.241
X-340.188 Y120.1 Z-2.19
X-339.954 Y120.016
X-338.323 Y119.43
G2 X-338.142 Y118.998 I-0.107 J-0.299
G3 X-338.507 Y118.064 I7.353 J-3.411
G1 X-338.579 Y117.827
X-338.702 Y117.344 Z-2.39
X-338.729 Y117.198
X-338.799 Y116.936
X-342.339 Y106.105
X-342.48 Y105.668
X-342.524 Y105.522
X-345.746 Y94.429
X-345.863 Y93.992
X-346.013 Y93.408
X-348.727 Y82.753
X-348.869 Y82.117
X-351.293 Y71.078
X-351.456 Y70.202
X-352.212 Y66.115
G3 X-351.958 Y65.745 Z-2.19 I0.312 J-0.058
X-351.621 Y66.208 I0.058 J0.312
G1 X-351.649 Y66.248
X-351.686 Y66.28
X-351.729 Y66.302
X-351.777 Y66.312
G3 X-352.096 Y66.13 I-0.031 J-0.316
G1 X-352.113 Y66.093
X-352.207 Y65.863
G3 X-352.347 Y65.385 Z-2.39 I3.419 J-1.266
G1 X-353.454 Y59.402
X-353.545 Y58.818
X-355.217 Y47.726
X-355.274 Y47.288
X-355.309 Y46.996
X-356.02 Y40.916
X-356.589 Y36.05
X-356.635 Y35.612
X-356.649 Y35.466
X-357.61 Y23.936
X-357.62 Y23.79
X-357.665 Y22.914
X-358.197 Y12.26
X-358.203 Y12.114
X-358.218 Y11.676
X-358.412 Y0.
X-358.218 Y-11.676
X-358.203 Y-12.114
X-358.19 Y-12.406
X-357.636 Y-23.498
X-357.62 Y-23.79
X-357.61 Y-23.936
X-357.525 Y-24.957
G3 X-357.404 Y-25.181 Z-2.285 I0.316 J0.026
G1 X-357.361 Y-25.222 Z-2.261
X-357.326 Y-25.27 Z-2.237
X-357.301 Y-25.323 Z-2.214
X-357.286 Y-25.38 Z-2.19
X-357.285 Y-25.388
X-357.252 Y-25.626
X-356.457 Y-31.312
X-356.455 Y-31.375
X-356.465 Y-31.436
X-356.487 Y-31.495
G3 X-356.795 Y-32.461 I3.163 J-1.541
G1 X-356.827 Y-32.708
G3 X-356.838 Y-33.206 Z-2.39 I3.503 J-0.328
G1 X-356.649 Y-35.466
X-356.635 Y-35.612
X-356.589 Y-36.05
X-355.29 Y-47.157
X-355.237 Y-47.58
X-355.217 Y-47.726
X-353.523 Y-58.964
X-353.454 Y-59.402
X-351.348 Y-70.786
X-351.293 Y-71.078
X-348.825 Y-82.316
X-348.723 Y-82.769
X-345.901 Y-93.846
X-345.863 Y-93.992
X-345.746 Y-94.429
X-342.524 Y-105.522
X-342.48 Y-105.668
X-342.291 Y-106.251
X-338.808 Y-116.906
G3 X-338.408 Y-117.109 Z-2.19 I0.302 J0.099
X-338.605 Y-116.505 I-0.098 J0.302
X-338.738 Y-117.024 I0.098 J-0.302
G1 X-337.855 Y-117.964
G3 X-337.392 Y-117.53 I0.231 J0.217
X-337.803 Y-117.485 I-0.231 J-0.217
X-338.593 Y-118.102 I4.585 J-6.684
G1 X-338.776 Y-118.27
X-339.128 Y-118.622 Z-2.39
X-339.237 Y-118.746
X-344.859 Y-124.787
X-350.474 Y-131.043
X-350.62 Y-131.21
X-353.685 Y-134.751
G3 X-353.367 Y-135.26 I0.247 J-0.199
G1 X-353.298 Y-135.244 Z-2.382
X-353.233 Y-135.229 Z-2.359
X-353.174 Y-135.216 Z-2.321
X-353.125 Y-135.204 Z-2.27
X-353.088 Y-135.196 Z-2.21
X-353.065 Y-135.191 Z-2.143
X-353.058 Y-135.189 Z-2.072
G0 Z2.51
X-313.174 Y-187.836
Z-1.755
G1 Z-2.072 F1000.
X-313.182 Y-187.833 Z-2.143
X-313.203 Y-187.824 Z-2.21
X-313.238 Y-187.81 Z-2.27
X-313.285 Y-187.791 Z-2.321
X-313.341 Y-187.769 Z-2.359
X-313.403 Y-187.744 Z-2.382
X-313.469 Y-187.718 Z-2.39
G3 X-315.201 Y-187.495 I-1.302 J-3.269
G1 X-318.659 Y-188.043
X-319.097 Y-188.111
X-322.016 Y-188.536
G3 X-322.108 Y-189.129 I0.057 J-0.312
G1 X-322.046 Y-189.162 Z-2.382
X-321.987 Y-189.194 Z-2.359
X-321.933 Y-189.222 Z-2.321
X-321.889 Y-189.245 Z-2.27
X-321.856 Y-189.263 Z-2.21
X-321.835 Y-189.274 Z-2.143
X-321.828 Y-189.278 Z-2.072
G0 Z2.51
X-323.485 Y-182.517
Z-1.755
G1 Z-2.072 F1000.
X-323.478 Y-182.515 Z-2.143
X-323.456 Y-182.507 Z-2.21
X-323.42 Y-182.494 Z-2.27
X-323.373 Y-182.476 Z-2.321
X-323.317 Y-182.455 Z-2.359
X-323.254 Y-182.432 Z-2.382
X-323.188 Y-182.408 Z-2.39
G3 X-321.75 Y-181.415 I-1.218 J3.301
G1 X-319.149 Y-178.205
X-318.659 Y-177.613
X-315.936 Y-174.337
X-315.905 Y-174.292 Z-2.368
X-315.881 Y-174.242 Z-2.346
X-315.867 Y-174.189 Z-2.324
X-315.862 Y-174.135 Z-2.302
X-315.863 Y-174.114 Z-2.293
X-315.865 Y-174.093 Z-2.285
X-315.867 Y-174.034 Z-2.261
X-315.859 Y-173.975 Z-2.237
X-315.839 Y-173.92 Z-2.214
X-315.81 Y-173.868 Z-2.19
X-315.77 Y-173.822
X-315.635 Y-173.693
X-314.395 Y-172.51
G2 X-313.871 Y-172.651 I0.219 J-0.23
G3 X-313.53 Y-173.593 I7.779 J2.278
G1 X-313.428 Y-173.82
X-313.202 Y-174.264 Z-2.39
G3 X-307.898 Y-183.46 I358.965 J200.936
G1 X-307.857 Y-183.511
X-307.807 Y-183.553
X-307.748 Y-183.583
X-307.685 Y-183.601
X-307.62 Y-183.606
X-307.555 Y-183.597
X-307.493 Y-183.575
X-307.438 Y-183.541
X-307.39 Y-183.497
X-307.352 Y-183.443
X-307.326 Y-183.383
X-307.313 Y-183.319
X-307.306 Y-183.249 Z-2.382
X-307.3 Y-183.182 Z-2.359
X-307.294 Y-183.122 Z-2.321
X-307.289 Y-183.072 Z-2.27
X-307.285 Y-183.034 Z-2.21
X-307.283 Y-183.011 Z-2.143
X-307.282 Y-183.003 Z-2.072
G0 Z2.51
X-323.296 Y189.384
Z-1.755
G1 Z-2.072 F1000.
X-323.289 Y189.379 Z-2.143
X-323.271 Y189.364 Z-2.21
X-323.242 Y189.34 Z-2.27
X-323.203 Y189.308 Z-2.321
X-323.156 Y189.271 Z-2.359
X-323.104 Y189.228 Z-2.382
X-323.049 Y189.184 Z-2.39
G3 X-321.462 Y188.455 I2.215 J2.734
G1 X-319.097 Y188.111
X-318.367 Y187.997
X-314.427 Y187.372
G3 X-314.181 Y187.436 Z-2.285 I0.05 J0.314
G1 X-314.131 Y187.468 Z-2.261
X-314.077 Y187.491 Z-2.237
X-314.019 Y187.502 Z-2.214
X-313.96 Y187.503 Z-2.19
X-313.926 Y187.499
X-313.715 Y187.459
X-306.656 Y186.138
G2 X-306.476 Y185.617 I-0.058 J-0.312
G3 X-307.09 Y184.824 I6.088 J-5.351
G1 X-307.227 Y184.617
X-307.481 Y184.189 Z-2.39
G3 X-312.869 Y174.848 I404.936 J-239.786
G1 X-312.893 Y174.786
X-312.903 Y174.72
X-312.9 Y174.653
X-312.883 Y174.588
X-312.852 Y174.529
X-312.81 Y174.477
X-312.758 Y174.435
X-312.707 Y174.418 Z-2.385
X-312.657 Y174.401 Z-2.371
X-312.61 Y174.385 Z-2.348
X-312.586 Y174.384 Z-2.333
X-312.541 Y174.394 Z-2.293
X-312.504 Y174.402 Z-2.245
X-312.477 Y174.407 Z-2.191
X-312.46 Y174.411 Z-2.133
X-312.455 Y174.412 Z-2.073
G0 Z2.51
X-315.739 Y173.077
Z-1.755
G1 Z-2.072 F1000.
X-315.74 Y173.085 Z-2.143
X-315.744 Y173.108 Z-2.21
X-315.75 Y173.146 Z-2.27
X-315.758 Y173.195 Z-2.321
X-315.767 Y173.255 Z-2.359
X-315.778 Y173.321 Z-2.382
X-315.789 Y173.391 Z-2.39
G3 X-316.481 Y174.994 I-3.475 J-0.551
G1 X-318.908 Y177.913
X-319.149 Y178.205
X-321.987 Y181.707
G3 X-322.411 Y181.758 I-0.24 J-0.208
G1 X-322.446 Y181.716 Z-2.385
X-322.48 Y181.676 Z-2.371
X-322.512 Y181.638 Z-2.348
X-322.523 Y181.592 Z-2.314
X-322.532 Y181.553 Z-2.272
X-322.539 Y181.521 Z-2.224
X-322.544 Y181.499 Z-2.17
Y181.488 Z-2.122
Y181.484 Z-2.073
G0 Z2.51
X325.017 Y-189.634
Z-1.755
G1 Z-2.072 F1000.
X325.011 Y-189.629 Z-2.143
X324.993 Y-189.615 Z-2.21
X324.963 Y-189.591 Z-2.27
X324.924 Y-189.559 Z-2.321
X324.878 Y-189.521 Z-2.359
X324.825 Y-189.479 Z-2.382
X324.771 Y-189.435 Z-2.39
G3 X323.184 Y-188.706 I-2.215 J-2.734
G2 X310.288 Y-186.671 I52.524 J374.595
G1 X310.223 Y-186.666 Z-2.364
X310.158 Y-186.675 Z-2.337
X310.097 Y-186.697 Z-2.311
X310.041 Y-186.731 Z-2.285
X309.991 Y-186.762 Z-2.261
X309.936 Y-186.784 Z-2.237
X309.878 Y-186.795 Z-2.214
X309.819 Z-2.19
X309.783 Y-186.79
X309.576 Y-186.746
X306.65 Y-186.137
G2 X306.476 Y-185.617 I0.065 J0.311
G3 X307.09 Y-184.824 I-6.088 J5.351
G1 X307.227 Y-184.617
X307.481 Y-184.189 Z-2.39
G3 X313.113 Y-174.413 I-409.807 J242.627
X313.141 Y-174.16 Z-2.285 I-0.275 J0.157
G1 X313.128 Y-174.103 Z-2.261
X313.127 Y-174.044 Z-2.237
X313.136 Y-173.985 Z-2.214
X313.156 Y-173.93 Z-2.19
G2 X313.377 Y-173.754 I0.287 J-0.135
G1 X315.544 Y-173.292
G2 X315.924 Y-173.553 I0.066 J-0.311
G3 X316.225 Y-174.521 I3.475 J0.551
G1 X316.34 Y-174.741
G3 X316.616 Y-175.156 Z-2.39 I3.059 J1.739
G1 X318.908 Y-177.913
X319.149 Y-178.205
X319.827 Y-179.041
G3 X320.251 Y-179.091 I0.24 J0.208
G1 X320.286 Y-179.05 Z-2.385
X320.32 Y-179.01 Z-2.371
X320.352 Y-178.972 Z-2.348
X320.362 Y-178.926 Z-2.314
X320.372 Y-178.886 Z-2.272
X320.379 Y-178.855 Z-2.224
X320.384 Y-178.833 Z-2.17
Y-178.821 Z-2.122
Y-178.818 Z-2.073
G0 Z2.51
X313.13 Y187.829
Z-1.755
G1 Z-2.072 F1000.
X313.137 Y187.826 Z-2.143
X313.159 Y187.817 Z-2.21
X313.194 Y187.803 Z-2.27
X313.241 Y187.784 Z-2.321
X313.297 Y187.762 Z-2.359
X313.359 Y187.737 Z-2.382
X313.425 Y187.711 Z-2.39
G3 X315.157 Y187.488 I1.302 J3.269
G1 X318.659 Y188.043
X319.097 Y188.111
X322.016 Y188.536
G3 X322.108 Y189.129 I-0.057 J0.312
G1 X322.046 Y189.162 Z-2.382
X321.987 Y189.194 Z-2.359
X321.933 Y189.222 Z-2.321
X321.889 Y189.245 Z-2.27
X321.856 Y189.263 Z-2.21
X321.835 Y189.274 Z-2.143
X321.828 Y189.278 Z-2.072
G0 Z2.51
X323.367 Y182.372
Z-1.755
G1 Z-2.072 F1000.
X323.36 Y182.369 Z-2.143
X323.338 Y182.361 Z-2.21
X323.302 Y182.348 Z-2.27
X323.255 Y182.33 Z-2.321
X323.199 Y182.309 Z-2.359
X323.136 Y182.286 Z-2.382
X323.069 Y182.262 Z-2.39
G3 X321.632 Y181.27 I1.218 J-3.301
G1 X319.149 Y178.205
X318.659 Y177.613
X316.845 Y175.432
X316.814 Y175.386 Z-2.368
X316.791 Y175.337 Z-2.346
X316.777 Y175.283 Z-2.324
X316.772 Y175.229 Z-2.302
X316.773 Y175.208 Z-2.293
X316.775 Y175.187 Z-2.285
X316.777 Y175.128 Z-2.261
X316.768 Y175.07 Z-2.237
X316.749 Y175.014 Z-2.214
X316.719 Y174.963 Z-2.19
X316.69 Y174.927
X316.551 Y174.78
X314.406 Y172.521
G2 X313.871 Y172.651 I-0.23 J0.219
G3 X313.53 Y173.593 I-7.779 J-2.278
G1 X313.428 Y173.82
X313.202 Y174.264 Z-2.39
G3 X307.599 Y183.963 I-364.033 J-203.818
X307.014 Y183.83 I-0.269 J-0.168
G1 X307.007 Y183.76 Z-2.382
X306.999 Y183.693 Z-2.359
X306.993 Y183.633 Z-2.321
X306.987 Y183.583 Z-2.27
X306.983 Y183.546 Z-2.21
X306.98 Y183.523 Z-2.143
Y183.515 Z-2.072
G0 Z2.51
X366.878 Y115.632
Z-1.755
G1 Z-2.072 F1000.
X366.876 Y115.625 Z-2.143
X366.87 Y115.602 Z-2.21
X366.861 Y115.565 Z-2.27
X366.849 Y115.516 Z-2.321
X366.834 Y115.458 Z-2.359
X366.817 Y115.393 Z-2.382
X366.799 Y115.325 Z-2.39
G3 Y113.578 I3.409 J-0.874
G1 X370.03 Y102.571
X370.176 Y102.045
X373.06 Y90.927
X373.171 Y90.489
X373.206 Y90.343
X375.809 Y78.813
X375.841 Y78.667
X375.928 Y78.229
X378.093 Y66.991
X378.121 Y66.845
G3 X378.264 Y66.635 Z-2.285 I0.312 J0.058
G1 X378.311 Y66.599 Z-2.261
X378.35 Y66.555 Z-2.237
X378.381 Y66.504 Z-2.214
X378.401 Y66.449 Z-2.19
X378.406 Y66.428
X378.451 Y66.205
X378.656 Y65.18
X378.661 Y65.134
Y65.088
G3 X378.63 Y64.086 I8.071 J-0.746
G1 X378.642 Y63.838
X378.688 Y63.342 Z-2.39
X380.042 Y54.877
X380.106 Y54.439
X381.596 Y42.763
X381.644 Y42.325
X381.705 Y41.687
X382.09 Y37.655
G3 X382.678 Y37.534 I0.315 J0.041
G1 X382.714 Y37.594 Z-2.382
X382.748 Y37.652 Z-2.359
X382.779 Y37.704 Z-2.321
X382.805 Y37.747 Z-2.27
X382.824 Y37.779 Z-2.21
X382.836 Y37.799 Z-2.143
X382.84 Y37.806 Z-2.072
G0 Z2.51
X382.491 Y-40.913
Z-1.755
G1 Z-2.072 F1000.
X382.486 Y-40.92 Z-2.143
X382.472 Y-40.938 Z-2.21
X382.449 Y-40.968 Z-2.27
X382.418 Y-41.008 Z-2.321
X382.381 Y-41.055 Z-2.359
X382.339 Y-41.108 Z-2.382
X382.296 Y-41.164 Z-2.39
G3 X381.596 Y-42.763 I2.773 J-2.167
G1 X380.106 Y-54.439
X380.042 Y-54.877
X378.175 Y-66.553
X378.093 Y-66.991
X375.928 Y-78.229
X375.841 Y-78.667
X375.809 Y-78.813
X373.206 Y-90.343
X373.171 Y-90.489
X373.06 Y-90.927
X370.176 Y-102.045
X370.03 Y-102.571
X366.765 Y-113.695
X366.63 Y-114.133
X366.583 Y-114.279
X365.673 Y-117.052
G3 X366.162 Y-117.398 I0.305 J-0.088
G1 X366.22 Y-117.357 Z-2.382
X366.274 Y-117.318 Z-2.359
X366.323 Y-117.283 Z-2.321
X366.364 Y-117.254 Z-2.27
X366.395 Y-117.232 Z-2.21
X366.414 Y-117.218 Z-2.143
X366.421 Y-117.214 Z-2.072
G0 Z2.51
X353.421 Y-135.445
Z-1.755
G1 Z-2.072 F1000.
X353.419 Y-135.438 Z-2.143
X353.415 Y-135.414 Z-2.21
X353.409 Y-135.377 Z-2.27
X353.4 Y-135.328 Z-2.321
X353.389 Y-135.269 Z-2.359
X353.377 Y-135.202 Z-2.382
X353.365 Y-135.133 Z-2.39
G3 X352.64 Y-133.544 I-3.464 J-0.619
G1 X350.619 Y-131.209
X350.474 Y-131.043
X344.859 Y-124.787
X340.92 Y-120.554
G3 X340.38 Y-120.816 I-0.225 J-0.224
G1 X340.389 Y-120.886 Z-2.382
X340.396 Y-120.952 Z-2.359
X340.403 Y-121.012 Z-2.321
X340.409 Y-121.062 Z-2.27
X340.414 Y-121.1 Z-2.21
X340.416 Y-121.123 Z-2.143
X340.417 Y-121.131 Z-2.072
G0 Z2.51
X338.628 Y-116.404
Z-1.755
G1 Z-2.072 F1000.
X338.632 Y-116.397 Z-2.143
X338.645 Y-116.378 Z-2.21
X338.665 Y-116.346 Z-2.27
X338.692 Y-116.303 Z-2.321
X338.724 Y-116.252 Z-2.359
X338.76 Y-116.196 Z-2.382
X338.798 Y-116.136 Z-2.39
G3 X339.572 Y-114.571 I-6.839 J4.352
G1 X342.339 Y-106.105
X342.48 Y-105.668
X342.524 Y-105.522
X345.746 Y-94.429
X345.863 Y-93.992
X346.013 Y-93.408
X348.727 Y-82.753
X348.869 Y-82.117
X351.293 Y-71.078
X351.456 Y-70.202
X353.454 Y-59.402
X353.545 Y-58.818
X355.217 Y-47.726
X355.274 Y-47.288
X355.309 Y-46.996
X356.589 Y-36.05
X356.635 Y-35.612
X356.649 Y-35.466
X357.61 Y-23.936
X357.62 Y-23.79
X357.665 Y-22.914
X358.197 Y-12.26
X358.203 Y-12.114
X358.218 Y-11.676
X358.412 Y0.
X358.218 Y11.676
X358.203 Y12.114
X358.19 Y12.406
X357.636 Y23.498
X357.62 Y23.79
X357.61 Y23.936
X357.525 Y24.957
G3 X357.404 Y25.181 Z-2.285 I-0.316 J-0.026
G1 X357.361 Y25.222 Z-2.261
X357.326 Y25.27 Z-2.237
X357.301 Y25.323 Z-2.214
X357.286 Y25.38 Z-2.19
X357.285 Y25.387
X357.251 Y25.626
X356.476 Y31.09
X356.473 Y31.153
X356.483 Y31.215
X356.505 Y31.274
G3 X356.813 Y32.241 I-3.163 J1.541
G1 X356.845 Y32.487
G3 X356.856 Y32.985 Z-2.39 I-3.503 J0.328
G1 X356.649 Y35.466
X356.635 Y35.612
X356.589 Y36.05
X355.29 Y47.157
X355.237 Y47.58
X355.217 Y47.726
X353.523 Y58.964
X353.454 Y59.402
X351.348 Y70.786
X351.293 Y71.078
X348.825 Y82.316
X348.723 Y82.769
X345.901 Y93.846
X345.863 Y93.992
X345.746 Y94.429
X342.524 Y105.522
X342.48 Y105.668
X342.291 Y106.251
X338.808 Y116.906
G3 X338.408 Y117.109 Z-2.19 I-0.302 J-0.099
X338.605 Y116.505 I0.098 J-0.302
X338.738 Y117.024 I-0.098 J0.302
G1 X337.855 Y117.964
G3 X337.392 Y117.53 I-0.231 J-0.217
X337.803 Y117.485 I0.231 J0.217
X338.593 Y118.102 I-4.585 J6.684
G1 X338.776 Y118.27
X339.128 Y118.622 Z-2.39
X339.237 Y118.746
X344.859 Y124.787
X350.474 Y131.043
X350.62 Y131.21
X353.685 Y134.751
G3 X353.66 Y135.177 I-0.247 J0.199
G1 X353.613 Y135.204 Z-2.385
X353.568 Y135.231 Z-2.371
X353.525 Y135.255 Z-2.348
X353.478 Y135.262 Z-2.314
X353.438 Y135.268 Z-2.273
X353.408 Y135.264 Z-2.228
X353.385 Y135.262 Z-2.179
X353.372 Y135.26 Z-2.127
X353.367 Z-2.073
G0 Z2.51
X-304.537 Y-250.405
Z-4.145
G1 Z-4.463 F1000.
X-304.538 Y-250.397 Z-4.533
X-304.541 Y-250.374 Z-4.6
X-304.546 Y-250.336 Z-4.66
X-304.552 Y-250.286 Z-4.711
X-304.56 Y-250.227 Z-4.749
X-304.569 Y-250.16 Z-4.772
X-304.579 Y-250.09 Z-4.78
G3 X-305.233 Y-248.471 I-3.488 J-0.467
G1 X-311.986 Y-239.941
X-312.214 Y-239.649
G3 X-312.438 Y-239.529 Z-4.675 I-0.25 J-0.196
G1 X-312.496 Y-239.518 Z-4.651
X-312.551 Y-239.497 Z-4.627
X-312.602 Y-239.466 Z-4.604
X-312.645 Y-239.427 Z-4.58
X-312.683 Y-239.377
X-312.71 Y-239.321
X-312.725 Y-239.261
X-312.729 Y-239.2
X-312.727 Y-239.177
X-312.547 Y-237.542
G2 X-312.234 Y-237.26 I0.316 J-0.035
G1 X-312.194 Y-237.259
X-311.946 Y-237.246
G3 X-311.454 Y-237.168 Z-4.78 I-0.32 J3.632
G1 X-311.362 Y-237.144
X-311.216 Y-237.11
X-311.071 Y-237.085
X-299.541 Y-235.169
X-299.103 Y-235.089
X-298.374 Y-234.949
X-287.866 Y-232.921
X-287.428 Y-232.833
X-287.227 Y-232.79
X-276.483 Y-230.425
G3 X-276.277 Y-230.275 Z-4.675 I-0.068 J0.31
G1 X-276.171 Y-230.064 Z-4.58
X-276.059 Y-229.842
X-275.778 Y-229.285
G2 X-275.211 Y-229.284 I0.283 J-0.143
G3 X-274.703 Y-230.148 I7.227 J3.672
G1 X-274.561 Y-230.351
X-274.257 Y-230.746 Z-4.78
X-273.875 Y-231.184
X-268.667 Y-237.168
X-268.281 Y-237.606
X-264.881 Y-241.401
X-264.808 Y-241.482
X-260.812 Y-245.779
G3 X-256.052 Y-250.738 I159.893 J148.717
X-248.462 Y-258.272 I330.251 J325.111
G1 X-244.374 Y-262.126
X-244.062 Y-262.418
X-242.041 Y-264.282
G3 X-241.593 Y-264.264 Z-4.58 I0.215 J0.233
X-241.541 Y-263.909 I-0.233 J0.216
G1 X-241.569 Y-263.87
X-241.608 Y-263.843
X-241.653 Y-263.83
X-241.701 Y-263.833
X-241.745 Y-263.851
X-241.78 Y-263.883
G3 X-241.835 Y-264.171 I0.249 J-0.197
G1 X-241.821 Y-264.215
X-241.778 Y-264.332
X-241.725 Y-264.444
G3 X-241.432 Y-264.844 Z-4.78 I1.407 J0.725
G1 X-240.424 Y-265.774
X-239.998 Y-266.159
X-235.62 Y-270.022
X-235.301 Y-270.299
X-231.533 Y-273.561
X-231.067 Y-273.948
X-226.823 Y-277.45
G3 X-213.145 Y-288.123 I229.986 J280.647
G1 X-208.183 Y-291.696
X-207.599 Y-292.113
X-203.951 Y-294.709
X-203.356 Y-295.11
X-198.354 Y-298.467
X-194.611 Y-300.956
X-194.319 Y-301.149
X-194.173 Y-301.244
X-188.335 Y-304.889
X-187.713 Y-305.275
X-187.314 Y-305.523 F900.
X-187.241 Y-305.567
X-187.204 Y-305.586
X-187.168 Y-305.599
X-187.131 Y-305.608 F1000.
X-187.095 Y-305.612
X-186.292 Y-305.613
X187.022
G3 X187.46 Y-305.432 I0.021 J0.571
G1 X188.481 Y-304.798
X194.178 Y-301.24
X194.319 Y-301.149
X194.902 Y-300.762
X198.405 Y-298.433
X203.573 Y-294.964
X203.951 Y-294.709
X207.898 Y-291.899
X208.509 Y-291.462
X213.17 Y-288.105
G3 X217.669 Y-284.688 I-248.791 J332.221
G1 X222.339 Y-281.085
G3 X226.863 Y-277.417 I-176.143 J221.867
G1 X231.244 Y-273.802
X231.533 Y-273.561
X235.474 Y-270.149
X235.766 Y-269.893
X238.343 Y-267.619
G3 X244.529 Y-261.98 I-131.004 J149.907
G1 X248.554 Y-258.185
G3 X252.712 Y-254.098 I-323.306 J333.137
G1 X256.781 Y-250.002
X257.073 Y-249.701
X260.429 Y-246.184
X260.812 Y-245.779
X264.808 Y-241.482
X264.954 Y-241.32
X268.31 Y-237.573
X268.748 Y-237.076
X274.002 Y-231.038
G3 X273.971 Y-230.591 Z-4.58 I-0.24 J0.208
X273.554 Y-231.069 I-0.209 J-0.239
X274.063 Y-230.932 I0.209 J0.239
G1 X274.559 Y-229.476
G3 X273.958 Y-229.271 I-0.301 J0.102
X274.116 Y-229.657 I0.301 J-0.102
X275.039 Y-230.049 I3.628 J7.249
G1 X275.274 Y-230.129
X275.753 Y-230.266 Z-4.78
X276.337 Y-230.393
X287.282 Y-232.802
X287.428 Y-232.833
X287.866 Y-232.921
X298.958 Y-235.062
X299.249 Y-235.116
X299.541 Y-235.169
X311.071 Y-237.085
X311.216 Y-237.11
G3 X311.489 Y-236.575 I0.043 J0.315
G1 X311.44 Y-236.525 Z-4.772
X311.393 Y-236.476 Z-4.749
X311.352 Y-236.433 Z-4.711
X311.317 Y-236.396 Z-4.66
X311.291 Y-236.369 Z-4.6
X311.274 Y-236.352 Z-4.533
X311.269 Y-236.347 Z-4.463
G0 Z2.51
X311.166 Y-242.031
Z-4.145
G1 Z-4.463 F1000.
X311.159 Y-242.034 Z-4.533
X311.137 Y-242.042 Z-4.6
X311.101 Y-242.055 Z-4.66
X311.054 Y-242.073 Z-4.711
X310.998 Y-242.095 Z-4.749
X310.935 Y-242.119 Z-4.772
X310.869 Y-242.144 Z-4.78
G3 X309.444 Y-243.152 I1.255 J-3.287
G1 X305.053 Y-248.698
X304.936 Y-248.844
X304.695 Y-249.136
X301.147 Y-253.352
G3 X301.471 Y-253.856 I0.25 J-0.196
G1 X301.54 Y-253.839 Z-4.772
X301.605 Y-253.824 Z-4.749
X301.664 Y-253.809 Z-4.711
X301.713 Y-253.797 Z-4.66
X301.749 Y-253.789 Z-4.6
X301.772 Y-253.783 Z-4.533
X301.78 Y-253.781 Z-4.463
G0 Z2.51
X257.09 Y-298.909
Z-4.145
G1 Z-4.463 F1000.
X257.083 Y-298.91 Z-4.533
X257.059 Y-298.914 Z-4.6
X257.022 Y-298.92 Z-4.66
X256.972 Y-298.928 Z-4.711
X256.913 Y-298.937 Z-4.749
X256.847 Y-298.948 Z-4.772
X256.777 Y-298.959 Z-4.78
G3 X255.176 Y-299.656 I0.559 J-3.474
G1 X254.884 Y-299.898
X250.966 Y-303.138
G3 X250.475 Y-305.043 I1.294 J-1.349
X250.763 Y-305.606 I1.784 J0.556 F900.
G1 X250.909 Y-305.613 F1000.
G3 X251.212 Y-305.339 Z-4.602 I-0.011 J0.317
G1 X251.219 Y-305.285 Z-4.58
X251.253 Y-305.039
X251.475 Y-303.429
X251.477 Y-303.367
X251.466 Y-303.306
X251.444 Y-303.248
X251.411 Y-303.195
G3 X250.966 Y-303.138 Z-4.78 I-0.251 J-0.194
G1 X249.776 Y-304.122
G3 X249.332 Y-304.784 I0.964 J-1.126
X249.266 Y-305.41 I1.408 J-0.464 F900.
G1 X249.341 Y-305.516 F1000.
X249.445 Y-305.587
X249.569 Y-305.613
G3 X249.848 Y-305.425 Z-4.638 I-0.011 J0.317
G1 X249.907 Y-305.293 Z-4.58
X250.008 Y-305.066
X250.259 Y-304.503
G3 X250.221 Y-304.179 I-0.29 J0.129
X249.776 Y-304.122 Z-4.78 I-0.251 J-0.194
G1 X248.754 Y-304.966
X248.671 Y-305.035
X248.635 Y-305.07
X248.608 Y-305.106
X248.587 Y-305.143
X248.572 Y-305.181
X248.563 Y-305.217
X248.558 Y-305.254
X248.557 Y-305.29
X248.56 Y-305.327
X248.567 Y-305.358
X248.577 Y-305.39
X248.59 Y-305.421
X248.608 Y-305.452
X248.623 Y-305.473
X248.656 Y-305.509
X248.688 Y-305.537
X248.721 Y-305.562
X248.754 Y-305.58
X248.791 Y-305.595
X248.827 Y-305.605
X248.864 Y-305.611
X248.9 Y-305.613
X300.125
G3 X300.302 Y-305.039 I-0.011 J0.317
G1 X300.245 Y-304.997 Z-4.772
X300.191 Y-304.958 Z-4.749
X300.142 Y-304.922 Z-4.711
X300.102 Y-304.892 Z-4.66
X300.071 Y-304.87 Z-4.6
X300.052 Y-304.856 Z-4.533
X300.046 Y-304.851 Z-4.463
G0 Z2.51
X311.165 Y-304.958
Z-4.145
G1 Z-4.463 F1000.
X311.172 Y-304.962 Z-4.533
X311.192 Y-304.974 Z-4.6
X311.225 Y-304.994 Z-4.66
X311.268 Y-305.019 Z-4.711
X311.32 Y-305.05 Z-4.749
X311.377 Y-305.084 Z-4.772
X311.438 Y-305.12 Z-4.78
G3 X313.114 Y-305.613 I1.798 J3.024
G1 X314.135
X314.172 Y-305.61
X314.208 Y-305.604
X314.245 Y-305.593
X314.281 Y-305.576
X314.313 Y-305.557
X314.345 Y-305.534
X314.409 Y-305.473
X317.96 Y-301.824
X318.098 Y-301.678
X321.286 Y-298.238
X326.102 Y-293.
X326.306 Y-292.775
X329.638 Y-288.98
X334.129 Y-283.808
G3 X337.839 Y-279.348 I-482.184 J404.846
G1 X341.786 Y-274.531
X342.156 Y-274.069
X345.239 Y-270.153
X349.015 Y-265.27
X349.414 Y-264.753
X352.674 Y-260.374
X356.503 Y-255.12
X356.608 Y-254.974
X359.69 Y-250.596
X360.106 Y-249.992
X364.965 Y-242.911
G3 X365.013 Y-242.661 Z-4.675 I-0.262 J0.18
G1 X365.005 Y-242.594 Z-4.648
X365.004 Y-242.425 Z-4.58
X365.002 Y-242.217
Y-242.197
X365.004 Y-242.177
G2 X365.487 Y-241.944 I0.315 J-0.037
G1 X365.527 Y-241.968
X365.637 Y-242.026
X365.75 Y-242.076
G3 X366.236 Y-242.18 Z-4.78 I0.572 J1.475
G1 X366.674 Y-242.189
X366.9 Y-242.208
G3 X367.125 Y-241.651 I0.016 J0.317
G1 X367.072 Y-241.605 Z-4.772
X367.021 Y-241.561 Z-4.749
X366.976 Y-241.521 Z-4.711
X366.938 Y-241.488 Z-4.66
X366.909 Y-241.463 Z-4.6
X366.892 Y-241.448 Z-4.533
X366.886 Y-241.442 Z-4.463
G0 Z2.51
X392.524 Y-295.536
Z-4.145
G1 Z-4.463 F1000.
X392.522 Y-295.544 Z-4.533
X392.517 Y-295.567 Z-4.6
X392.51 Y-295.604 Z-4.66
X392.5 Y-295.653 Z-4.711
X392.488 Y-295.712 Z-4.749
X392.474 Y-295.778 Z-4.772
X392.46 Y-295.847 Z-4.78
G3 X392.547 Y-297.591 I3.448 J-0.703
G1 X395.241 Y-305.327
X395.278 Y-305.425
X395.291 Y-305.449
X395.307 Y-305.473
X395.332 Y-305.503
X395.365 Y-305.533
X395.395 Y-305.556
X395.424 Y-305.574
X395.46 Y-305.591
X395.497 Y-305.602
X395.533 Y-305.61
X395.57 Y-305.612
X441.395 Y-305.613
G3 X441.654 Y-305.59 I0.032 J1.162
X442.213 Y-305.306 I-0.227 J1.14 F900.
G1 X442.254 Y-305.173 F1000.
X442.243 Y-305.038
G3 X441.856 Y-304.837 Z-4.587 I-0.3 J-0.104
G1 X441.839 Y-304.842 Z-4.58
X441.6 Y-304.91
X441.319 Y-304.99
G3 X441.088 Y-305.284 I0.087 J-0.305
X441.395 Y-305.613 Z-4.78 I0.317 J-0.011
G1 X441.978 Y-305.612
X442.015 Y-305.61
X442.051 Y-305.603
X442.088 Y-305.592
X442.124 Y-305.575
X442.154 Y-305.558
X442.183 Y-305.535
X442.216 Y-305.504
X442.242 Y-305.473
X442.27 Y-305.426
X442.29 Y-305.376
X442.301 Y-305.327
X442.304 Y-305.29
X442.302 Y-305.254
X442.297 Y-305.217
X442.287 Y-305.181
X440.076 Y-298.029
X439.982 Y-297.737
X439.934 Y-297.591
X436.341 Y-286.937
X436.287 Y-286.78
X436.136 Y-286.353
X432.237 Y-275.699
X432.182 Y-275.553
X427.973 Y-264.899
X427.796 Y-264.461
X423.331 Y-253.952
X423.268 Y-253.807
X423.204 Y-253.661
X422.871 Y-252.931
G3 X422.276 Y-253.008 I-0.284 J-0.142
G1 X422.262 Y-253.077 Z-4.772
X422.248 Y-253.142 Z-4.749
X422.236 Y-253.201 Z-4.711
X422.226 Y-253.251 Z-4.66
X422.218 Y-253.288 Z-4.6
X422.213 Y-253.311 Z-4.533
X422.212 Y-253.318 Z-4.463
G0 Z2.51
X421.733 Y-239.939
Z-4.145
G1 Z-4.463 F1000.
X421.741 Y-239.943 Z-4.533
X421.762 Y-239.953 Z-4.6
X421.796 Y-239.969 Z-4.66
X421.842 Y-239.99 Z-4.711
X421.896 Y-240.016 Z-4.749
X421.957 Y-240.044 Z-4.772
X422.021 Y-240.074 Z-4.78
G3 X423.736 Y-240.402 I1.498 J3.184
G1 X431.471 Y-239.651
X431.909 Y-239.605
X443.73 Y-238.144
X444.168 Y-238.08
X455.697 Y-236.346
X455.843 Y-236.322
X456.426 Y-236.22
X465.085 Y-234.684
X465.329 Y-234.641 F900.
X465.365 Y-234.634
X465.402 Y-234.621
X465.438 Y-234.604
X465.475 Y-234.58
X465.496 Y-234.563
X465.518 Y-234.541
X465.547 Y-234.505
X465.571 Y-234.468
X465.589 Y-234.432
X465.601 Y-234.395
X465.609 Y-234.359 F1000.
X465.612 Y-234.322
X465.613 Y-189.735
Y-189.589
Y-189.545
X465.605 Y-189.395 F900.
X465.553 Y-189.226
X465.527 Y-189.169
X465.444 Y-189.06
X465.322 Y-188.995
X465.184 Y-188.989 F1000.
G3 X464.84 Y-189.147 Z-4.626 I0.174 J-0.832
G1 X464.796 Y-189.185 Z-4.603
X464.757 Y-189.228 Z-4.58
G3 X465.362 Y-189.95 I0.375 J-0.299
G1 X465.408 Y-189.921 Z-4.602
G3 X465.613 Y-189.545 Z-4.78 I-0.275 J0.394
G1 X465.612 Y-189.297
X465.608 Y-189.26
X465.6 Y-189.224
X465.587 Y-189.187
X465.568 Y-189.151
X465.532 Y-189.095
X465.504 Y-189.063
X465.475 Y-189.039
X465.446 Y-189.02
X465.418 Y-189.005
X465.374 Y-188.988
X465.329 Y-188.978
X465.292 Y-188.975
X465.256 Y-188.976
X465.183 Y-188.989
X456.718 Y-190.667
G3 X456.509 Y-190.812 Z-4.675 I0.062 J-0.311
G1 X456.474 Y-190.859 Z-4.651
X456.43 Y-190.899 Z-4.627
X456.38 Y-190.93 Z-4.604
X456.325 Y-190.951 Z-4.58
X456.086 Y-191.017
X453.105 Y-191.832
X453.039 Y-191.843
X452.971 Y-191.839
X452.906 Y-191.822
G3 X451.918 Y-191.595 I-1.274 J-3.28
G1 X451.67 Y-191.583
G3 X451.173 Y-191.613 Z-4.78 I-0.037 J-3.519
G1 X444.022 Y-192.811
X443.73 Y-192.853
X443.146 Y-192.934
X431.909 Y-194.475
X431.763 Y-194.494
X431.325 Y-194.546
X419.65 Y-195.795
G3 X419.534 Y-196.384 I0.044 J-0.314
G1 X419.595 Y-196.419 Z-4.772
X419.653 Y-196.453 Z-4.749
X419.705 Y-196.483 Z-4.711
X419.748 Y-196.509 Z-4.66
X419.781 Y-196.528 Z-4.6
X419.801 Y-196.539 Z-4.533
X419.808 Y-196.544 Z-4.463
G0 Z2.51
X408.346 Y-197.373
Z-4.145
G1 Z-4.463 F1000.
X408.339 Y-197.369 Z-4.533
X408.319 Y-197.358 Z-4.6
X408.285 Y-197.34 Z-4.66
X408.241 Y-197.317 Z-4.711
X408.188 Y-197.288 Z-4.749
X408.128 Y-197.257 Z-4.772
X408.066 Y-197.223 Z-4.78
G3 X406.369 Y-196.811 I-1.653 J-3.106
G1 X394.986 Y-197.349
G2 X392.993 Y-196.299 I-0.357 J1.738
G1 X392.95 Y-196.247 Z-4.754
X392.898 Y-196.205 Z-4.727
X392.838 Y-196.176 Z-4.701
X392.775 Y-196.159 Z-4.675
X392.707 Y-196.138 Z-4.647
X392.646 Y-196.103 Z-4.618
X392.594 Y-196.055 Z-4.59
X392.578 Y-196.036 Z-4.58
X392.415 Y-195.849
X392.068 Y-195.447
G2 X392.131 Y-194.976 I0.24 J0.208
G3 X392.885 Y-194.296 I-1.955 J2.925
G1 X393.036 Y-194.1
G3 X393.297 Y-193.675 Z-4.78 I-2.86 J2.05
G1 X396.778 Y-186.378
X397.05 Y-185.794
X399.542 Y-180.394
X399.608 Y-180.248
X402.055 Y-174.702
X402.247 Y-174.264
X404.732 Y-168.426
X404.971 Y-167.842
X407.105 Y-162.588
X407.338 Y-162.004
X409.58 Y-156.268
X409.782 Y-155.728
X411.79 Y-150.328
X411.95 Y-149.89
X414.033 Y-144.052
X414.233 Y-143.469
X416.147 Y-137.814
X418.096 Y-131.793
X418.234 Y-131.355
X420.02 Y-125.517
X420.191 Y-124.933
X421.848 Y-119.241
X421.985 Y-118.752
X423.59 Y-112.884
X423.797 Y-112.089
X425.195 Y-106.689
X425.232 Y-106.543
X425.375 Y-105.959
X426.753 Y-100.267
X426.887 Y-99.684
X428.181 Y-93.992
X428.276 Y-93.554
X429.538 Y-87.57
X429.654 Y-86.986
X430.771 Y-81.294
G3 X432.008 Y-74.434 I-820.128 J151.358
G1 X433.046 Y-68.159
X433.984 Y-61.883
X434.025 Y-61.591
X434.853 Y-55.461
X434.908 Y-55.023
X435.605 Y-49.185
X435.655 Y-48.747
X435.686 Y-48.455
X436.328 Y-42.325
X436.446 Y-41.012
X436.889 Y-36.05
X436.936 Y-35.466
X437.371 Y-29.628
X437.403 Y-29.19
X437.776 Y-22.914
X437.81 Y-22.184
X438.064 Y-16.492
X438.081 Y-16.054
X438.258 Y-10.071
X438.266 Y-9.779
X438.284 Y-8.611
X438.362 Y-3.357
X438.364 Y-2.919
Y0.
Y2.919
X438.362 Y3.357
X438.269 Y9.633
X438.266 Y9.779
X438.241 Y10.654
X438.081 Y16.054
X438.058 Y16.638
X437.783 Y22.768
X437.776 Y22.914
X437.403 Y29.19
X437.35 Y29.92
X436.924 Y35.612
X436.889 Y36.05
X436.355 Y42.034
X436.328 Y42.325
X435.671 Y48.601
X435.266 Y52.032
X434.853 Y55.461
X434.025 Y61.591
X433.984 Y61.883
X433.046 Y68.159
X432.008 Y74.434
X431.906 Y75.018
X430.881 Y80.71
X430.799 Y81.148
X430.741 Y81.449
X429.626 Y87.132
X429.538 Y87.57
X428.276 Y93.554
X428.181 Y93.992
X426.801 Y100.06
X426.753 Y100.267
X425.34 Y106.105
X425.232 Y106.543
X425.006 Y107.419
X423.683 Y112.527
X423.568 Y112.965
X421.971 Y118.803
X421.839 Y119.273
X420.149 Y125.079
X420.02 Y125.517
X418.234 Y131.355
X418.096 Y131.793
X416.147 Y137.814
X414.184 Y143.615
X414.033 Y144.052
X411.95 Y149.89
X411.737 Y150.474
X409.619 Y156.166
X409.563 Y156.312
X407.338 Y162.004
X407.099 Y162.604
X404.91 Y167.993
X404.732 Y168.426
X402.247 Y174.264
X401.991 Y174.848
X399.608 Y180.248
X399.51 Y180.462
X396.983 Y185.94
X396.737 Y186.465
X392.879 Y194.551
G2 X393.147 Y196.523 I1.508 J0.799
G1 X393.175 Y196.587
X393.189 Y196.655
Y196.724
X393.175 Y196.791
X393.147 Y196.854
X393.107 Y196.909
X393.057 Y196.955
X392.999 Y196.989
X392.936 Y197.01
X392.87 Y197.018
X392.804 Y197.012
X392.741 Y196.992
X392.675 Y196.966 Z-4.772
X392.613 Y196.942 Z-4.749
X392.557 Y196.919 Z-4.711
X392.51 Y196.901 Z-4.66
X392.475 Y196.887 Z-4.6
X392.453 Y196.878 Z-4.533
X392.446 Y196.875 Z-4.463
G0 Z2.51
X405.98 Y197.515
Z-4.145
G1 Z-4.463 F1000.
X405.987 Y197.51 Z-4.533
X406.006 Y197.497 Z-4.6
X406.037 Y197.475 Z-4.66
X406.078 Y197.446 Z-4.711
X406.127 Y197.411 Z-4.749
X406.182 Y197.373 Z-4.772
X406.24 Y197.332 Z-4.78
G3 X407.873 Y196.713 I2.025 J2.877
G1 X415.271 Y196.143
G3 X415.512 Y196.226 Z-4.675 I0.024 J0.317
G1 X415.567 Y196.268 Z-4.647
X415.631 Y196.296 Z-4.619
X415.698 Y196.31 Z-4.591
X415.727 Y196.312 Z-4.58
X415.974 Y196.335
X417.896 Y196.513
X417.954
X418.011 Y196.503
X418.066 Y196.482
X418.115 Y196.451
G3 X419.007 Y195.968 I2.105 J2.819
G1 X419.243 Y195.891
G3 X419.73 Y195.786 Z-4.78 I0.978 J3.38
G1 X431.325 Y194.546
X431.763 Y194.494
X431.909 Y194.475
X443.584 Y192.874
X443.876 Y192.833
X444.022 Y192.811
X456.135 Y190.782
X464.891 Y189.047
X465.083 Y189.009
X465.183 Y188.989 F900.
X465.256 Y188.976
X465.292 Y188.975
X465.329 Y188.978
X465.374 Y188.988
X465.418 Y189.005
X465.446 Y189.02
X465.475 Y189.039
X465.504 Y189.063
X465.532 Y189.095
X465.568 Y189.151
X465.587 Y189.187
X465.6 Y189.224
X465.608 Y189.26 F1000.
X465.612 Y189.297
Y233.761
Y234.322 F900.
X465.609 Y234.359
X465.601 Y234.395
X465.589 Y234.432 F1000.
X465.571 Y234.468
X465.547 Y234.505
X465.518 Y234.541
X465.496 Y234.563
X465.475 Y234.58
X465.438 Y234.604
X465.402 Y234.621
X465.365 Y234.634
X465.329 Y234.641
X456.135 Y236.271
X455.843 Y236.322
X455.697 Y236.346
X444.022 Y238.102
X443.73 Y238.144
X431.909 Y239.605
X431.471 Y239.651
X423.736 Y240.402
G3 X423.505 Y239.849 I-0.02 J-0.317
G1 X423.557 Y239.802 Z-4.772
X423.607 Y239.757 Z-4.749
X423.652 Y239.717 Z-4.711
X423.69 Y239.683 Z-4.66
X423.718 Y239.658 Z-4.6
X423.735 Y239.642 Z-4.533
X423.741 Y239.637 Z-4.463
G0 Z2.51
X418.146 Y244.131
Z-4.145
G1 Z-4.463 F1000.
X418.153 Y244.136 Z-4.533
X418.172 Y244.149 Z-4.6
X418.203 Y244.171 Z-4.66
X418.244 Y244.199 Z-4.711
X418.294 Y244.234 Z-4.749
X418.349 Y244.272 Z-4.772
X418.407 Y244.312 Z-4.78
G3 X419.549 Y245.633 I-2.008 J2.89
G1 X423.204 Y253.661
X423.268 Y253.807
X423.641 Y254.682
G3 X423.473 Y255.098 Z-4.58 I-0.292 J0.124
G1 X423.417 Y255.117
X423.358 Y255.124
X423.298 Y255.12
X423.241 Y255.105
X423.231 Y255.101
X422.934 Y254.993
G3 X423.151 Y254.396 I0.108 J-0.298
X423.295 Y254.502 I-0.108 J0.298
X423.853 Y255.335 I-6.441 J4.922
G1 X423.975 Y255.551
X424.199 Y255.996 Z-4.78
X427.796 Y264.461
X427.973 Y264.899
X428.146 Y265.337
G3 X427.968 Y265.748 Z-4.58 I-0.295 J0.117
X427.734 Y265.158 I-0.117 J-0.295
X428.152 Y265.555 I0.117 J0.295
G1 X427.929 Y266.21
G3 X427.328 Y266.005 I-0.301 J-0.102
X427.823 Y265.856 I0.301 J0.102
X428.527 Y266.586 I-2.152 J2.784
G1 X428.665 Y266.793
G3 X428.896 Y267.234 Z-4.78 I-2.995 J1.848
G1 X432.182 Y275.553
X432.237 Y275.699
X436.141 Y286.368
X436.291 Y286.791
X436.39 Y287.083
X439.935 Y297.594
X439.982 Y297.737
X440.081 Y298.046
X442.106 Y304.597
G3 X442.166 Y304.886 I-1.204 J0.399
X442.064 Y305.506 I-1.264 J0.11 F900.
G1 X441.946 Y305.583 F1000.
X441.814 Y305.613
G3 X441.507 Y305.305 Z-4.588 I0.011 J-0.317
G1 Y305.284 Z-4.58
X441.499 Y305.036
X441.489 Y304.711
G3 X441.702 Y304.401 I0.317 J-0.01
X442.106 Y304.597 Z-4.78 I0.104 J0.3
X442.304 Y305.29 I-1.597 J0.83
G1 X442.301 Y305.327
X442.29 Y305.376
X442.27 Y305.426
X442.242 Y305.473
X442.216 Y305.504
X442.183 Y305.535
X442.154 Y305.558
X442.124 Y305.575
X442.088 Y305.592
X442.051 Y305.603
X442.015 Y305.61
X441.978 Y305.612
X439.206 Y305.613
G3 X439.029 Y305.039 I0.011 J-0.317
G1 X439.086 Y304.997 Z-4.772
X439.14 Y304.958 Z-4.749
X439.188 Y304.922 Z-4.711
X439.229 Y304.892 Z-4.66
X439.26 Y304.87 Z-4.6
X439.278 Y304.856 Z-4.533
X439.285 Y304.851 Z-4.463
G0 Z2.51
X414.593 Y304.958
Z-4.145
G1 Z-4.463 F1000.
X414.586 Y304.962 Z-4.533
X414.566 Y304.974 Z-4.6
X414.533 Y304.994 Z-4.66
X414.49 Y305.019 Z-4.711
X414.438 Y305.05 Z-4.749
X414.381 Y305.084 Z-4.772
X414.32 Y305.12 Z-4.78
G3 X412.645 Y305.613 I-1.798 J-3.024
G1 X395.57 Y305.612
X395.533 Y305.61
X395.497 Y305.602
X395.46 Y305.591
X395.424 Y305.574
X395.395 Y305.556
X395.365 Y305.533
X395.332 Y305.503
X395.307 Y305.473
X395.291 Y305.449
X395.278 Y305.425
X395.241 Y305.327
X393.258 Y299.635
G3 X393.742 Y299.279 I0.303 J-0.094
G1 X393.8 Y299.319 Z-4.772
X393.855 Y299.357 Z-4.749
X393.905 Y299.391 Z-4.711
X393.946 Y299.42 Z-4.66
X393.977 Y299.441 Z-4.6
X393.997 Y299.455 Z-4.533
X394.003 Y299.459 Z-4.463
G0 Z2.51
X374.92 Y254.578
Z-4.145
G1 Z-4.463 F1000.
X374.913 Y254.574 Z-4.533
X374.893 Y254.562 Z-4.6
X374.861 Y254.542 Z-4.66
X374.818 Y254.515 Z-4.711
X374.767 Y254.483 Z-4.749
X374.71 Y254.448 Z-4.772
X374.65 Y254.41 Z-4.78
G3 X373.444 Y253.148 I1.861 J-2.986
G1 X371.49 Y249.366
G3 X371.473 Y249.112 Z-4.675 I0.282 J-0.146
G1 X371.487 Y249.059 Z-4.653
X371.492 Y249.005 Z-4.631
X371.487 Y248.95 Z-4.609
X371.474 Y248.897 Z-4.587
X371.468 Y248.881 Z-4.58
X371.384 Y248.647
X369.205 Y242.546
G2 X368.891 Y242.336 I-0.299 J0.107
G3 X367.889 Y242.322 I-0.387 J-8.097
G1 X367.642 Y242.299
X367.148 Y242.231 Z-4.78
G2 X366.447 Y242.185 I-0.825 J7.144
G1 X366.392 Y242.177 Z-4.758
X366.34 Y242.159 Z-4.735
X366.291 Y242.133 Z-4.713
X366.247 Y242.099 Z-4.691
X366.046 Y241.91 Z-4.58
X365.943 Y241.812
G2 X365.582 Y241.92 I-0.149 J0.158
G1 X365.571 Y241.965
X365.533 Y242.083
X365.487 Y242.198
G3 X365.214 Y242.613 Z-4.78 I-1.443 J-0.651
G1 X365.116 Y242.714
X365.068 Y242.771
X365. Y242.86
X363.197 Y245.487
G3 X362.981 Y245.622 Z-4.675 I-0.262 J-0.18
G1 X362.927 Y245.635 Z-4.653
X362.876 Y245.657 Z-4.63
X362.83 Y245.687 Z-4.608
X362.789 Y245.725 Z-4.586
X362.78 Y245.736 Z-4.58
X362.615 Y245.922
X361.014 Y247.724
X360.974 Y247.781
X360.947 Y247.845
X360.935 Y247.914
G3 X360.724 Y248.906 I-3.511 J-0.228
G1 X360.63 Y249.136
G3 X360.393 Y249.574 Z-4.78 I-3.206 J-1.45
G1 X359.892 Y250.304
X359.668 Y250.627
X356.604 Y254.98
X356.458 Y255.183
X352.663 Y260.389
X349.414 Y264.753
X348.851 Y265.483
X345.239 Y270.153
X342.136 Y274.094
X341.786 Y274.531
X337.719 Y279.494
G3 X333.82 Y284.164 I-183.567 J-149.288
G1 X329.638 Y288.98
X326.306 Y292.775
X326.102 Y293.
X321.286 Y298.238
X320.669 Y298.905
G3 X320.22 Y298.922 Z-4.58 I-0.233 J-0.216
G1 X320.179 Y298.876
X320.148 Y298.822
X320.127 Y298.764
X320.119 Y298.703
X320.118 Y298.694
G3 X320.444 Y298.689 I0.163 J-0.002
X320.315 Y298.851 I-0.163 J0.002
X320.181 Y298.23 I-0.067 J-0.31
X320.528 Y298.691 I0.067 J0.31
X319.996 Y299.541 I-7.127 J-3.862
G1 X319.849 Y299.741
X319.535 Y300.128 Z-4.78
X318.076 Y301.702
X317.93 Y301.855
X317.346 Y302.455
G3 X317.11 Y302.551 Z-4.675 I-0.228 J-0.221
G1 X317.04 Y302.557 Z-4.647
X316.973 Y302.578 Z-4.618
X316.886 Y302.617 Z-4.58
X316.659 Y302.718
X316.152 Y302.945
G2 X315.973 Y303.16 I0.129 J0.29
G3 X315.596 Y304.102 I-3.422 J-0.82
G1 X315.465 Y304.313
G3 X315.157 Y304.704 Z-4.78 I-2.914 J-1.973
G1 X314.409 Y305.473
X314.345 Y305.534
X314.313 Y305.557
X314.281 Y305.576
X314.245 Y305.593
X314.208 Y305.604
X314.172 Y305.61
X314.135 Y305.613
X313.325
G3 X313.149 Y305.039 I0.011 J-0.317
G1 X313.206 Y304.997 Z-4.772
X313.26 Y304.958 Z-4.749
X313.308 Y304.922 Z-4.711
X313.349 Y304.892 Z-4.66
X313.379 Y304.87 Z-4.6
X313.398 Y304.856 Z-4.533
X313.405 Y304.851 Z-4.463
G0 Z2.51
X284.853 Y304.958
Z-4.145
G1 Z-4.463 F1000.
X284.846 Y304.962 Z-4.533
X284.826 Y304.974 Z-4.6
X284.793 Y304.994 Z-4.66
X284.75 Y305.019 Z-4.711
X284.698 Y305.05 Z-4.749
X284.64 Y305.084 Z-4.772
X284.58 Y305.12 Z-4.78
G3 X282.904 Y305.613 I-1.798 J-3.024
G1 X251.819
G3 X250.293 Y304.429 I0.23 J-1.871
X250.165 Y303.81 I1.756 J-0.688 F900.
G1 X250.269 Y303.714 F1000.
G3 X250.686 Y303.74 Z-4.597 I0.194 J0.252
G1 X250.716 Y303.77 Z-4.58
X250.893 Y303.944
X252.025 Y305.064
X252.031 Y305.069
X252.07 Y305.115
X252.099 Y305.168
X252.118 Y305.225
X252.125 Y305.284
G3 X251.819 Y305.613 Z-4.78 I-0.317 J0.011
G1 X250.36
G3 X249.567 Y305.371 I0.027 J-1.511
X249.12 Y304.926 I0.82 J-1.27 F900.
G1 X249.11 Y304.797 F1000.
X249.145 Y304.676
X249.224 Y304.578
G3 X249.56 Y304.545 Z-4.637 I0.194 J0.252
G1 X249.688 Y304.609 Z-4.58
X249.91 Y304.72
X250.491 Y305.011
G3 X250.666 Y305.284 I-0.142 J0.284
X250.36 Y305.613 Z-4.78 I-0.317 J0.011
G1 X249.046
X248.9
X248.864 Y305.611
X248.827 Y305.605
X248.791 Y305.595
X248.754 Y305.58
X248.721 Y305.562 F900.
X248.688 Y305.537
X248.656 Y305.509
X248.623 Y305.473
X248.608 Y305.452
X248.59 Y305.421
X248.577 Y305.39
X248.567 Y305.358
X248.56 Y305.327
X248.557 Y305.29
X248.558 Y305.254
X248.563 Y305.217
X248.572 Y305.181
X248.587 Y305.143
X248.608 Y305.106
X248.635 Y305.07 F1000.
X248.671 Y305.035
X255.026 Y299.781
G3 X255.528 Y300.11 I0.194 J0.252
G1 X255.51 Y300.178 Z-4.772
X255.494 Y300.243 Z-4.749
X255.479 Y300.302 Z-4.711
X255.467 Y300.351 Z-4.66
X255.458 Y300.387 Z-4.6
X255.452 Y300.41 Z-4.533
X255.45 Y300.418 Z-4.463
G0 Z2.51
X304.537 Y250.405
Z-4.145
G1 Z-4.463 F1000.
X304.538 Y250.397 Z-4.533
X304.541 Y250.374 Z-4.6
X304.546 Y250.336 Z-4.66
X304.552 Y250.286 Z-4.711
X304.56 Y250.227 Z-4.749
X304.569 Y250.16 Z-4.772
X304.579 Y250.09 Z-4.78
G3 X305.233 Y248.471 I3.488 J0.467
G1 X311.292 Y240.817
G3 X311.852 Y241.034 I0.242 J0.206
G1 X311.849 Y241.105 Z-4.772
X311.847 Y241.172 Z-4.749
X311.844 Y241.232 Z-4.711
X311.843 Y241.282 Z-4.66
X311.841 Y241.32 Z-4.6
X311.84 Y241.344 Z-4.533
Y241.352 Z-4.463
G0 Z2.51
X312.544 Y237.061
Z-4.145
G1 Z-4.463 F1000.
X312.537 Y237.063 Z-4.533
X312.514 Y237.069 Z-4.6
X312.478 Y237.08 Z-4.66
X312.429 Y237.094 Z-4.711
X312.371 Y237.11 Z-4.749
X312.307 Y237.128 Z-4.772
X312.239 Y237.148 Z-4.78
G3 X311.454 Y237.168 I-0.433 J-1.522
G1 X311.362 Y237.144
X311.216 Y237.11
X311.071 Y237.085
X299.541 Y235.169
X299.103 Y235.089
X298.374 Y234.949
X287.866 Y232.921
X287.428 Y232.833
X287.227 Y232.79
X276.045 Y230.329
X275.819 Y230.28
G3 X275.613 Y230.131 Z-4.675 I0.067 J-0.31
G1 X275.578 Y230.083 Z-4.651
X275.535 Y230.043 Z-4.627
X275.485 Y230.011 Z-4.604
X275.431 Y229.988 Z-4.58
X275.373 Y229.977
X275.314 Y229.976
X275.256 Y229.986
X275.201 Y230.007
X275.19 Y230.012
X273.507 Y230.828
G2 X273.333 Y231.057 I0.139 J0.286
G3 X273.01 Y232.018 I-3.462 J-0.629
G1 X272.89 Y232.236
G3 X272.605 Y232.644 Z-4.78 I-3.019 J-1.808
G1 X268.667 Y237.168
X268.281 Y237.606
X264.881 Y241.401
X264.808 Y241.482
X260.812 Y245.779
X260.398 Y246.217
X257.054 Y249.72
X256.771 Y250.012
X252.695 Y254.116
G3 X248.462 Y258.272 I-533.951 J-539.548
G1 X244.374 Y262.126
X244.062 Y262.418
X240.424 Y265.774
X239.998 Y266.159
X235.62 Y270.022
X235.301 Y270.299
X231.533 Y273.561
X231.067 Y273.948
X226.823 Y277.45
G3 X215.914 Y286.016 I-179.747 J-217.702
G1 X215.86 Y286.051 Z-4.754
X215.8 Y286.074 Z-4.727
X215.736 Y286.084 Z-4.701
X215.671 Y286.081 Z-4.675
X215.614 Y286.066 Z-4.651
X215.56 Y286.04 Z-4.627
X215.513 Y286.005 Z-4.604
X215.473 Y285.961 Z-4.58
X215.446 Y285.919
X215.426 Y285.872
X215.413 Y285.823
G3 X215.809 Y285.754 I0.198 J-0.035
X215.516 Y285.966 I-0.198 J0.035
X215.815 Y285.406 I0.149 J-0.28
X215.915 Y285.883 I-0.149 J0.28
G1 X215.89 Y285.915
X215.727 Y286.102
G3 X215.364 Y286.443 Z-4.78 I-2.67 J-2.482
G1 X213.729 Y287.686
X213.291 Y288.015
X213.145 Y288.123
X208.183 Y291.696
X207.599 Y292.113
X203.951 Y294.709
X203.356 Y295.11
X199.007 Y298.029
G3 X198.567 Y297.943 Z-4.58 I-0.177 J-0.264
G1 X198.539 Y297.892
X198.521 Y297.837
X198.491 Y297.708
X198.414 Y297.374
G3 X198.687 Y296.988 I0.309 J-0.071
X199.041 Y297.302 I0.036 J0.315
G1 Y297.303
X199.033 Y297.374
X199.01 Y297.44
G3 X198.444 Y298.282 I-3.172 J-1.523
G1 X198.27 Y298.46
G3 X197.887 Y298.778 Z-4.78 I-2.433 J-2.542
G1 X194.611 Y300.956
X194.319 Y301.149
X194.173 Y301.244
X188.335 Y304.889
X187.713 Y305.275
X187.314 Y305.523 F900.
X187.241 Y305.567
X187.204 Y305.586
X187.168 Y305.599
X187.131 Y305.608 F1000.
X187.095 Y305.612
X186.292 Y305.613
X-187.022
G3 X-187.46 Y305.432 I-0.021 J-0.571
G1 X-188.481 Y304.798
X-194.178 Y301.24
G3 X-201.178 Y296.572 I419.79 J-637.029
X-201.315 Y296.358 Z-4.675 I0.177 J-0.264
G1 X-201.361 Y296.125 Z-4.58
X-201.409 Y295.882
X-201.435 Y295.749
G3 X-200.812 Y295.626 I0.312 J-0.061
X-201.141 Y296.004 I-0.312 J0.061
X-202.135 Y295.803 I0.193 J-3.513
G1 X-202.366 Y295.712
G3 X-202.806 Y295.479 Z-4.78 I1.417 J-3.221
G1 X-203.659 Y294.906
X-203.951 Y294.709
X-204.68 Y294.19
G3 X-204.811 Y293.971 Z-4.675 I0.184 J-0.259
G1 X-204.826 Y293.909 Z-4.649
X-204.852 Y293.851 Z-4.624
X-204.907 Y293.757 Z-4.58
X-205.033 Y293.543
X-205.263 Y293.15
G2 X-205.511 Y292.995 I-0.274 J0.161
G3 X-206.499 Y292.767 I0.288 J-3.507
G1 X-206.727 Y292.668
G3 X-207.161 Y292.424 Z-4.78 I1.505 J-3.181
G1 X-208.037 Y291.8
X-208.621 Y291.381
X-213.17 Y288.105
G3 X-217.669 Y284.688 I248.86 J-332.312
G1 X-222.339 Y281.085
G3 X-226.863 Y277.417 I176.264 J-222.016
G1 X-231.244 Y273.802
X-231.533 Y273.561
X-235.474 Y270.149
X-235.766 Y269.893
X-239.998 Y266.159
X-240.436 Y265.764
X-244.084 Y262.397
X-244.529 Y261.98
X-248.554 Y258.185
X-248.754 Y257.994
X-251.232 Y255.558
X-252.403 Y254.405
X-252.695 Y254.116
X-256.781 Y250.002
X-257.073 Y249.701
X-260.429 Y246.184
X-260.812 Y245.779
X-264.808 Y241.482
X-264.954 Y241.32
X-268.31 Y237.573
X-268.748 Y237.076
X-274.148 Y230.871
X-274.208 Y230.802
G3 X-274.285 Y230.56 Z-4.675 I0.239 J-0.21
G1 X-274.242 Y230.327 Z-4.58
X-274.232 Y230.273
G2 X-274.727 Y229.956 I-0.312 J-0.057
G1 X-274.765 Y229.982
X-274.872 Y230.046
X-274.983 Y230.102
G3 X-275.461 Y230.234 Z-4.78 I-0.654 J-1.441
G1 X-275.607 Y230.245
X-275.753 Y230.266
X-276.337 Y230.393
X-287.282 Y232.802
X-287.428 Y232.833
X-287.866 Y232.921
X-298.958 Y235.062
X-299.249 Y235.116
X-299.541 Y235.169
X-311.071 Y237.085
X-311.216 Y237.11
G3 X-311.489 Y236.575 I-0.043 J-0.315
G1 X-311.44 Y236.525 Z-4.772
X-311.393 Y236.476 Z-4.749
X-311.352 Y236.433 Z-4.711
X-311.317 Y236.396 Z-4.66
X-311.291 Y236.369 Z-4.6
X-311.274 Y236.352 Z-4.533
X-311.269 Y236.347 Z-4.463
G0 Z2.51
X-310.458 Y242.925
Z-4.145
G1 Z-4.463 F1000.
X-310.45 Y242.928 Z-4.533
X-310.429 Y242.937 Z-4.6
X-310.393 Y242.95 Z-4.66
