(6MM-ADAPTIVE)
(T1 D=6. CR=0. - ZMIN=-19.2 - FLAT END MILL)
G90 G94 G91.1 G40 G49 G17
G21
G28 G91 Z0.
G90

(ADAPTIVE2)
T1 M6
S5000 M3
G17 G90 G94
G54
M8
G0 X-2.828 Y-53.556
G43 Z2.5 H1
G0 Z2.
G3 X1.833 Y-54.994 Z1.8 I2.828 J0.893 F333.
X1.534 Y-50.131 Z1.6 I-1.831 J2.328
X-2.905 Y-52.124 Z1.4 I-1.53 J-2.532
X0.522 Y-55.571 Z1.2 I2.905 J-0.538
X2.535 Y-51.153 Z1. I-0.521 J2.905
X-2.303 Y-50.829 Z0.8 I-2.531 J-1.511
X-0.901 Y-55.465 Z0.6 I2.304 J-1.833
X2.938 Y-52.521 Z0.4 I0.901 J2.799
X-1.166 Y-49.971 Z0.2 I-2.934 J-0.144
X-2.103 Y-54.705 Z0. I1.169 J-2.691
X2.651 Y-53.912 Z-0.2 I2.103 J2.041
X0.235 Y-49.748 Z-0.4 I-2.648 J1.246
X-2.805 Y-53.474 Z-0.6 I-0.231 J-2.914
X1.748 Y-55.002 Z-0.8 I2.805 J0.811
X1.572 Y-50.208 Z-1. I-1.746 J2.336
X-2.846 Y-52.062 Z-1.2 I-1.568 J-2.455
X0.444 Y-55.538 Z-1.4 I2.847 J-0.6
X2.532 Y-51.238 Z-1.6 I-0.443 J2.872
X-2.222 Y-50.802 Z-1.8 I-2.528 J-1.426
X-0.954 Y-55.399 Z-2. I2.224 J-1.86
X2.895 Y-52.594 Z-2.2 I0.955 J2.734
X-1.083 Y-49.985 Z-2.4 I-2.891 J-0.071
X-2.119 Y-54.622 Z-2.6 I1.085 J-2.677
X2.579 Y-53.956 Z-2.8 I2.119 J1.958
X0.302 Y-49.8 Z-3. I-2.576 J1.291
X-2.78 Y-53.393 Z-3.2 I-0.298 J-2.863
X1.664 Y-55.007 Z-3.4 I2.78 J0.73
X1.606 Y-50.285 Z-3.6 I-1.662 J2.341
X-2.787 Y-52.003 Z-3.8 I-1.602 J-2.378
X0.367 Y-55.503 Z-4. I2.787 J-0.659
X2.526 Y-51.322 Z-4.2 I-0.366 J2.837
X-2.142 Y-50.778 Z-4.4 I-2.522 J-1.342
X-1.005 Y-55.332 Z-4.6 I2.143 J-1.884
X2.85 Y-52.665 Z-4.8 I1.006 J2.667
X-2.85 I-2.85 J0.
X2.85 I2.85 J0.
G1 X2.852 Y-52.554 F1000.
X2.894 Y-52.452
X3.502 Y-51.808
X3.581 Y-51.758
X3.897 Y-51.529
X4.199 Y-51.19
X4.453 Y-50.736
X4.622 Y-50.174
X4.671 Y-49.518
X4.567 Y-48.791
X4.278 Y-48.026
X3.794 Y-47.284
X3.165 Y-46.66
X2.429 Y-46.166
X1.619 Y-45.806
X0.763 Y-45.579
X-0.118 Y-45.482
X-1.004 Y-45.51
X-1.878 Y-45.658
X-2.724 Y-45.919
X-3.531 Y-46.287
X-4.284 Y-46.754
X-4.973 Y-47.31
X-5.589 Y-47.948
X-6.121 Y-48.656
X-6.563 Y-49.424
X-6.909 Y-50.24
X-7.152 Y-51.092
X-7.291 Y-51.968
X-7.322 Y-52.853
X-7.246 Y-53.736
X-7.064 Y-54.603
X-6.779 Y-55.442
X-6.394 Y-56.24
X-5.916 Y-56.986
X-5.351 Y-57.669
X-4.708 Y-58.278
X-3.996 Y-58.806
X-3.225 Y-59.243
X-2.407 Y-59.585
X-1.554 Y-59.825
X-0.679 Y-59.96
X0.207 Y-59.989
X1.09 Y-59.91
X1.956 Y-59.726
X2.794 Y-59.438
X3.592 Y-59.051
X4.336 Y-58.571
X5.018 Y-58.004
X5.625 Y-57.359
X6.151 Y-56.646
X6.651 Y-55.914
X7.184 Y-55.206
X7.687 Y-54.477
X8.138 Y-53.714
X8.524 Y-52.916
X8.823 Y-52.082
X9.039 Y-51.223
X9.156 Y-50.344
X9.183 Y-49.459
X9.106 Y-48.576
X8.941 Y-47.705
X8.677 Y-46.859
X8.332 Y-46.043
X7.897 Y-45.271
X7.392 Y-44.543
X6.81 Y-43.875
X6.17 Y-43.262
X5.47 Y-42.719
X4.725 Y-42.239
G3 X1.404 Y-41.05 I-5.013 J-8.772
X-2.994 Y-41.202 I-1.834 J-10.658
X-6.999 Y-43.034 I2.645 J-11.075
X-11.92 Y-52.06 I6.891 J-9.611
X1.025 Y-64.56 I11.916 J-0.612
X8.797 Y-60.738 I-1.022 J11.892
X11.972 Y-56.485 I-18.836 J17.37
X13.545 Y-52.36 I-12.755 J7.225
X10.909 Y-41.527 I-12.742 J2.637
X5.275 Y-37.349 I-10.84 J-8.731
X-3.423 Y-36.525 I-5.723 J-14.086
X-7.601 Y-37.956 I2.97 J-15.487
X-16.125 Y-56.629 I7.485 J-14.698
X6.122 Y-68.106 I16.121 J3.948
X11.97 Y-64.193 I-6.156 J15.526
X16.619 Y-57.755 I-17.65 J17.645
X18.374 Y-51.833 I-17.099 J8.286
X12.728 Y-36.63 I-17.681 J2.084
X2.483 Y-31.758 I-12.915 J-13.953
G1 X1.604 Y-31.643
G3 X-15.278 Y-37.847 I-2.027 J-20.554
X-15.921 Y-66.828 I15.211 J-14.835
X14.31 Y-68.462 I15.925 J14.149
X21.477 Y-58.457 I-18.789 J21.028
X22.757 Y-54.221 I-23.57 J9.433
X15.335 Y-32.643 I-22.085 J4.469
X1.672 Y-26.918 I-15.574 J-18.003
X-9.627 Y-28.557 I-2.169 J-24.818
X-25.644 Y-57.109 I9.466 J-24.078
X-19.045 Y-70.414 I25.489 J4.352
X16.991 Y-72.395 I19.048 J17.744
X23.815 Y-64.302 I-21.2 J24.798
X27.938 Y-49.994 I-24.315 J14.755
X16.174 Y-27.309 I-27.401 J0.184
X8.256 Y-23.412 I-16.173 J-22.873
X-15.672 Y-26.254 I-8.762 J-28.39
X-30.151 Y-46.566 I15.435 J-26.319
X-3.954 Y-83.179 I30.137 J-6.115
X20.641 Y-75.497 I3.956 J30.546
X30.626 Y-61.064 I-24.305 J27.484
X32.224 Y-55.078 I-32.376 J11.847
X20.934 Y-24.982 I-31.587 J5.316
X5.841 Y-17.938 I-21.094 J-25.503
X-21.029 Y-24.105 I-6.334 J-34.022
X-33.791 Y-41.766 I20.75 J-28.435
X-15.784 Y-84.478 I33.77 J-10.915
X22.532 Y-80.123 I15.788 J31.816
X29.29 Y-73.132 I-25.494 J31.407
X36.476 Y-58.045 I-31.385 J24.206
X35.174 Y-37.111 I-35.967 J8.271
X29.034 Y-26.397 I-34.778 J-12.814
X4.811 Y-12.965 I-29.21 J-24.12
X-16.813 Y-16.157 I-5.326 J-38.758
X-39.987 Y-57.316 I16.642 J-36.473
X-8.023 Y-92.121 I39.962 J4.619
X25.995 Y-83.425 I8.029 J39.476
X35.311 Y-72.813 I-29.285 J35.104
X42.116 Y-51.986 I-36.203 J23.354
X35.706 Y-27.52 I-41.535 J2.191
G1 X35.222 Y-26.778
X34.723 Y-26.045
X34.21 Y-25.323
G3 X7.885 Y-8.657 I-34.313 J-25.076
X-10.578 Y-9.022 I-8.391 J-42.698
X-44.017 Y-43.273 I10.315 J-43.519
X-27.571 Y-88.254 I43.962 J-9.424
X20.098 Y-92.952 I27.572 J35.571
X34.082 Y-82.235 I-21.154 J42.083
X45.208 Y-62.295 I-36.745 J33.577
X46.833 Y-52.7 I-46.262 J12.767
X29.641 Y-13.683 I-46.231 J2.926
X24.581 Y-10.105 I-28.09 J-34.355
X-10.384 Y-4.111 I-25.042 J-41.104
X-23.662 Y-8.933 I9.715 J-47.439
X-49.686 Y-49.688 I23.493 J-43.688
X-28.764 Y-93.296 I49.653 J-3.
X19.32 Y-98.546 I28.764 J40.619
X36.029 Y-87.113 I-19.923 J47.039
X49.263 Y-65.358 I-39. J38.629
X50.418 Y-61.082 I-57.226 J17.744
X37.431 Y-14.379 I-49.775 J11.316
X4.604 Y1.429 I-37.656 J-36.206
X-8.647 Y1.051 I-5.139 J-52.234
X-48.257 Y-27.275 I8.318 J-53.491
X-49.309 Y-75.981 I48.168 J-25.405
X-11.004 Y-106.091 I49.298 J23.296
X34.052 Y-95.288 I11.005 J53.462
G1 X34.748 Y-94.739
X35.43 Y-94.173
X36.103 Y-93.596
G3 X53.037 Y-69.057 I-39.542 J45.4
X56.452 Y-49.074 I-53.44 J19.416
X34.578 Y-5.441 I-55.905 J-0.727
X-2.661 Y6.397 I-34.929 J-45.389
X-13.191 Y5.041 I1.92 J-56.506
X-52.213 Y-24.558 I12.881 J-57.503
X-55.556 Y-73.436 I52.124 J-28.119
X-20.976 Y-108.146 I55.541 J20.751
X27.919 Y-104.999 I20.978 J55.474
X45.754 Y-90.625 I-29.286 J54.59
X58.817 Y-66.7 I-48.217 J41.854
X52.272 Y-18.074 I-58.267 J16.911
X14.554 Y9.38 I-52.321 J-32.245
G1 X13.695 Y9.596
X12.83 Y9.79
X11.963 Y9.972
G3 X-36.218 Y0.14 I-12.455 J-61.936
X-63.026 Y-41.117 I35.999 J-52.73
X-52.636 Y-89.217 I62.966 J-11.57
X-11.199 Y-115.763 I52.627 J36.535
X36.846 Y-105.103 I11.2 J63.118
X63.034 Y-69.256 I-39.87 J56.617
X64.398 Y-64.118 I-71.781 J21.801
X56.302 Y-15.525 I-63.766 J14.347
X16.658 Y13.767 I-56.325 J-34.757
X-31.568 Y8.448 I-17.186 J-65.457
G1 X-32.358 Y8.046
G3 X-64.736 Y-29.233 I32.161 J-60.633
X-63.781 Y-78.606 I64.684 J-23.445
X-30.01 Y-114.638 I63.773 J25.931
X19.2 Y-118.791 I30.01 J61.971
X46.749 Y-103.269 I-19.442 J66.714
X58.81 Y-89.163 I-49.616 J54.633
X70.486 Y-56.074 I-60.004 J39.779
X70.222 Y-41.04 I-71.11 J6.267
X47.186 Y2.691 I-69.678 J-8.771
X1.129 Y20.734 I-47.491 J-53.424
X-45.785 Y4.942 I-1.62 J-72.769
X-71.956 Y-37.094 I45.559 J-57.529
X-65.547 Y-86.201 I71.888 J-15.59
X-29.478 Y-120.137 I65.535 J33.518
X19.929 Y-123.547 I29.479 J67.466
X49.857 Y-106.897 I-20.16 J71.457
X60.516 Y-95.069 I-52.136 J57.704
X74.553 Y-61.921 I-62.246 J45.905
X75.515 Y-47.795 I-75.946 J12.265
X57.89 Y-1.477 I-74.893 J-1.985
X15.293 Y23.898 I-58.021 J-48.959
X-33.96 Y17.922 I-15.813 J-75.621
X-69.607 Y-16.611 I33.649 J-70.4
X-77.32 Y-65.646 I69.5 J-36.056
X-54.029 Y-109.482 I77.294 J12.962
X-9.078 Y-130.543 I54.026 J56.808
X39.513 Y-120.388 I9.079 J77.886
X63.247 Y-99.377 I-41.395 J70.671
X72.866 Y-83.493 I-65.166 J50.315
X78.781 Y-34.167 I-72.786 J33.746
X54.358 Y9.087 I-78.353 J-15.72
X9.158 Y29.738 I-54.617 J-59.754
X-39.67 Y20.375 I-9.665 J-81.595
X-74.307 Y-15.309 I39.385 J-72.882
X-82.349 Y-64.389 I74.208 J-37.358
X-60.94 Y-109.282 I82.32 J11.706
X-17.742 Y-133.934 I60.938 J56.609
X31.799 Y-129.53 I17.743 J81.269
X59.548 Y-110.849 I-32.442 J78.139
X70.229 Y-97.869 I-61.796 J61.735
X84.57 Y-59.195 I-71.568 J48.535
X85.09 Y-50.353 I-89.846 J9.715
X70.758 Y-2.702 I-84.425 J0.588
X32.141 Y28.699 I-70.703 J-47.503
X-17.428 Y33.416 I-32.624 J-80.027
X-61.488 Y10.189 I17.015 J-85.679
X-85.793 Y-33.294 I61.304 J-62.8
X-82.56 Y-83.006 I85.73 J-19.385
X-52.838 Y-122.986 I82.541 J30.324
X-6.166 Y-140.409 I52.835 J70.308
X42.484 Y-129.687 I6.168 J87.747
X68.292 Y-108.359 I-44. J79.52
X77.906 Y-94.566 I-70.349 J59.284
X89.806 Y-46.152 I-78.454 J44.952
X73.951 Y1.1 I-89.306 J-3.68
X35.288 Y32.566 I-73.923 J-51.345
X-14.181 Y38.835 I-35.758 J-83.846
X-59.639 Y18.306 I13.749 J-91.036
X-87.81 Y-22.862 I59.429 J-70.892
X-90.554 Y-72.672 I87.734 J-29.813
X-67.087 Y-116.695 I90.528 J19.99
X-24.207 Y-142.19 I67.08 J64.015
X25.679 Y-141.779 I24.207 J89.512
X62.501 Y-121.233 I-25.928 J89.738
X68.204 Y-115.661 I-59.777 J66.877
X90.915 Y-76.058 I-71.024 J67.045
X92.04 Y-71.773 I-121.664 J34.236
X90.425 Y-21.893 I-91.525 J22.002
X63.514 Y20.136 I-89.999 J-27.994
X18.966 Y42.66 I-63.724 J-70.722
X-30.88 Y39.734 I-19.473 J-94.299
X-72.647 Y12.354 I30.513 J-92.093
X-95.329 Y-32.142 I72.484 J-64.979
X-92.992 Y-82.033 I95.283 J-20.536
X-66.256 Y-124.221 I92.984 J29.361
X-22.139 Y-147.639 I66.253 J71.55
X27.785 Y-146.144 I22.14 J94.965
X66.015 Y-124.501 I-28.058 J94.149
X70.48 Y-120.197 I-59.035 J65.716
X95.123 Y-78.68 I-73.404 J71.642
G1 X95.368 Y-77.828
X95.615 Y-76.977
G3 X96.78 Y-27.027 I-95.194 J27.209
X73.358 Y17.105 I-96.267 J-22.809
X31.407 Y44.256 I-73.444 J-67.496
X-18.449 Y47.82 I-31.892 J-95.65
X-63.956 Y27.129 I18.023 J-100.029
X-94.164 Y-12.709 I63.741 J-79.705
X-101.862 Y-62.109 I94.089 J-39.961
X-85.222 Y-109.257 I101.835 J9.43
X-48.225 Y-142.887 I85.218 J56.585
X0.291 Y-154.966 I48.226 J90.223
X48.739 Y-142.611 I-0.292 J102.311
X79.376 Y-117.463 I-50.205 J92.401
X85.794 Y-108.991 I-78.157 J65.879
X103.471 Y-62.188 I-87.235 J59.687
X97.3 Y-12.557 I-103.057 J12.384
X68.603 Y28.404 I-96.953 J-37.39
X24.132 Y51.305 I-68.808 J-78.988
X-25.898 Y51.119 I-24.633 J-102.857
X-70.305 Y28.06 I25.501 J-103.398
X-99.335 Y-12.699 I70.106 J-80.65
X-106.655 Y-62.202 I99.262 J-39.971
X-90.677 Y-109.625 I106.632 J9.524
X-54.894 Y-144.608 I90.674 J56.954
X-7.123 Y-159.512 I54.894 J91.938
X42.204 Y-151.082 I7.124 J106.848
X77.043 Y-127.157 I-42.942 J99.859
X82.427 Y-121.276 I-72.877 J72.132
X105.564 Y-76.862 I-84.906 J72.465
X106.54 Y-26.814 I-105.392 J27.088
X84.921 Y18.331 I-106.062 J-23.043
X45.37 Y49.019 I-84.909 J-68.601
X-3.703 Y58.946 I-45.801 J-100.155
X-52.138 Y46.236 I3.227 J-110.943
X-90.111 Y13.589 I51.845 J-98.712
X-110.004 Y-32.371 I89.985 J-66.234
X-107.839 Y-82.405 I109.962 J-20.305
X-84.057 Y-126.479 I107.828 J29.729
X-43.427 Y-155.758 I84.056 J73.811
X5.908 Y-164.376 I43.427 J103.088
X54.058 Y-150.605 I-5.912 J111.735
X87.787 Y-122.3 I-55.639 J100.551
X91.577 Y-117.39 I-77.819 J63.992
X111.68 Y-71.49 I-93.47 J68.289
X110.172 Y-21.419 I-111.394 J21.703
X87.194 Y23.092 I-109.698 J-28.442
X47.302 Y53.395 I-87.195 J-73.378
X-1.716 Y63.769 I-47.726 J-104.514
X-50.518 Y52.401 I1.233 J-115.726
X-89.989 Y21.524 I50.214 J-104.856
X-112.829 Y-23.083 I89.843 J-74.154
X-114.834 Y-73.158 I112.776 J-29.593
X-95.639 Y-119.451 I114.826 J20.485
X-58.789 Y-153.417 I95.632 J66.778
X-11.089 Y-168.787 I58.79 J100.749
X38.658 Y-162.724 I11.088 J116.129
X80.666 Y-137.005 I-39.082 J111.002
G1 X81.315 Y-136.4
G3 X109.586 Y-94.979 I-84.59 J88.095
X118.493 Y-45.646 I-109.903 J45.313
X106.13 Y2.93 I-117.955 J-4.159
X74.725 Y41.999 I-105.82 J-52.906
X29.992 Y64.63 I-74.937 J-92.599
X-20.091 Y66.952 I-30.48 J-116.1
X-66.79 Y48.692 I19.656 J-119.111
X-102.083 Y13.072 I66.532 J-101.216
X-119.952 Y-33.781 I101.983 J-65.729
X-117.358 Y-83.86 I119.925 J-18.894
X-94.748 Y-128.619 I117.338 J31.182
X-55.981 Y-160.426 I94.739 J75.941
X-7.667 Y-173.858 I55.984 J107.768
X41.954 Y-166.622 I7.665 J121.204
X84.458 Y-140.002 I-42.43 J114.99
X113.145 Y-98.838 I-87.422 J91.502
X123.348 Y-49.727 I-113.445 J49.182
X113.08 Y-0.636 I-122.793 J-0.063
X84.036 Y40.255 I-112.708 J-49.295
X41.114 Y66.209 I-84.151 J-90.697
X-8.576 Y73.083 I-41.571 J-117.462
X-56.978 Y59.888 I8.107 J-125.103
X-96.368 Y28.814 I56.689 J-112.363
X-120.512 Y-15.166 I96.243 J-81.454
X-125.604 Y-65.08 I120.459 J-37.506
X-110.846 Y-113.032 I125.567 J12.399
X-78.571 Y-151.446 I110.823 J60.346
X-33.881 Y-174.252 I78.569 J98.773
X16.163 Y-177.846 I33.884 J121.604
X63.654 Y-161.661 I-16.184 J125.26
X101.25 Y-128.411 I-65.507 J111.949
X123.603 Y-83.47 I-103.207 J79.363
X127.079 Y-33.409 I-123.383 J33.717
X110.968 Y14.114 I-126.462 J-16.378
X77.788 Y51.76 I-110.69 J-64.114
X32.706 Y73.811 I-78.011 J-102.382
X-17.381 Y77.028 I-33.192 J-125.266
X-64.958 Y61.035 I16.945 J-129.173
X-102.986 Y28.272 I64.7 J-113.549
X-125.878 Y-16.401 I102.868 J-80.915
X-130.279 Y-66.404 I125.823 J-36.271
X-115.55 Y-114.391 I130.242 J13.723
X-83.854 Y-153.315 I115.52 J61.7
X-39.847 Y-177.462 I83.836 J100.616
X10.01 Y-183.286 I39.844 J124.764
X58.399 Y-169.934 I-10.007 J130.619
X97.705 Y-140.116 I-59.516 J119.271
G1 X98.306 Y-139.465
G3 X124.394 Y-96.552 I-101.369 J91.011
X132.891 Y-47.069 I-124.705 J46.885
X122.358 Y2.017 I-132.374 J-2.731
X94.299 Y43.649 I-121.986 J-51.946
X52.795 Y71.899 I-94.38 J-94.045
X3.792 Y82.85 I-53.222 J-123.05
X-45.815 Y75.068 I-4.275 J-134.749
X-89.159 Y49.71 I45.479 J-127.459
X-120.292 Y10.308 I88.995 J-102.32
X-134.962 Y-37.72 I120.243 J-62.981
X-131.167 Y-87.795 I134.967 J-14.952
X-109.43 Y-133.065 I131.189 J35.138
X-72.725 Y-167.339 I109.451 J80.422
X-26.074 Y-185.929 I72.737 J114.703
X24.143 Y-186.293 I26.075 J133.294
X71.06 Y-168.383 I-24.179 J133.75
X108.416 Y-134.799 I-73.023 J118.79
X131.605 Y-90.236 I-110.593 J85.863
X137.38 Y-40.342 I-131.595 J40.513
X124.802 Y8.282 I-136.826 J-9.455
X95.562 Y49.118 I-124.457 J-58.23
X53.619 Y76.752 I-95.663 J-99.544
X4.576 Y87.612 I-54.049 J-127.915
X-45.133 Y80.371 I-5.059 J-139.501
X-89.082 Y56.036 I44.788 J-132.742
X-121.639 Y17.777 I88.898 J-108.629
X-138.649 Y-29.493 I121.559 J-70.439
X-137.946 Y-79.726 I138.611 J-23.181
X-119.622 Y-126.503 I137.917 J27.047
X-86.021 Y-163.85 I119.596 J73.813
X-41.434 Y-186.997 I86.001 J111.145
X8.446 Y-192.988 I41.428 J134.282
X57.246 Y-181.058 I-8.446 J140.329
X98.781 Y-152.786 I-57.949 J129.78
X128.161 Y-112.012 I-101.807 J104.329
X141.808 Y-63.653 I-128.867 J62.473
X137.794 Y-13.57 I-141.362 J13.873
X116.57 Y31.97 I-137.287 J-36.269
X80.827 Y67.283 I-116.418 J-82.09
X35.065 Y88.034 I-81.088 J-117.987
X-15.048 Y91.753 I-35.543 J-139.451
X-63.4 Y78.067 I14.582 J-143.776
X-104.168 Y48.683 I63.063 J-130.468
X-132.472 Y7.157 I103.968 J-101.271
X-144.933 Y-41.529 I132.384 J-59.82
X-140.066 Y-91.548 I144.929 J-11.145
X-118.456 Y-136.92 I140.1 J38.896
X-82.686 Y-172.221 I118.483 J84.282
X-37.034 Y-193.232 I82.691 J119.567
X13.045 Y-197.442 I37.032 J140.545
X61.564 Y-184.349 I-13.036 J144.749
X102.774 Y-155.575 I-62.351 J133.197
X132.142 Y-114.772 I-105.81 J107.126
X146.314 Y-66.547 I-132.935 J65.26
X143.423 Y-16.369 I-145.89 J16.768
X123.755 Y29.883 I-142.853 J-33.44
X89.644 Y66.796 I-123.491 J-79.898
X45.117 Y90.115 I-89.814 J-117.327
X-4.645 Y97.22 I-45.571 J-141.369
X-53.939 Y87.372 I4.168 J-149.173
X-97.186 Y61.745 I53.611 J-139.775
X-129.525 Y23.258 I96.998 J-114.333
X-147.335 Y-23.753 I129.406 J-75.904
X-148.624 Y-74.007 I147.258 J-28.921
X-133.251 Y-121.87 I148.605 J21.33
X-102.94 Y-161.976 I133.275 J69.22
X-61.089 Y-189.827 I102.957 J109.336
X-12.391 Y-202.304 I61.086 J137.154
X37.696 Y-198.007 I12.394 J149.598
X83.562 Y-177.425 I-37.759 J145.539
X120.223 Y-143.01 I-85.752 J128.08
X143.962 Y-98.682 I-122.527 J94.14
X152.061 Y-49.061 I-144.073 J48.987
X143.484 Y0.477 I-151.438 J-0.71
X119.16 Y44.477 I-142.965 J-50.311
X81.798 Y78.12 I-119.058 J-94.647
X35.524 Y97.785 I-82.084 J-128.879
X-14.627 Y101.413 I-36.001 J-149.196
X-63.272 Y88.684 I14.155 J-153.409
X-105.248 Y60.998 I62.95 J-141.104
X-136.125 Y21.309 I105.09 J-113.611
X-152.653 Y-26.183 I136.033 J-73.965
X-153.097 Y-76.466 I152.583 J-26.492
X-137.413 Y-124.243 I153.084 J23.79
X-107.253 Y-164.481 I137.437 J71.594
X-65.796 Y-192.939 I107.254 J111.818
X-17.407 Y-206.623 I65.786 J140.239
X32.814 Y-204.09 I17.41 J153.946
X79.582 Y-185.609 I-32.859 J151.568
X118.068 Y-153.232 I-81.22 J135.607
X144.598 Y-110.498 I-120.787 J104.591
X156.402 Y-61.611 I-145.087 J60.898
X152.094 Y-11.505 I-155.927 J11.831
X132.085 Y34.632 I-151.507 J-38.298
X98.472 Y72.039 I-131.798 J-84.626
X54.755 Y96.903 I-98.629 J-122.55
X5.433 Y106.743 I-55.19 J-148.097
X-44.49 Y100.63 I-5.924 J-158.538
X-90.008 Y79.23 I44.09 J-152.887
X-126.589 Y44.709 I89.779 J-131.778
X-150.605 Y0.514 I126.469 J-97.348
X-159.68 Y-48.959 I150.515 J-53.179
X-152.918 Y-98.801 I159.66 J-3.718
X-130.989 Y-144.068 I152.933 J46.142
X-96.069 Y-180.271 I130.972 J91.388
X-51.624 Y-203.82 I96.064 J127.59
X-2.058 Y-212.379 I51.629 J151.18
X47.711 Y-205.1 I2.057 J159.714
X92.755 Y-182.715 I-47.836 J152.774
X128.772 Y-147.589 I-95.131 J133.569
X152.52 Y-103.237 I-131.081 J98.721
X161.589 Y-53.757 I-152.703 J53.56
X154.966 Y-3.892 I-161.039 J3.981
X133.273 Y41.493 I-154.423 J-45.932
X98.654 Y77.988 I-133.025 J-91.521
X54.501 Y102.094 I-98.828 J-128.527
X5.09 Y111.547 I-54.939 J-153.303
X-44.854 Y105.506 I-5.581 J-163.337
X-90.61 Y84.591 I44.459 J-157.771
X-127.881 Y50.798 I90.375 J-137.127
X-153.182 Y7.312 I127.727 J-103.418
X-164.152 Y-41.788 I153.118 J-59.983
X-159.765 Y-91.907 I164.146 J-10.883
X-140.435 Y-138.357 I159.735 J39.227
X-107.971 Y-176.792 I140.438 J85.69
X-65.409 Y-203.618 I107.98 J124.143
X-16.73 Y-216.327 I65.402 J150.927
X33.514 Y-213.731 I16.732 J163.669
X80.625 Y-196.073 I-33.546 J161.166
X120.264 Y-165.081 I-81.895 J145.595
X149.045 Y-123.801 I-123.288 J116.628
X164.36 Y-75.87 I-149.971 J74.333
X164.651 Y-25.557 I-163.982 J26.107
X149.834 Y22.526 I-164.045 J-24.23
X121.281 Y63.954 I-149.404 J-72.418
X81.646 Y94.95 I-121.245 J-114.197
X34.575 Y112.731 I-81.966 J-145.791
X-15.653 Y115.745 I-35.055 J-164.174
X-64.529 Y103.773 I15.189 J-167.764
X-107.7 Y77.919 I64.194 J-156.16
X-141.346 Y40.5 I107.479 J-130.479
X-162.496 Y-5.161 I141.253 J-93.156
X-169.284 Y-55.023 I162.432 J-47.507
X-161.116 Y-104.678 I169.26 J2.345
X-138.711 Y-149.737 I161.121 J52.015
X-104.052 Y-186.22 I138.697 J97.056
X-60.2 Y-210.905 I104.06 J133.566
X-11.03 Y-221.609 I60.197 J158.233
X39.115 Y-217.389 I11.033 J168.937
X85.805 Y-198.619 I-39.16 J164.863
X124.992 Y-167.038 I-87.225 J148.335
X153.514 Y-125.567 I-127.996 J118.573
X168.922 Y-77.655 I-154.451 J76.104
X169.736 Y-27.336 I-168.579 J27.895
X155.829 Y21.029 I-169.119 J-22.447
X128.419 Y63.234 I-155.366 J-70.896
X89.913 Y95.638 I-128.346 J-113.438
X43.663 Y115.482 I-90.18 J-146.359
X-6.349 Y121.121 I-44.133 J-166.839
X-55.868 Y112.12 I5.875 J-173.049
X-100.719 Y89.282 I55.491 J-164.43
X-137.141 Y54.544 I100.491 J-141.826
X-162.091 Y10.831 I136.995 J-107.17
X-173.487 Y-38.194 I162.031 J-63.502
X-170.378 Y-88.429 I173.45 J-14.48
X-153.028 Y-135.676 I170.372 J35.756
X-122.884 Y-175.984 I153.03 J83.015
X-82.471 Y-205.985 I122.882 J123.31
X-35.163 Y-223.17 I82.474 J153.333
X15.083 Y-226.104 I35.163 J170.49
X64.069 Y-214.541 I-15.085 J173.452
X107.713 Y-189.466 I-64.385 J162.585
X142.541 Y-153.118 I-110.38 J140.623
X165.891 Y-108.52 I-144.801 J104.225
X175.754 Y-59.159 I-166.181 J58.871
X171.209 Y-9.03 I-175.231 J9.383
X152.609 Y37.742 I-170.597 J-40.757
X121.499 Y77.312 I-152.269 J-87.7
X80.46 Y106.46 I-121.521 J-127.629
X32.865 Y122.849 I-80.801 J-157.352
X-17.418 Y125.201 I-33.349 J-174.331
X-66.348 Y113.369 I16.955 J-177.214
X-110.021 Y88.332 I65.997 J-165.726
X-144.971 Y52.101 I109.8 J-140.89
X-168.43 Y7.56 I144.848 J-104.739
X-178.546 Y-41.755 I168.37 J-60.232
X-174.517 Y-91.934 I178.52 J-10.918
X-156.666 Y-139.005 I174.512 J39.261
X-126.406 Y-179.236 I156.667 J86.342
X-86.135 Y-209.445 I126.409 J126.569
X-39.042 Y-227.235 I86.136 J156.789
X11.143 Y-231.201 I39.045 J174.569
X60.445 Y-221.026 I-11.148 J178.547
X104.969 Y-197.53 I-60.642 J168.847
X141.316 Y-162.69 I-107.272 J148.292
X166.87 Y-119.306 I-143.953 J114.008
X179.587 Y-70.593 I-167.479 J69.737
X178.364 Y-20.263 I-179.151 J20.827
X163.258 Y27.761 I-177.733 J-29.518
X135.459 Y69.734 I-162.812 J-77.638
X97.154 Y102.405 I-135.369 J-119.923
X51.338 Y123.277 I-97.406 J-153.088
X1.554 Y130.787 I-51.79 J-174.556
X-48.388 Y124.405 I-2.044 J-182.618
X-94.699 Y104.649 I47.99 J-176.649
X-133.886 Y73.035 I94.423 J-157.141
X-163.002 Y31.958 I133.727 J-125.645
X-179.864 Y-15.484 I162.918 J-84.622
X-183.204 Y-65.724 I179.83 J-37.187
X-172.777 Y-114.982 I183.187 J13.046
X-149.363 Y-159.557 I172.773 J62.316
X-114.726 Y-196.1 I149.367 J106.89
X-71.466 Y-221.863 I114.727 J143.443
X-22.837 Y-234.913 I71.471 J169.199
X27.509 Y-234.265 I22.833 J182.257
X75.788 Y-219.973 I-27.512 J181.628
X118.392 Y-193.135 I-76.313 J168.374
X152.299 Y-155.903 I-121.243 J144.474
X175.161 Y-111.035 I-154.501 J106.981
X185.199 Y-61.692 I-175.459 J61.387
X181.576 Y-11.47 I-184.685 J11.919
X164.539 Y35.913 I-180.938 J-38.308
X135.359 Y76.948 I-164.13 J-85.817
X96.217 Y108.624 I-135.295 J-127.164
X50.013 Y128.645 I-96.489 J-159.351
X0.139 Y135.587 I-50.468 J-179.939
X-49.783 Y128.99 I-0.627 J-187.434
X-96.156 Y109.357 I49.386 J-181.23
X-135.656 Y78.123 I95.88 J-161.849
X-165.461 Y37.532 I135.5 J-130.733
X-183.447 Y-9.504 I165.371 J-90.193
X-188.33 Y-59.625 I183.417 J-43.168
X-179.766 Y-109.249 I188.296 J6.946
X-158.365 Y-154.833 I179.763 J56.58
X-125.656 Y-193.123 I158.35 J102.155
X-83.976 Y-221.384 I125.659 J140.457
X-36.3 Y-237.598 I83.971 J168.711
X13.968 Y-240.61 I36.304 J184.939
X63.239 Y-230.2 I-13.973 J187.953
X108.001 Y-207.127 I-63.412 J177.974
X145.16 Y-173.132 I-110.091 J157.646
X172.3 Y-130.704 I-148.017 J124.576
X187.498 Y-82.689 I-173.239 J81.246
X189.575 Y-32.371 I-187.189 J32.93
X178.344 Y16.72 I-188.942 J-17.397
X154.591 Y61.127 I-177.806 J-66.55
X120.01 Y97.738 I-154.36 J-111.167
X77.043 Y124.008 I-120.131 J-148.205
X28.706 Y138.147 I-77.417 J-174.982
X-21.647 Y139.21 I-29.194 J-189.715
X-70.548 Y127.16 I21.184 J-191.213
X-114.656 Y102.848 I70.197 J-179.526
X-150.967 Y67.946 I114.431 J-155.392
X-177.018 Y24.842 I150.823 J-120.576
X-191.039 Y-23.533 I176.966 J-77.511
X-192.081 Y-73.887 I190.98 J-29.14
X-180.075 Y-122.801 I192.078 J21.214
X-155.836 Y-166.95 I180.058 J70.128
X-121.014 Y-203.338 I155.84 J114.281
X-77.97 Y-229.49 I121.022 J150.69
X-29.631 Y-243.632 I77.964 J176.8
X20.721 Y-244.804 I29.633 J190.984
X69.665 Y-232.924 I-20.72 J192.126
X113.886 Y-208.815 I-69.908 J180.838
X150.49 Y-174.211 I-116.143 J159.518
X177.209 Y-131.509 I-153.289 J125.621
X192.231 Y-83.431 I-178.137 J82.047
X194.45 Y-33.112 I-191.926 J33.672
X183.678 Y16.09 I-193.814 J-16.653
X160.632 Y60.875 I-183.141 J-65.92
X126.874 Y98.256 I-160.347 J-110.872
X84.677 Y125.76 I-126.967 J-148.674
X36.861 Y141.591 I-85.019 J-176.66
X-13.411 Y144.745 I-37.346 J-193.062
X-62.839 Y135.043 I12.947 J-196.725
X-108.202 Y113.147 I62.447 J-187.311
X-146.559 Y80.496 I107.958 J-165.679
X-175.425 Y39.215 I146.404 J-133.107
X-192.938 Y-8.015 I175.32 J-91.871
X-197.964 Y-58.136 I192.929 J-44.661
X-190.181 Y-107.903 I197.908 J5.458
X-170.095 Y-154.097 I190.184 J55.23
X-139.003 Y-193.728 I170.111 J101.447
X-98.918 Y-224.234 I138.979 J141.03
X-52.435 Y-243.641 I98.933 J171.594
X-2.558 Y-250.691 I52.429 J190.966
X47.484 Y-244.932 I2.564 J198.01
X94.455 Y-226.735 I-47.527 J192.397
X135.351 Y-197.322 I-95.377 J175.751
X167.71 Y-158.709 I-138.423 J148.872
X189.569 Y-113.32 I-169.784 J109.722
X199.451 Y-63.924 I-189.813 J63.66
X196.653 Y-13.627 I-198.973 J14.158
X181.329 Y34.359 I-196.016 J-36.154
X154.469 Y76.975 I-180.828 J-84.202
X117.8 Y111.515 I-154.339 J-127.117
X73.669 Y135.809 I-117.956 J-162.04
X24.881 Y148.358 I-74.069 J-186.855
X-25.496 Y148.404 I-25.37 J-200.003
X-74.316 Y135.973 I25.033 J-200.404
X-118.55 Y111.864 I73.959 J-188.328
X-155.463 Y77.579 I118.347 J-164.433
X-182.778 Y35.249 I155.278 J-130.174
X-198.814 Y-12.51 I182.711 J-87.921
X-202.58 Y-62.747 I198.818 J-40.164
X-193.847 Y-112.363 I202.503 J10.064
X-173.157 Y-158.297 I193.863 J59.697
X-141.782 Y-197.713 I173.178 J105.653
X-101.661 Y-228.182 I141.746 J145.001
X-55.269 Y-247.824 I101.679 J175.546
X-5.467 Y-255.424 I55.268 J195.179
X44.672 Y-250.519 I5.467 J202.813
X92.056 Y-233.408 I-44.741 J198.063
X133.786 Y-205.18 I-92.812 J182.166
X167.444 Y-167.687 I-136.654 J156.531
X191.106 Y-123.204 I-169.849 J118.879
X203.264 Y-74.312 I-191.673 J73.622
X203.104 Y-23.931 I-202.795 J24.548
X190.608 Y24.875 I-202.491 J-25.843
X166.536 Y69.132 I-190.087 J-74.715
X132.371 Y106.159 I-166.241 J-119.118
X90.202 Y133.729 I-132.477 J-156.592
X42.589 Y150.203 I-90.545 J-184.642
X-7.599 Y154.628 I-43.058 J-201.555
X-57.365 Y146.768 I7.121 J-206.566
X-103.756 Y127.109 I56.988 J-199.05
X-144.031 Y96.835 I103.429 J-179.523
X-175.817 Y57.743 I143.869 J-149.453
X-197.243 Y12.141 I175.768 J-110.416
X-207.049 Y-37.28 I197.117 J-64.795
X-204.661 Y-87.608 I207.027 J-15.4
X-190.218 Y-135.878 I204.715 J34.957
X-164.573 Y-179.247 I190.159 J83.18
X-129.237 Y-215.163 I164.56 J126.561
X-86.289 Y-241.509 I129.275 J162.559
X-38.259 Y-256.733 I86.273 J188.808
X12.023 Y-259.941 I38.261 J204.022
X61.598 Y-250.942 I-12.033 J207.345
X107.546 Y-230.27 I-61.675 J198.483
X147.213 Y-199.199 I-108.812 J179.774
X178.44 Y-159.65 I-150.404 J150.854
X199.476 Y-113.861 I-180.392 J110.602
X209.023 Y-64.387 I-199.647 J64.185
X206.465 Y-14.066 I-208.527 J14.624
X191.927 Y34.178 I-205.882 J-35.728
X166.262 Y77.538 I-191.371 J-83.997
X130.978 Y113.508 I-166.029 J-127.574
X88.131 Y140.023 I-131.134 J-164.024
X40.206 Y155.582 I-88.478 J-190.944
X-10.043 Y159.325 I-40.679 J-206.949
X-59.751 Y151.065 I9.571 J-211.299
X-106.098 Y131.29 I59.383 J-203.37
X-146.468 Y101.134 I105.76 J-183.686
X-178.59 Y62.31 I146.274 J-153.724
X-200.656 Y17.008 I178.573 J-115.002
X-211.424 Y-32.218 I200.564 J-69.664
X-210.294 Y-82.595 I211.309 J-20.461
X-197.328 Y-131.289 I210.35 J29.936
X-173.255 Y-175.557 I197.369 J78.649
X-139.433 Y-212.91 I173.181 J122.827
X-97.764 Y-241.245 I139.432 J160.232
X-50.594 Y-258.968 I97.801 J188.675
X-0.575 Y-265.079 I50.584 J206.27
X49.475 Y-259.238 I0.588 J212.326
X96.742 Y-241.774 I-49.517 J206.719
X138.588 Y-213.697 I-97.485 J190.512
X172.791 Y-176.686 I-141.333 J164.922
X197.572 Y-132.805 I-175.3 J127.936
X211.508 Y-84.377 I-198.439 J83.322
X213.747 Y-34.035 I-211.235 J34.618
X204.138 Y15.432 I-212.995 J-15.712
X183.211 Y61.273 I-203.557 J-65.229
X152.138 Y100.944 I-182.94 J-111.283
X112.658 Y132.261 I-152.061 J-151.151
X66.969 Y153.519 I-112.865 J-182.851
X17.589 Y163.576 I-67.42 J-204.775
X-32.777 Y161.907 I-18.073 J-215.337
X-81.391 Y148.627 I32.307 J-213.884
X-125.621 Y124.475 I81.001 J-200.92
X-163.083 Y90.767 I125.449 J-177.089
X-191.758 Y49.325 I162.988 J-143.418
X-210.106 Y2.389 I191.565 J-101.939
X-217.142 Y-47.513 I210.006 J-55.058
X-212.487 Y-97.693 I217.239 J-5.154
X-196.391 Y-145.449 I212.516 J45.04
X-169.723 Y-188.209 I196.276 J92.712
X-133.919 Y-223.675 I169.705 J135.516
X-90.906 Y-249.934 I133.988 J171.118
X-42.998 Y-265.573 I90.906 J197.287
X7.223 Y-269.751 I42.986 J212.775
X57.056 Y-262.245 I-7.216 J217.079
X103.819 Y-243.457 I-57.143 J209.824
X145.021 Y-214.436 I-104.694 J192.392
X178.583 Y-176.835 I-147.84 J165.74
X202.824 Y-132.648 I-181.027 J128.051
X216.404 Y-84.114 I-203.68 J83.159
X218.532 Y-33.761 I-216.142 J34.355
X209.067 Y15.738 I-217.754 J-15.982
X188.512 Y61.753 I-208.423 J-65.508
X157.967 Y101.838 I-188.25 J-111.763
X119.067 Y133.881 I-157.927 J-152.094
X73.884 Y156.207 I-119.224 J-184.39
X24.807 Y167.671 I-74.289 J-207.262
X-25.592 Y167.694 I-25.301 J-219.416
X-74.686 Y156.297 I25.157 J-219.796
X-119.929 Y134.09 I74.266 J-208.498
X-158.986 Y102.236 I119.589 J-186.502
X-189.843 Y62.386 I158.893 J-154.907
X-210.908 Y16.599 I189.878 J-115.097
X-221.099 Y-32.76 I210.787 J-69.249
X-219.892 Y-83.146 I220.911 J-19.919
X-207.352 Y-131.961 I219.906 J30.473
X-184.123 Y-176.689 I207.496 J79.367
X-151.402 Y-215.023 I184.127 J124.034
X-110.878 Y-244.989 I151.301 J162.224
X-64.64 Y-265.044 I110.861 J192.269
X-15.069 Y-274.152 I64.671 J212.526
X35.278 Y-271.842 I15.06 J221.58
X83.807 Y-258.236 I-35.251 J219.068
X128.023 Y-234.046 I-83.993 J206.039
X165.721 Y-200.588 I-130.026 J184.468
X195.11 Y-159.638 I-169.012 J152.317
X214.719 Y-113.205 I-196.772 J110.456
X223.481 Y-63.57 I-214.712 J63.495
X220.902 Y-13.235 I-222.889 J13.812
X207.095 Y35.239 I-220.382 J-36.568
X182.767 Y79.38 I-206.669 J-85.131
X149.168 Y116.95 I-182.411 J-129.322
X108.02 Y146.057 I-149.104 J-167.146
X61.415 Y165.251 I-108.334 J-196.869
X11.706 Y173.587 I-61.896 J-216.704
X-38.613 Y170.672 I-12.187 J-225.354
X-87.034 Y156.672 I38.125 J-222.597
X-131.154 Y132.3 I86.615 J-208.914
X-168.79 Y98.771 I130.978 J-184.912
X-198.081 Y57.751 I168.801 J-151.505
X-217.582 Y11.272 I197.996 J-110.403
X-226.333 Y-38.367 I217.336 J-63.906
X-223.904 Y-88.713 I226.187 J-14.318
X-210.414 Y-137.279 I224.023 J36.07
X-186.528 Y-181.665 I210.581 J84.704
X-153.427 Y-219.678 I186.502 J128.985
X-112.748 Y-249.441 I153.302 J166.844
X-66.5 Y-269.486 I112.715 J196.684
X-16.968 Y-278.82 I66.535 J216.972
X33.404 Y-276.982 I16.958 J226.34
X82.125 Y-264.062 I-33.399 J224.274
X126.794 Y-240.71 I-82.221 J211.677
X165.265 Y-208.139 I-128.434 J190.7
X195.783 Y-168.017 I-168.569 J159.884
X216.898 Y-122.244 I-197.935 J119.065
X227.518 Y-72.968 I-217.279 J72.61
X227.073 Y-22.564 I-226.875 J23.202
X215.567 Y26.511 I-226.256 J-27.16
X193.562 Y71.86 I-215.08 J-76.353
X162.139 Y111.273 I-193.397 J-121.955
X122.843 Y142.843 I-162.113 J-161.546
X77.595 Y165.057 I-122.977 J-193.307
X28.59 Y176.864 I-77.963 J-215.974
X-21.81 Y177.72 I-29.086 J-228.495
X-71.193 Y167.601 I21.391 J-229.942
X-117.202 Y147.005 I70.871 J-220.005
X-157.652 Y116.925 I116.844 J-199.367
X-190.627 Y78.798 I157.273 J-169.347
X-214.567 Y34.436 I190.434 J-131.406
X-228.336 Y-14.056 I214.68 J-87.16
X-231.283 Y-64.379 I228.551 J-38.631
X-223.269 Y-114.146 I231.277 J11.713
X-204.676 Y-161.001 I223.051 J61.395
X-176.386 Y-202.723 I204.496 J108.208
X-139.739 Y-237.336 I176.417 J150.078
X-96.47 Y-263.198 I139.873 J184.888
X-48.629 Y-279.084 I96.52 J210.7
X1.516 Y-284.241 I48.612 J226.314
X51.588 Y-278.426 I-1.486 J231.316
X99.217 Y-261.917 I-51.556 J225.697
X142.158 Y-235.512 I-99.763 J210.36
X178.462 Y-200.534 I-144.718 J186.535
X206.543 Y-158.666 I-181.612 J152.159
X225.089 Y-111.79 I-207.88 J109.351
X233.168 Y-62.031 I-224.911 J62.053
X230.361 Y-11.699 I-232.495 J12.278
X216.786 Y36.849 I-229.833 J-38.098
X193.079 Y81.337 I-216.486 J-86.801
X160.361 Y119.688 I-192.856 J-131.398
X120.174 Y150.123 I-160.24 J-169.832
X74.402 Y171.244 I-120.307 J-200.556
X25.172 Y182.095 I-74.805 J-222.28
X-25.24 Y182.195 I-25.668 J-233.881
X-74.517 Y171.556 I24.842 J-234.496
X-120.404 Y150.68 I74.202 J-223.972
X-160.809 Y120.533 I120.038 J-203.031
X-193.894 Y82.496 I160.39 J-172.917
X-218.156 Y38.305 I193.601 J-135.046
X-232.491 Y-10.027 I218.169 J-91.003
X-236.249 Y-60.3 I232.764 J-42.673
X-229.257 Y-110.226 I236.472 J7.664
X-211.836 Y-157.533 I229.211 J57.548
X-184.779 Y-200.07 I211.593 J104.716
X-149.318 Y-235.902 I184.581 J147.205
X-107.065 Y-263.401 I149.3 J183.197
X-59.942 Y-281.314 I107.158 J210.962
X-10.091 Y-288.824 I59.988 J228.961
X40.218 Y-285.592 I10.079 J236.255
X88.698 Y-271.765 I-40.173 J232.752
X133.148 Y-247.982 I-88.771 J219.343
X171.604 Y-215.38 I-134.734 J197.904
X202.446 Y-175.496 I-174.848 J167.079
X224.329 Y-130.077 I-204.825 J126.666
X236.215 Y-81.082 I-225.161 J80.561
X237.518 Y-30.685 I-235.936 J31.319
X228.162 Y18.853 I-236.654 J-19.045
X208.566 Y65.302 I-227.234 J-68.509
X179.618 Y106.577 I-207.99 J-115.085
X142.629 Y140.833 I-179.551 J-156.78
X99.266 Y166.549 I-142.94 J-191.608
X51.473 Y182.597 I-99.709 J-217.757
X1.379 Y188.284 I-51.937 J-234.003
X-48.798 Y183.379 I-1.885 J-239.829
X-96.848 Y168.116 I48.258 J-235.174
X-140.663 Y143.175 I96.393 J-220.3
X-178.326 Y109.659 I140.459 J-195.756
X-208.19 Y69.039 I178.429 J-162.47
X-228.95 Y23.094 I208.436 J-121.846
X-239.701 Y-26.163 I229.047 J-75.791
X-239.973 Y-76.579 I239.516 J-26.504
X-229.758 Y-125.95 I239.608 J23.836
X-209.501 Y-172.118 I229.449 J73.143
X-180.089 Y-213.066 I209.421 J119.385
X-142.806 Y-247.004 I180.233 J160.548
X-99.281 Y-272.449 I143.005 J194.675
X-51.416 Y-288.287 I99.372 J220.072
X-1.304 Y-293.827 I51.411 J235.634
X48.864 Y-288.827 I1.327 J240.888
X96.897 Y-273.508 I-48.758 J235.836
X140.703 Y-248.55 I-97.084 J221.326
X178.43 Y-215.102 I-142.657 J198.914
X208.556 Y-174.67 I-181.853 J166.936
X229.805 Y-128.947 I-210.929 J125.826
X241.207 Y-79.834 I-230.587 J79.412
X242.223 Y-29.426 I-240.88 J30.069
X232.791 Y20.101 I-241.322 J-20.296
X213.318 Y66.606 I-231.802 J-69.734
X184.652 Y108.082 I-212.629 J-116.314
X148.041 Y142.746 I-184.456 J-158.148
X105.071 Y169.121 I-148.292 J-193.411
X57.593 Y186.091 I-105.552 J-220.404
X7.643 Y192.95 I-58.099 J-237.781
X-42.654 Y189.426 I-8.118 J-244.796
X-91.164 Y175.684 I42.159 J-241.314
X-135.842 Y152.316 I90.624 J-227.669
X-174.807 Y120.318 I135.324 J-204.509
X-206.421 Y81.041 I174.451 J-172.777
X-229.357 Y36.139 I206.365 J-133.722
X-242.652 Y-12.497 I229.621 J-88.902
X-245.747 Y-62.822 I243.086 J-40.207
X-238.513 Y-112.721 I246.081 J10.203
X-221.254 Y-160.096 I238.574 J60.082
X-194.697 Y-202.956 I221.05 J107.309
X-159.959 Y-239.5 I194.392 J150.003
X-118.5 Y-268.193 I159.721 J186.486
X-72.061 Y-287.829 I118.411 J215.302
X-22.593 Y-297.584 I72.077 J235.21
X27.825 Y-297.046 I22.595 J245.255
X77.073 Y-286.238 I-27.925 J244.848
X123.084 Y-265.616 I-77.308 J234.131
X163.95 Y-236.081 I-124.128 J214.788
X198.055 Y-198.94 I-166.674 J187.28
X224.062 Y-155.741 I-200.487 J150.125
X240.868 Y-108.202 I-224.789 J106.21
X247.722 Y-58.249 I-240.452 J58.439
X244.307 Y-7.944 I-246.984 J8.501
X230.755 Y40.622 I-243.745 J-41.844
X207.631 Y85.428 I-230.535 J-90.606
X175.904 Y124.617 I-207.685 J-135.701
X136.901 Y156.573 I-176.089 J-175.144
X92.245 Y179.988 I-137.148 J-207.272
X43.784 Y193.915 I-92.571 J-230.826
X-6.488 Y197.802 I-44.226 J-244.958
X-56.516 Y191.507 I5.944 J-249.163
X-104.263 Y175.299 I55.957 J-243.28
X-147.791 Y149.848 I103.821 J-227.512
X-185.339 Y116.192 I147.597 J-202.438
X-215.387 Y75.7 I185.453 J-169.014
X-236.722 Y30.011 I215.763 J-128.577
X-248.48 Y-19.022 I237.176 J-82.802
X-250.188 Y-69.418 I248.801 J-33.659
X-241.778 Y-119.135 I250.232 J16.76
X-223.59 Y-166.164 I241.556 J66.386
X-196.361 Y-208.603 I223.213 J113.259
X-161.192 Y-244.737 I195.988 J155.575
X-119.505 Y-273.104 I160.941 J191.698
X-72.985 Y-292.558 I119.413 J220.205
X-23.514 Y-302.311 I72.996 J239.914
X26.909 Y-301.969 I23.517 J249.952
X76.244 Y-291.545 I-27.011 J249.806
X122.497 Y-271.464 I-76.528 J239.571
X163.819 Y-242.564 I-123.595 J220.717
X198.63 Y-206.08 I-166.684 J193.888
X225.62 Y-163.484 I-201.487 J157.518
X243.699 Y-116.411 I-226.723 J114.081
X252.091 Y-66.689 I-243.34 J66.642
X250.428 Y-16.292 I-251.042 J16.942
X238.764 Y32.764 I-249.282 J-33.355
X217.567 Y78.517 I-237.891 J-82.428
X187.692 Y119.138 I-217.143 J-128.403
X150.34 Y153.014 I-187.728 J-169.458
X107.011 Y178.807 I-150.722 J-203.905
X59.431 Y195.509 I-107.55 J-230.265
X9.488 Y202.475 I-59.967 J-247.394
X-40.847 Y199.449 I-9.95 J-254.598
X-89.599 Y186.562 I40.437 J-251.642
X-134.861 Y164.332 I89.173 J-238.749
X-174.867 Y133.634 I134.359 J-216.514
X-208.058 Y95.671 I174.276 J-185.865
X-233.144 Y51.927 I207.425 J-148.017
X-249.148 Y4.108 I232.558 J-104.421
X-255.449 Y-45.923 I248.711 J-56.734
X-251.801 Y-96.218 I255.24 J-6.769
X-238.348 Y-144.817 I251.852 J43.557
X-215.613 Y-189.828 I238.623 J92.283
X-184.481 Y-229.498 I216.021 J137.477
X-146.165 Y-262.282 I184.892 J177.309
X-102.156 Y-286.903 I146.466 J210.155
X-54.17 Y-302.402 I102.299 J234.688
X-4.075 Y-308.176 I54.193 J249.971
X46.179 Y-304.001 I4.073 J255.469
X94.634 Y-290.038 I-46.105 J251.068
X139.408 Y-266.84 I-94.598 J237.389
X178.796 Y-235.351 I-140.456 J216.066
X211.367 Y-196.85 I-181.395 J186.486
X235.922 Y-152.803 I-213.411 J147.836
X251.484 Y-104.836 I-236.462 J103.22
X257.405 Y-54.757 I-251.089 J55.08
X253.432 Y-4.486 I-256.745 J5.003
X239.711 Y44.039 I-252.908 J-45.315
X216.771 Y88.947 I-239.49 J-94.022
X185.504 Y128.512 I-216.872 J-139.247
X147.122 Y161.221 I-185.855 J-179.215
X103.106 Y185.832 I-147.612 J-212.339
X55.146 Y201.418 I-103.632 J-237.298
X5.074 Y207.403 I-55.651 J-253.139
X-45.21 Y203.575 I-5.548 J-259.289
X-93.804 Y190.092 I44.74 J-255.552
X-138.876 Y167.473 I93.3 J-242.13
X-178.732 Y136.577 I138.305 J-219.571
X-211.877 Y98.57 I178.085 J-188.761
X-237.068 Y54.883 I211.179 J-150.875
X-253.36 Y7.158 I236.368 J-107.333
X-260.143 Y-42.813 I252.726 J-59.751
X-257.164 Y-93.155 I259.641 J-9.892
X-244.534 Y-141.977 I256.84 J40.398
X-222.727 Y-187.448 I244.41 J89.246
X-192.563 Y-227.862 I222.787 J134.821
X-155.173 Y-261.702 I192.752 J175.399
X-111.959 Y-287.698 I155.417 J209.435
X-64.544 Y-304.875 I112.172 J235.612
X-14.707 Y-312.588 I64.655 J252.912
X35.682 Y-310.547 I14.678 J260.656
X84.732 Y-298.829 I-35.841 J258.545
X130.604 Y-277.877 I-85.048 J246.898
X171.6 Y-248.506 I-131.77 J227.222
X206.266 Y-211.876 I-174.511 J199.876
X233.39 Y-169.358 I-209.25 J163.396
X251.954 Y-122.467 I-234.767 J120.063
X261.222 Y-72.895 I-251.885 J72.747
X260.818 Y-22.466 I-260.334 J23.133
X250.745 Y26.948 I-259.596 J-27.184
X231.377 Y73.51 I-249.508 J-76.478
X203.438 Y115.494 I-230.34 J-122.998
X167.973 Y151.347 I-202.735 J-165.071
X126.303 Y179.754 I-167.66 J-201.173
X79.975 Y199.678 I-126.355 J-229.972
X30.698 Y210.404 I-80.302 J-250.384
X-19.721 Y211.552 I-31.179 J-261.641
X-69.439 Y203.094 I19.213 J-263.295
X-116.646 Y185.349 I69.014 J-255.27
X-159.63 Y158.971 I116.382 J-237.858
X-196.833 Y124.922 I159.572 J-211.704
X-226.911 Y84.439 I196.994 J-177.774
X-248.774 Y38.992 I227.284 J-137.321
X-261.633 Y-9.774 I249.325 J-91.823
X-265.024 Y-60.093 I262.321 J-42.95
X-258.824 Y-110.144 I265.782 J7.515
X-243.258 Y-158.115 I259.593 J57.724
X-218.889 Y-202.27 I243.966 J105.838
X-186.6 Y-241.012 I219.486 J150.102
X-147.559 Y-272.939 I187.046 J188.893
X-103.179 Y-296.895 I147.845 J220.806
X-55.066 Y-312.014 I103.32 J244.684
X-4.96 Y-317.748 I55.101 J259.681
X45.325 Y-313.891 I4.944 J265.262
X93.97 Y-300.582 I-45.337 J261.263
X139.218 Y-278.308 I-94.055 J248.153
X179.459 Y-247.907 I-140.225 J227.447
X213.325 Y-210.533 I-182.102 J199.042
X239.667 Y-167.523 I-215.801 J161.743
X257.526 Y-120.357 I-240.574 J118.051
X266.216 Y-70.678 I-257.125 J70.581
X265.399 Y-20.251 I-265.12 J20.923
X255.092 Y29.117 I-264.055 J-29.371
X235.663 Y75.658 I-253.781 J-78.616
X207.815 Y117.705 I-234.566 J-125.108
X172.552 Y153.761 I-207.039 J-167.218
X131.141 Y182.547 I-172.145 J-203.464
X85.063 Y203.052 I-131.089 J-232.555
X35.96 Y214.561 I-85.305 J-253.438
X-14.429 Y216.683 I-36.414 J-265.362
X-64.329 Y209.356 I13.85 J-267.885
X-111.985 Y192.847 I63.694 J-260.913
X-155.729 Y167.745 I111.344 J-244.701
X-194.032 Y134.934 I155.112 J-219.836
X-225.556 Y95.565 I193.453 J-187.211
X-249.202 Y51.017 I225.029 J-147.991
X-264.144 Y2.846 I248.731 J-103.559
X-269.862 Y-47.264 I263.742 J-55.479
X-266.158 Y-97.562 I269.53 J-5.435
X-253.16 Y-146.294 I265.901 J44.823
X-231.323 Y-191.757 I252.979 J93.538
X-201.409 Y-232.363 I231.213 J139.008
X-164.463 Y-266.696 I201.36 J179.642
X-121.775 Y-293.555 I164.46 J214.021
X-74.835 Y-312.005 I121.796 J240.94
X-25.283 Y-321.4 I74.859 J259.453
X25.153 Y-321.413 I25.284 J268.915
X74.71 Y-312.042 I-25.196 J268.986
X121.66 Y-293.617 I-74.853 J259.767
X164.373 Y-266.797 I-122.377 J242.32
X201.418 Y-232.567 I-166.811 J217.687
X231.591 Y-192.149 I-204.94 J184.466
X253.872 Y-146.899 I-234.101 J143.381
X267.453 Y-98.325 I-254.931 J97.466
X271.829 Y-48.079 I-267.609 J48.618
X266.828 Y2.109 I-271.608 J-1.722
X252.618 Y50.502 I-266.551 J-51.988
X229.692 Y95.427 I-252.453 J-100.517
X198.85 Y135.334 I-229.717 J-145.663
X161.163 Y168.854 I-199.083 J-185.886
X117.937 Y194.842 I-161.577 J-219.804
X70.662 Y212.42 I-118.462 J-246.234
X20.96 Y221. I-71.208 J-264.253
X-29.473 Y220.302 I-21.441 J-273.236
X-78.921 Y210.363 I29.123 J-272.857
X-125.711 Y191.528 I78.739 J-263.14
X-168.259 Y164.443 I125.701 J-244.429
X-205.131 Y130.028 I168.404 J-217.386
X-235.085 Y89.447 I205.396 J-182.952
X-257.11 Y44.072 I235.435 J-142.317
X-270.467 Y-4.566 I257.505 J-96.865
X-274.704 Y-54.825 I270.877 J-48.145
X-269.68 Y-105.013 I275.099 J2.193
X-255.565 Y-153.435 I270.046 J52.451
X-232.834 Y-198.461 I255.882 J100.928
X-202.254 Y-238.572 I233.096 J145.995
X-164.857 Y-272.416 I202.457 J186.13
X-121.902 Y-298.852 I164.999 J219.983
X-74.838 Y-316.99 I121.989 J246.413
X-25.251 Y-326.217 I74.876 J264.53
X25.187 Y-326.223 I25.251 J273.73
X74.776 Y-317.007 I-25.214 J273.703
X121.845 Y-298.882 I-74.848 J264.548
X164.816 Y-272.472 I-122.361 J247.259
X202.294 Y-238.714 I-166.865 J222.931
X233.102 Y-198.775 I-205.428 J190.316
X256.24 Y-153.955 I-235.245 J149.824
X270.902 Y-105.694 I-256.796 J104.378
X276.564 Y-55.574 I-270.381 J55.921
X273.014 Y-5.261 I-275.524 J5.842
X260.365 Y43.565 I-271.825 J-44.368
X239.04 Y89.274 I-259.246 J-93.119
X209.757 Y130.341 I-238.124 J-138.818
X173.5 Y165.405 I-209.122 J-179.965
X131.481 Y193.307 I-173.177 J-215.204
X85.103 Y213.133 I-131.461 J-243.359
X35.902 Y224.241 I-85.343 J-263.484
X-14.496 Y226.278 I-36.351 J-274.915
X-64.435 Y219.189 I13.89 J-277.263
X-112.278 Y203.214 I63.713 J-270.457
X-156.462 Y178.886 I111.469 J-254.738
X-195.548 Y147.004 I155.588 J-230.638
X-228.261 Y108.611 I194.628 J-198.968
X-253.537 Y64.961 I227.321 J-160.777
X-270.554 Y17.479 I252.61 J-117.32
X-278.758 Y-32.29 I269.675 J-70.015
X-277.882 Y-82.722 I277.965 J-20.4
X-267.957 Y-132.176 I277.206 J29.914
X-249.304 Y-179.04 I267.428 J79.295
X-222.532 Y-221.789 I248.926 J126.134
X-188.513 Y-259.031 I222.306 J168.913
X-148.355 Y-289.552 I188.414 J206.23
X-103.365 Y-312.358 I148.351 J236.871
X-55.009 Y-326.707 I103.406 J259.821
X-4.861 Y-332.132 I55.043 J274.331
X45.446 Y-328.455 I4.831 J279.906
X94.272 Y-315.797 I-45.592 J276.367
X140.031 Y-294.573 I-94.67 J264.047
X181.25 Y-265.499 I-141.415 J244.237
X216.655 Y-229.568 I-184.571 J217.278
X245.169 Y-187.957 I-220.671 J181.792
X265.877 Y-141.961 I-248.056 J139.335
X278.073 Y-93.015 I-267.425 J92.629
X281.333 Y-42.679 I-278.753 J43.328
X275.536 Y7.428 I-281.56 J-7.184
X260.865 Y55.689 I-275.555 J-57.405
X237.797 Y100.546 I-260.821 J-105.771
X207.08 Y140.556 I-237.773 J-150.748
X169.712 Y174.437 I-207.13 J-190.904
X126.899 Y201.109 I-169.865 J-224.96
X80.02 Y219.73 I-127.163 J-251.823
X30.577 Y229.716 I-80.39 J-270.632
X-19.854 Y230.762 I-31.05 J-280.801
X-69.671 Y222.846 I19.276 J-282.012
X-117.297 Y206.227 I68.983 J-274.248
X-161.228 Y181.439 I116.496 J-257.784
X-200.079 Y149.269 I160.323 J-233.165
X-232.629 Y110.734 I199.099 J-201.187
X-257.852 Y67.051 I231.627 J-162.866
X-274.955 Y19.597 I256.901 J-119.401
X-283.401 Y-30.133 I274.133 J-72.14
X-282.924 Y-80.573 I282.783 J-22.55
X-273.54 Y-130.135 I282.557 J27.829
X-255.545 Y-177.259 I273.449 J77.427
X-229.504 Y-220.46 I255.701 J124.681
X-196.238 Y-258.379 I229.855 J168.095
X-156.795 Y-289.823 I196.687 J206.27
X-112.415 Y-313.8 I157.237 J237.97
X-64.496 Y-329.557 I112.75 J262.15
X-14.546 Y-336.597 I64.655 J278.017
X35.861 Y-334.698 I14.503 J285.057
X85.14 Y-323.921 I-36.087 J283.056
X131.739 Y-304.606 I-85.535 J272.231
X174.202 Y-277.378 I-132.706 J253.687
X211.246 Y-243.138 I-176.681 J228.304
X241.784 Y-202.986 I-214.548 J194.864
X264.885 Y-158.142 I-243.89 J154.012
X279.8 Y-109.954 I-265.243 J108.501
X286.03 Y-59.897 I-278.92 J60.131
X283.362 Y-9.525 I-284.51 J10.183
X271.87 Y39.592 I-281.642 J-39.992
X251.915 Y85.919 I-270.252 J-88.947
X224.123 Y128.015 I-250.607 J-135.228
X189.367 Y164.573 I-223.252 J-177.449
X148.733 Y194.464 I-188.979 J-214.334
X103.489 Y216.77 I-148.788 J-244.749
X55.04 Y230.814 I-103.86 J-267.726
X4.881 Y236.172 I-55.547 J-282.513
X-45.444 Y232.692 I-5.328 J-288.585
X-94.391 Y220.491 I45.22 J-285.673
X-140.464 Y199.948 I94.474 J-273.818
X-182.256 Y171.697 I140.829 J-253.376
X-218.496 Y136.605 I182.794 J-225.029
X-248.078 Y95.745 I219.046 J-189.725
X-270.104 Y50.362 I248.479 J-148.633
X-283.904 Y1.842 I270.225 J-103.076
X-289.057 Y-48.339 I283.686 J-54.491
X-285.409 Y-98.651 I288.504 J-4.369
X-273.071 Y-147.563 I284.598 J45.781
X-252.418 Y-193.586 I272.13 J94.475
X-224.079 Y-235.318 I251.49 J140.289
X-188.918 Y-271.489 I223.3 J181.891
X-148.005 Y-300.997 I188.373 J218.06
X-102.585 Y-322.945 I147.718 J247.725
X-54.042 Y-336.663 I102.505 J269.972
X-3.852 Y-341.735 I54.058 J284.091
X46.455 Y-338.005 I3.821 J289.575
X95.347 Y-325.587 I-46.666 J286.192
X141.339 Y-304.861 I-95.887 J274.168
X183.043 Y-276.479 I-142.792 J254.645
X219.247 Y-241.348 I-186.255 J228.164
X248.922 Y-200.552 I-223.139 J193.505
X271.187 Y-155.284 I-251.471 J151.795
X285.339 Y-106.864 I-271.913 J105.753
X290.921 Y-56.728 I-284.716 J57.075
X287.746 Y-6.383 I-289.522 J7.013
X275.904 Y42.652 I-286.032 J-43.129
X255.753 Y88.897 I-274.23 J-91.978
X227.906 Y130.96 I-254.392 J-138.169
X193.208 Y167.576 I-227.036 J-180.394
X152.709 Y197.652 I-192.896 J-217.44
X107.63 Y220.295 I-152.892 J-248.195
X59.325 Y234.837 I-108.129 J-271.673
X9.239 Y240.855 I-59.898 J-287.055
X-41.137 Y238.182 I-9.668 J-293.738
X-90.308 Y226.904 I40.958 J-291.413
X-136.817 Y207.365 I90.343 J-280.166
X-179.292 Y180.147 I136.916 J-260.419
X-216.48 Y146.06 I179.261 J-232.895
X-247.285 Y106.111 I216.153 J-198.533
X-270.802 Y61.481 I246.591 J-158.443
X-286.337 Y13.487 I269.779 J-113.835
X-293.434 Y-36.458 I285.139 J-65.995
X-291.884 Y-86.88 I292.287 J-16.254
X-281.735 Y-136.295 I291.019 J34.026
X-263.283 Y-183.247 I281.324 J83.457
X-237.074 Y-226.351 I263.37 J130.622
X-203.878 Y-264.337 I237.566 J174.105
X-164.675 Y-296.087 I204.551 J212.495
X-120.619 Y-320.663 I165.283 J244.51
X-73.008 Y-337.343 I121.001 J269.1
X-23.247 Y-345.634 I73.144 J285.53
X27.199 Y-345.292 I23.237 J293.384
X76.843 Y-336.328 I-27.189 J292.532
X124.223 Y-319.007 I-76.672 J283.192
X167.949 Y-293.849 I-124.086 J266.246
X206.767 Y-261.63 I-168.813 J242.883
X239.607 Y-223.334 I-208.966 J212.418
X265.549 Y-180.066 I-241.72 J174.341
X283.821 Y-133.043 I-266.777 J130.727
X293.856 Y-83.603 I-284.504 J83.486
X295.337 Y-33.177 I-294.423 J33.88
X288.209 Y16.765 I-295.912 J-16.757
X272.677 Y64.762 I-288.693 J-66.907
X249.199 Y109.414 I-272.94 J-115.017
X218.465 Y149.419 I-249.198 J-159.64
X181.377 Y183.616 I-218.263 J-199.499
X139.021 Y211.02 I-181.127 J-233.521
X92.632 Y230.844 I-138.899 J-260.842
X43.556 Y242.525 I-92.766 J-280.792
X-6.79 Y245.739 I-43.969 J-292.897
X-56.955 Y240.4 I6.218 J-296.817
X-105.499 Y226.672 I56.462 J-292.352
X-151.034 Y204.954 I105.346 J-279.459
X-192.257 Y175.871 I151.355 J-258.291
X-227.99 Y140.259 I192.955 J-229.346
X-257.215 Y99.137 I228.769 J-193.531
X-279.099 Y53.681 I257.733 J-152.076
X-293.018 Y5.19 I279.096 J-106.356
X-298.576 Y-44.951 I292.428 J-57.794
X-295.616 Y-95.313 I297.53 J-7.779
X-284.222 Y-144.457 I294.403 J42.362
X-264.72 Y-190.984 I283.191 J91.352
X-237.666 Y-233.565 I264.143 J137.939
X-203.832 Y-270.986 I237.649 J180.868
X-164.181 Y-302.178 I204.247 J218.832
X-119.846 Y-326.252 I164.741 J250.533
X-72.091 Y-342.519 I120.263 J274.815
X-22.28 Y-350.517 I72.251 J290.891
X28.167 Y-350.016 I22.266 J298.381
X77.809 Y-341.033 I-28.156 J297.241
X125.232 Y-323.823 I-77.595 J287.77
X169.087 Y-298.888 I-124.997 J270.88
X208.157 Y-266.971 I-169.834 J247.765
X241.395 Y-229.017 I-210.446 J217.824
X267.902 Y-186.091 I-244.025 J180.336
X286.918 Y-139.361 I-269.952 J137.085
X297.871 Y-90.115 I-288.388 J89.986
X300.429 Y-39.729 I-298.842 J40.427
X294.506 Y10.371 I-300.832 J-10.162
X280.269 Y58.77 I-294.284 J-60.278
X258.121 Y104.098 I-279.501 J-108.494
X228.694 Y145.076 I-257.052 J-153.538
X192.825 Y180.552 I-227.667 J-194.318
X151.531 Y209.533 I-192.161 J-229.89
X105.978 Y231.214 I-151.4 J-259.405
X57.447 Y244.996 I-106.318 J-282.036
X7.298 Y250.504 I-57.99 J-296.967
X-43.069 Y247.591 I-7.723 J-303.418
X-92.251 Y236.349 I42.909 J-300.906
X-138.883 Y217.095 I92.239 J-289.504
X-181.674 Y190.37 I138.74 J-269.769
X-219.441 Y156.92 I181.145 J-242.559
X-251.139 Y117.671 I218.459 J-208.86
X-275.895 Y73.712 I249.908 J-169.686
X-293.024 Y26.259 I274.828 J-126.025
X-302.055 Y-23.377 I292.567 J-78.868
X-302.736 Y-73.823 I302.457 J-29.315
X-295.05 Y-123.685 I303.822 J21.313
X-279.207 Y-171.585 I296.31 J71.435
X-255.647 Y-216.197 I280.107 J119.401
X-225.021 Y-256.288 I255.922 J163.754
X-188.177 Y-290.752 I224.727 J203.323
X-146.132 Y-318.636 I187.598 J237.225
X-100.05 Y-339.171 I145.608 J264.791
X-51.203 Y-351.788 I99.787 J285.455
X-0.941 Y-356.139 I51.177 J298.678
X49.349 Y-352.104 I0.921 J303.878
X98.275 Y-339.792 I-49.616 J300.529
X144.485 Y-319.545 I-98.889 J288.563
X186.715 Y-291.94 I-145.711 J269.005
X223.84 Y-257.776 I-189.108 J242.761
X254.904 Y-218.021 I-226.642 J209.103
X279.078 Y-173.737 I-256.413 J168.714
X295.679 Y-126.095 I-279.05 J123.951
X304.203 Y-76.596 I-294.935 J76.272
G1 X304.2 Y-25.274
X304.156 Y-24.389
G3 X303.822 Y-19.085 I-56.667 J-0.901
X296.193 Y24.518 I-298.423 J-29.743
X279.89 Y72.263 I-295.469 J-74.236
X255.931 Y116.662 I-280.15 J-122.516
X224.978 Y156.503 I-256.121 J-167.041
X187.885 Y190.7 I-224.808 J-206.623
X145.672 Y218.33 I-187.511 J-240.428
X99.492 Y238.647 I-145.417 J-267.876
X50.605 Y251.111 I-99.593 J-288.519
X0.335 Y255.394 I-51.038 J-301.909
X-49.958 Y251.388 I-0.812 J-307.47
X-98.918 Y239.207 I49.773 J-304.545
X-145.228 Y219.185 I99.095 J-292.775
X-187.644 Y191.866 I145.472 J-272.454
X-225.031 Y157.988 I187.517 J-244.5
X-256.386 Y118.462 I224.273 J-210.111
X-280.871 Y74.35 I255.13 J-170.469
X-297.832 Y26.835 I279.615 J-126.598
X-304.206 Y-2.814 I296.982 J-79.355
G1 X-304.2 Y-100.191
G3 X-303.531 Y-106.351 I40.033 J1.234
X-299.552 Y-125.431 I270.416 J46.438
X-292.733 Y-149.28 I295.182 J71.49
X-273.054 Y-195.736 I291.689 J96.166
X-246.062 Y-238.361 I272.506 J142.709
X-212.478 Y-276.012 I246.217 J185.815
X-173.202 Y-307.68 I213.089 J224.092
X-129.285 Y-332.516 I173.798 J256.073
X-122.705 Y-335.46 I125.026 J270.681
G1 X-122.627 Y-335.473
X-122.549 Y-335.479
G2 X-121.439 Y-335.712 I-0.09 J-3.191
G1 X-121.237 Y-335.776
X-113.987 Y-338.268
X-113.383 Y-338.472
X-113.182 Y-338.54
X-107.946 Y-340.251
X-105.003 Y-341.159
X-102.057 Y-342.059
X-96.668 Y-343.624
X-96.466 Y-343.682
X-91.23 Y-345.103
X-91.029 Y-345.157
X-90.425 Y-345.315
X-85.022 Y-346.691
X-79.751 Y-347.935
X-79.348 Y-348.028
X-78.945 Y-348.119
X-73.709 Y-349.269
G3 X-67.512 Y-350.518 I128.554 J622.196
G1 X-62.23 Y-351.495
X-61.626 Y-351.601
X-61.424 Y-351.636
X-56.188 Y-352.511
G3 X-49.945 Y-353.451 I138.489 J898.531
G1 X-44.709 Y-354.148
G3 X-32.021 Y-355.519 I44.629 J353.624
G1 X-26.986 Y-355.938
G3 X-20.542 Y-356.369 I38.312 J525.139
G1 X-15.104 Y-356.641
X-14.5 Y-356.666
X-9.063 Y-356.846
X-8.257 Y-356.862
X-3.021 Y-356.949
X-2.014 Y-356.951
X2.417
X3.021 Y-356.949
X8.458 Y-356.859
X9.063 Y-356.846
X14.5 Y-356.666
X15.104 Y-356.641
X20.542 Y-356.369
X21.146 Y-356.332
X26.382 Y-355.985
X29.504 Y-355.731
X32.625 Y-355.467
X37.862 Y-354.946
X38.466 Y-354.882
X38.667 Y-354.861
X43.903 Y-354.249
X44.306 Y-354.199
X44.75 Y-354.143
X49.945 Y-353.451
G3 X56.39 Y-352.477 I-73.656 J509.317
G1 X61.424 Y-351.636
X62.063 Y-351.524
X62.23 Y-351.495
X67.512 Y-350.518
G3 X73.709 Y-349.269 I-109.614 J560.183
G1 X79.028 Y-348.101
X79.549 Y-347.982
X80.355 Y-347.792
X85.022 Y-346.691
X90.425 Y-345.315
X91.029 Y-345.157
X96.265 Y-343.738
G3 X102.508 Y-341.923 I-267.109 J930.757
G1 X107.543 Y-340.377
X107.744 Y-340.315
X107.96 Y-340.247
X113.182 Y-338.54
X113.786 Y-338.336
X114.189 Y-338.199
X121.237 Y-335.776
X121.439 Y-335.711
X121.74 Y-335.615
X122.57 Y-335.303
G3 X127.497 Y-333.313 I-16.583 J48.134
X158.103 Y-317.304 I-123.014 J272.447
X166.393 Y-312.179 I-144.754 J243.398
X206.526 Y-281.602 I-167.344 J261.271
X241.211 Y-244.961 I-209.714 J233.253
X269.573 Y-203.232 I-245.31 J197.239
X290.861 Y-157.489 I-272.506 J154.639
X304.21 Y-110.278 I-291.523 J107.921
G1 X304.2 Y-76.596
G3 X303.735 Y-76.032 I-0.6 J-0.021
G1 X303.644 Y-76.011 Z-4.793
X303.555 Y-75.99 Z-4.771
X303.47 Y-75.971 Z-4.735
X303.392 Y-75.953 Z-4.685
X303.322 Y-75.937 Z-4.624
X303.262 Y-75.923 Z-4.553
X303.214 Y-75.912 Z-4.472
X303.179 Y-75.904 Z-4.385
X303.158 Y-75.899 Z-4.294
X303.151 Y-75.897 Z-4.2
G0 Z2.5
X120.371 Y-335.498
Z-3.6
G1 Z-4.2 F1000.
X120.378 Y-335.499 Z-4.294
X120.399 Y-335.504 Z-4.385
X120.434 Y-335.512 Z-4.472
X120.482 Y-335.524 Z-4.553
X120.542 Y-335.537 Z-4.624
X120.612 Y-335.553 Z-4.685
X120.69 Y-335.572 Z-4.735
X120.775 Y-335.591 Z-4.771
X120.864 Y-335.612 Z-4.793
X120.955 Y-335.633 Z-4.8
G3 X121.74 Y-335.615 I0.357 J1.542
G2 X124.259 Y-335.968 I0.889 J-2.814
G1 X124.661 Y-336.286
X124.818 Y-336.42
X125.264 Y-336.789
X126.004 Y-337.167
X126.862 Y-337.391
X127.746 Y-337.452
X128.629 Y-337.386
X129.5 Y-337.224
G3 X132.844 Y-336.061 I-5.117 J20.092
X140.051 Y-332.649 I-53.166 J121.64
X167.352 Y-317.25 I-137.618 J275.864
G1 X167.494 Y-317.127
X167.59 Y-316.966
X167.631 Y-316.783
G2 X168.162 Y-315.285 I3.045 J-0.236
X169.168 Y-314.377 I2.428 J-1.681
G1 X169.773 Y-314.041
X175.009 Y-311.155
X175.613 Y-310.815
X175.915 Y-310.643
X181.147 Y-307.622
X181.856 Y-307.203
X182.058 Y-307.083
X182.46 Y-306.84
X183.195 Y-306.344
G3 X188.279 Y-302.796 I-34.644 J55.048
X221.099 Y-274.422 I-186.742 J249.176
X253.991 Y-236.161 I-222.718 J224.728
X280.428 Y-193.186 I-256.279 J187.276
X299.719 Y-146.564 I-282.485 J144.19
X304.205 Y-131.364 I-300.198 J96.849
G1 X304.2 Y-131.31
Y-110.276
G3 X303.735 Y-109.712 I-0.6 J-0.021
G1 X303.644 Y-109.691 Z-4.793
X303.555 Y-109.67 Z-4.771
X303.47 Y-109.651 Z-4.735
X303.392 Y-109.633 Z-4.685
X303.322 Y-109.617 Z-4.624
X303.262 Y-109.603 Z-4.553
X303.214 Y-109.592 Z-4.472
X303.179 Y-109.584 Z-4.385
X303.158 Y-109.579 Z-4.294
X303.151 Y-109.577 Z-4.2
G0 Z2.5
X181.101 Y-307.045
Z-3.6
G1 Z-4.2 F1000.
X181.108 Y-307.044 Z-4.294
X181.13 Z-4.385
X181.166 Z-4.472
X181.215 Z-4.553
X181.277 Y-307.043 Z-4.624
X181.348 Z-4.685
X181.429 Y-307.042 Z-4.735
X181.515 Z-4.771
X181.607 Y-307.041 Z-4.793
X181.701 Y-307.04 Z-4.8
G3 X182.46 Y-306.84 I-0.011 J1.583
G1 X187.5 Y-303.795
G2 X190.517 Y-303.555 I1.719 J-2.517
G1 X191.12 Y-303.796
X191.995 Y-303.935
X192.88 Y-303.883
X193.743 Y-303.683
X194.573 Y-303.373
G3 X197.605 Y-301.55 I-7.136 J15.3
X202.484 Y-297.721 I-56.409 J76.916
X229.16 Y-273.086 I-202.448 J245.97
X261.3 Y-234.189 I-231.357 J223.899
X286.998 Y-190.766 I-263.136 J185.039
X304.191 Y-148.313 I-288.409 J141.508
G1 X304.197 Y-148.25
X304.2 Y-148.187
Y-131.31
G3 X303.735 Y-130.746 I-0.6 J-0.021
G1 X303.644 Y-130.725 Z-4.793
X303.555 Y-130.705 Z-4.771
X303.47 Y-130.685 Z-4.735
X303.392 Y-130.667 Z-4.685
X303.322 Y-130.651 Z-4.624
X303.262 Y-130.637 Z-4.553
X303.214 Y-130.626 Z-4.472
X303.179 Y-130.618 Z-4.385
X303.158 Y-130.613 Z-4.294
X303.151 Y-130.611 Z-4.2
G0 Z2.5
X189.578 Y-302.553
Z-3.6
G1 Z-4.2 F1000.
X189.582 Y-302.56 Z-4.294
X189.594 Y-302.578 Z-4.385
X189.615 Y-302.607 Z-4.472
X189.643 Y-302.647 Z-4.553
X189.678 Y-302.698 Z-4.624
X189.719 Y-302.756 Z-4.685
X189.765 Y-302.822 Z-4.735
X189.815 Y-302.894 Z-4.771
X189.867 Y-302.969 Z-4.793
X189.921 Y-303.046 Z-4.8
G3 X190.516 Y-303.558 I1.298 J0.905
G2 X192.026 Y-305.205 I-1.363 J-2.766
G1 X192.155 Y-305.505
X192.488 Y-305.972
X192.986 Y-306.419
X193.657 Y-306.799
X194.505 Y-307.059
X195.387 Y-307.136
X196.27 Y-307.063
X197.134 Y-306.865
X197.971 Y-306.573
G3 X201.055 Y-304.839 I-6.423 J15.033
X205.966 Y-301.054 I-41.2 J58.539
X229.399 Y-279.686 I-201.664 J244.686
G1 X229.517 Y-279.527
X229.573 Y-279.336
X229.563 Y-279.137
X228.962 Y-276.406
G2 X228.817 Y-275.4 I5.082 J1.242
X229.989 Y-273.043 I3.076 J-0.059
G1 X236.306 Y-267.545
G3 X240.864 Y-263.453 I-359.138 J404.591
G1 X244.91 Y-259.691
G3 X249.122 Y-255.663 I-224.066 J238.543
G1 X252.975 Y-251.837
X253.377 Y-251.434
X253.774 Y-251.031
X256.744 Y-248.011
G3 X261.208 Y-242.509 I-42.121 J38.74
X280.617 Y-212.873 I-257.062 J189.523
X284.535 Y-205.927 I-247.503 J144.183
X304.187 Y-162.913 I-286.765 J157.018
G1 X304.196 Y-162.842
X304.2 Y-162.771
Y-148.187
G3 X303.735 Y-147.623 I-0.6 J-0.021
G1 X303.644 Y-147.602 Z-4.793
X303.555 Y-147.582 Z-4.771
X303.47 Y-147.562 Z-4.735
X303.392 Y-147.544 Z-4.685
X303.322 Y-147.528 Z-4.624
X303.262 Y-147.514 Z-4.553
X303.214 Y-147.503 Z-4.472
X303.179 Y-147.495 Z-4.385
X303.158 Y-147.49 Z-4.294
X303.151 Y-147.488 Z-4.2
G0 Z2.5
X255.478 Y-248.545
Z-3.6
G1 Z-4.2 F1000.
X255.485 Y-248.544 Z-4.294
X255.506 Y-248.538 Z-4.385
X255.541 Y-248.529 Z-4.472
X255.588 Y-248.516 Z-4.553
X255.648 Y-248.501 Z-4.624
X255.717 Y-248.483 Z-4.685
X255.794 Y-248.462 Z-4.735
X255.879 Y-248.44 Z-4.771
X255.967 Y-248.417 Z-4.793
X256.058 Y-248.393 Z-4.8
G3 X256.744 Y-248.011 I-0.403 J1.53
G1 X256.975 Y-247.775
X257.176 Y-247.565
X261.204 Y-243.292
X262.211 Y-242.202
X264.842 Y-239.351
X265.031 Y-239.142
X268.932 Y-234.719
X269.109 Y-234.517
X272.482 Y-230.621
X272.593 Y-230.49
X276.51 Y-225.743
X279.732 Y-221.774
X279.934 Y-221.519
X283.357 Y-217.081
X283.861 Y-216.352
G3 X286.255 Y-212.627 I-30.677 J22.345
X294.606 Y-196.999 I-244.289 J140.571
X304.182 Y-176.018 I-289.141 J144.647
G1 X304.195 Y-175.94
X304.2 Y-175.861
Y-162.771
G3 X303.735 Y-162.207 I-0.6 J-0.021
G1 X303.644 Y-162.186 Z-4.793
X303.555 Y-162.165 Z-4.771
X303.47 Y-162.146 Z-4.735
X303.392 Y-162.128 Z-4.685
X303.322 Y-162.112 Z-4.624
X303.262 Y-162.098 Z-4.553
X303.214 Y-162.087 Z-4.472
X303.179 Y-162.079 Z-4.385
X303.158 Y-162.074 Z-4.294
X303.151 Y-162.072 Z-4.2
G0 Z2.5
X282.164 Y-217.764
Z-3.6
G1 Z-4.2 F1000.
X282.171 Y-217.761 Z-4.294
X282.191 Y-217.753 Z-4.385
X282.225 Y-217.74 Z-4.472
X282.271 Y-217.721 Z-4.553
X282.327 Y-217.699 Z-4.624
X282.394 Y-217.673 Z-4.685
X282.469 Y-217.643 Z-4.735
X282.549 Y-217.611 Z-4.771
X282.635 Y-217.577 Z-4.793
X282.722 Y-217.543 Z-4.8
G3 X283.357 Y-217.081 I-0.583 J1.471
G1 X283.961 Y-216.293
X286.642 Y-212.767
X286.944 Y-212.365
X290.607 Y-207.277
X293.293 Y-203.504
X293.628 Y-203.026
X293.715 Y-202.899
X297.253 Y-197.629
X299.909 Y-193.636
X300.039 Y-193.434
X303.698 Y-187.576
X304.101 Y-186.927
G3 X304.2 Y-186.587 I-0.532 J0.34
G1 Y-175.861
G3 X303.735 Y-175.297 I-0.6 J-0.021
G1 X303.644 Y-175.276 Z-4.793
X303.555 Y-175.256 Z-4.771
X303.47 Y-175.236 Z-4.735
X303.392 Y-175.218 Z-4.685
X303.322 Y-175.202 Z-4.624
X303.262 Y-175.188 Z-4.553
X303.214 Y-175.177 Z-4.472
X303.179 Y-175.169 Z-4.385
X303.158 Y-175.164 Z-4.294
X303.151 Y-175.162 Z-4.2
G0 Z2.5
X192.112 Y-303.833
Z-3.6
G1 Z-4.2 F1000.
X192.11 Y-303.84 Z-4.294
X192.106 Y-303.862 Z-4.385
X192.098 Y-303.897 Z-4.472
X192.088 Y-303.945 Z-4.553
X192.076 Y-304.005 Z-4.624
X192.062 Y-304.075 Z-4.685
X192.045 Y-304.154 Z-4.735
X192.028 Y-304.239 Z-4.771
X192.009 Y-304.329 Z-4.793
X191.99 Y-304.42 Z-4.8
G3 X192.026 Y-305.205 I1.55 J-0.321
G1 X192.096 Y-305.406
G2 X192.6 Y-308.226 I-51.232 J-10.621
G1 X192.711 Y-308.723
X192.98 Y-309.298
X193.437 Y-309.894
X194.093 Y-310.445
X194.879 Y-310.856
X195.728 Y-311.108
X196.607 Y-311.219
X197.493 Y-311.21
X198.372 Y-311.094
X199.235 Y-310.893
G3 X202.475 Y-309.479 I-4.09 J13.789
X206.848 Y-306.462 I-18.834 J31.981
X215.695 Y-299.087 I-119.709 J152.598
X230.618 Y-285.242 I-210.03 J241.339
G1 X230.737 Y-285.081
X230.794 Y-284.888
X230.784 Y-284.687
X229.563 Y-279.137
G3 X228.988 Y-278.686 I-0.581 J-0.149
G1 X228.894 Y-278.685 Z-4.793
X228.802 Y-278.684 Z-4.771
X228.715 Y-278.683 Z-4.735
X228.635 Y-278.682 Z-4.685
X228.564 Z-4.624
X228.502 Y-278.681 Z-4.553
X228.453 Z-4.472
X228.417 Y-278.68 Z-4.385
X228.395 Z-4.294
X228.388 Z-4.2
G0 Z2.5
X192.907 Y-306.886
Z-3.6
G1 Z-4.2 F1000.
X192.905 Y-306.893 Z-4.294
X192.897 Y-306.913 Z-4.385
X192.884 Y-306.947 Z-4.472
X192.866 Y-306.993 Z-4.553
X192.844 Y-307.05 Z-4.624
X192.819 Y-307.117 Z-4.685
X192.79 Y-307.192 Z-4.735
X192.759 Y-307.273 Z-4.771
X192.726 Y-307.358 Z-4.793
X192.692 Y-307.446 Z-4.8
G3 X192.601 Y-308.226 I1.477 J-0.568
G1 X193.254 Y-312.052
X193.412 Y-312.76
X193.715 Y-313.411
X194.204 Y-314.047
X194.882 Y-314.618
X195.66 Y-315.042
X196.499 Y-315.325
X197.371 Y-315.484
X198.256 Y-315.535
X199.141 Y-315.491
G3 X202.564 Y-314.616 I-1.355 J12.444
X207.218 Y-312.068 I-9.087 J22.124
X212.858 Y-307.778 I-40.876 J59.58
X228.776 Y-293.681 I-191.012 J231.728
X231.775 Y-290.818 I-136.134 J145.594
G1 X231.893 Y-290.659
X231.952 Y-290.471
X231.947 Y-290.274
X231.564 Y-288.288
X231.444 Y-287.684
X230.784 Y-284.687
G3 X230.209 Y-284.236 I-0.581 J-0.149
G1 X230.116 Z-4.793
X230.024 Y-284.235 Z-4.771
X229.937 Y-284.234 Z-4.735
X229.857 Y-284.233 Z-4.685
X229.785 Y-284.232 Z-4.624
X229.724 Z-4.553
X229.675 Y-284.231 Z-4.472
X229.639 Z-4.385
X229.617 Y-284.23 Z-4.294
X229.609 Z-4.2
G0 Z2.5
X193.561 Y-310.712
Z-3.6
G1 Z-4.2 F1000.
X193.558 Y-310.719 Z-4.294
X193.55 Y-310.74 Z-4.385
X193.537 Y-310.773 Z-4.472
X193.52 Y-310.819 Z-4.553
X193.498 Y-310.876 Z-4.624
X193.472 Y-310.943 Z-4.685
X193.443 Y-311.018 Z-4.735
X193.412 Y-311.099 Z-4.771
X193.379 Y-311.185 Z-4.793
X193.345 Y-311.272 Z-4.8
G3 X193.254 Y-312.052 I1.477 J-0.568
G2 X193.941 Y-316.184 I-123.969 J-22.733
G1 X194.089 Y-316.937
X194.383 Y-317.607
X194.876 Y-318.282
X195.541 Y-318.868
X196.306 Y-319.315
X197.133 Y-319.632
X197.997 Y-319.831
X198.877 Y-319.931
X199.764 Y-319.94
G3 X204.083 Y-319.035 I-0.783 J14.499
X209.58 Y-316.192 I-9.324 J24.757
X215.275 Y-311.977 I-35.908 J54.481
X227.342 Y-301.55 I-164.765 J202.867
X232.853 Y-296.429 I-182.283 J201.683
G1 X232.974 Y-296.27
X233.034 Y-296.08
X233.03 Y-295.881
X231.947 Y-290.274
G3 X231.384 Y-289.808 I-0.585 J-0.134
G1 X231.291 Y-289.805 Z-4.793
X231.199 Y-289.801 Z-4.771
X231.112 Y-289.798 Z-4.735
X231.032 Y-289.795 Z-4.685
X230.96 Y-289.793 Z-4.624
X230.899 Y-289.791 Z-4.553
X230.85 Y-289.789 Z-4.472
X230.814 Y-289.787 Z-4.385
X230.792 Z-4.294
X230.785 Y-289.786 Z-4.2
G0 Z2.5
X194.278 Y-314.852
Z-3.6
G1 Z-4.2 F1000.
X194.275 Y-314.859 Z-4.294
X194.266 Y-314.879 Z-4.385
X194.253 Y-314.912 Z-4.472
X194.234 Y-314.958 Z-4.553
X194.211 Y-315.015 Z-4.624
X194.183 Y-315.081 Z-4.685
X194.153 Y-315.155 Z-4.735
X194.12 Y-315.235 Z-4.771
X194.085 Y-315.32 Z-4.793
X194.049 Y-315.407 Z-4.8
G3 X193.94 Y-316.185 I1.463 J-0.603
G1 X194.575 Y-320.511
X194.728 Y-321.283
X195.026 Y-321.963
X195.547 Y-322.676
X196.212 Y-323.262
X196.975 Y-323.713
X197.797 Y-324.043
X198.656 Y-324.261
X199.533 Y-324.384
X200.418 Y-324.427
G3 X204.78 Y-323.737 I-0.238 J15.626
X211.199 Y-320.778 I-8.135 J26.089
X217. Y-316.71 I-29.409 J48.109
X226.502 Y-308.738 I-121.897 J154.941
X233.882 Y-302.048 I-192.373 J219.604
G1 X234.002 Y-301.894
X234.065 Y-301.708
Y-301.513
X233.775 Y-299.768
X233.74 Y-299.566
X233.702 Y-299.365
X233.03 Y-295.881
G3 X232.467 Y-295.416 I-0.585 J-0.134
G1 X232.373 Y-295.412 Z-4.793
X232.281 Y-295.409 Z-4.771
X232.194 Y-295.406 Z-4.735
X232.114 Y-295.403 Z-4.685
X232.043 Y-295.4 Z-4.624
X231.981 Y-295.398 Z-4.553
X231.932 Y-295.396 Z-4.472
X231.896 Y-295.395 Z-4.385
X231.874 Y-295.394 Z-4.294
X231.867 Z-4.2
G0 Z2.5
X194.913 Y-319.178
Z-3.6
G1 Z-4.2 F1000.
X194.91 Y-319.185 Z-4.294
X194.902 Y-319.205 Z-4.385
X194.888 Y-319.239 Z-4.472
X194.869 Y-319.284 Z-4.553
X194.846 Y-319.341 Z-4.624
X194.819 Y-319.407 Z-4.685
X194.788 Y-319.481 Z-4.735
X194.755 Y-319.561 Z-4.771
X194.72 Y-319.646 Z-4.793
X194.684 Y-319.733 Z-4.8
G3 X194.575 Y-320.511 I1.463 J-0.603
G1 X195.196 Y-324.74
X195.223 Y-324.941
X195.355 Y-325.662
X195.644 Y-326.35
X196.156 Y-327.073
X196.811 Y-327.67
X197.565 Y-328.136
X198.38 Y-328.485
X199.232 Y-328.725
X200.106 Y-328.873
G3 X203.639 Y-328.777 I1.416 J12.959
X209.557 Y-326.983 I-3.705 J22.882
X215.735 Y-323.526 I-15.764 J35.415
X222.804 Y-318.19 I-47.868 J70.76
X234.814 Y-307.712 I-173.419 J210.915
G1 X234.941 Y-307.561
X235.005 Y-307.374
X235.006 Y-307.176
X234.065 Y-301.513
G3 X233.514 Y-301.033 I-0.588 J-0.119
G1 X233.42 Y-301.027 Z-4.793
X233.329 Y-301.021 Z-4.771
X233.242 Y-301.016 Z-4.735
X233.162 Y-301.011 Z-4.685
X233.091 Y-301.006 Z-4.624
X233.03 Y-301.003 Z-4.553
X232.98 Y-300.999 Z-4.472
X232.944 Y-300.997 Z-4.385
X232.923 Y-300.996 Z-4.294
X232.915 Y-300.995 Z-4.2
G0 Z2.5
X195.581 Y-323.614
Z-3.6
G1 Z-4.2 F1000.
X195.578 Y-323.621 Z-4.294
X195.569 Y-323.641 Z-4.385
X195.555 Y-323.674 Z-4.472
X195.536 Y-323.719 Z-4.553
X195.511 Y-323.775 Z-4.624
X195.483 Y-323.841 Z-4.685
X195.452 Y-323.915 Z-4.735
X195.417 Y-323.995 Z-4.771
X195.381 Y-324.079 Z-4.793
X195.344 Y-324.165 Z-4.8
G3 X195.223 Y-324.941 I1.454 J-0.624
G1 X195.302 Y-325.545
X195.772 Y-329.372
X195.898 Y-330.093
X196.185 Y-330.792
X196.691 Y-331.519
X197.339 Y-332.124
X198.085 Y-332.601
X198.894 Y-332.965
X199.741 Y-333.224
X200.611 Y-333.393
G3 X204.146 Y-333.406 I1.817 J13.433
X210.136 Y-331.863 I-2.994 J24.017
X217.223 Y-328.236 I-14.174 J36.432
X224.402 Y-323.05 I-39.986 J62.922
X234.525 Y-314.439 I-139.537 J174.295
G1 X235.19 Y-313.854
X235.949 Y-313.171
G3 X236.051 Y-312.402 I-0.402 J0.445
G2 X235.685 Y-311.246 I2.694 J1.489
G1 X235.006 Y-307.176
G3 X234.455 Y-306.696 I-0.588 J-0.119
G1 X234.361 Y-306.69 Z-4.793
X234.27 Y-306.684 Z-4.771
X234.183 Y-306.679 Z-4.735
X234.103 Y-306.674 Z-4.685
X234.031 Y-306.67 Z-4.624
X233.97 Y-306.666 Z-4.553
X233.921 Y-306.663 Z-4.472
X233.885 Y-306.66 Z-4.385
X233.863 Y-306.659 Z-4.294
X233.856 Z-4.2
G0 Z2.5
X196.141 Y-328.047
Z-3.6
G1 Z-4.2 F1000.
X196.139 Y-328.054 Z-4.294
X196.13 Y-328.074 Z-4.385
X196.115 Y-328.107 Z-4.472
X196.095 Y-328.152 Z-4.553
X196.071 Y-328.208 Z-4.624
X196.042 Y-328.274 Z-4.685
X196.01 Y-328.347 Z-4.735
X195.975 Y-328.427 Z-4.771
X195.938 Y-328.511 Z-4.793
X195.9 Y-328.597 Z-4.8
G3 X195.772 Y-329.372 I1.449 J-0.637
G1 X196.318 Y-333.802
X196.457 Y-334.604
X196.747 Y-335.309
X197.253 Y-336.036
X197.899 Y-336.643
X198.642 Y-337.126
X199.447 Y-337.495
X200.291 Y-337.766
X201.158 Y-337.947
G3 X205.574 Y-337.938 I2.176 J15.456
X212.394 Y-336.07 I-4.086 J28.292
X220.232 Y-331.969 I-16.741 J41.537
X227.406 Y-326.775 I-43.315 J67.385
X238.198 Y-317.584 I-141.376 J176.928
G1 X238.825 Y-316.958
X239.379 Y-316.266
X239.843 Y-315.512
X240.192 Y-314.697
X240.224 Y-314.577
G3 X239.474 Y-313.85 I-0.581 J0.151
G1 X239.389 Y-313.886
X239.31 Y-313.935
X239.259 Y-313.988 Z-4.795
X239.209 Y-314.041 Z-4.782
X239.161 Y-314.092 Z-4.759
X239.13 Y-314.165 Z-4.721
X239.102 Y-314.232 Z-4.671
X239.077 Y-314.292 Z-4.612
X239.071 Y-314.344 Z-4.548
X239.067 Y-314.386 Z-4.478
X239.063 Y-314.419 Z-4.403
Y-314.42 Z-4.401
X239.064 Y-314.439 Z-4.336
Y-314.451 Z-4.268
Y-314.455 Z-4.2
G0 Z2.5
X196.687 Y-332.478
Z-3.6
G1 Z-4.2 F1000.
X196.684 Y-332.485 Z-4.294
X196.675 Y-332.505 Z-4.385
X196.66 Y-332.538 Z-4.472
X196.641 Y-332.583 Z-4.553
X196.616 Y-332.639 Z-4.624
X196.587 Y-332.704 Z-4.685
X196.555 Y-332.778 Z-4.735
X196.52 Y-332.858 Z-4.771
X196.483 Y-332.941 Z-4.793
X196.445 Y-333.027 Z-4.8
G3 X196.318 Y-333.802 I1.449 J-0.637
G2 X196.449 Y-335.212 I-9.743 J-1.617
X196.22 Y-336.219 I-3.695 J0.309
G1 X196.123 Y-336.42
X196.012 Y-336.622
X195.902 Y-336.825
X195.751 Y-337.36
X195.714 Y-337.99
X195.834 Y-338.734
X196.143 Y-339.516
X196.64 Y-340.25
X197.263 Y-340.879
X197.982 Y-341.398
X198.763 Y-341.816
X199.586 Y-342.144
G3 X203.069 Y-342.736 I3.794 J11.771
X209.215 Y-342.048 I0.56 J22.785
X218.298 Y-338.585 I-9.159 J37.67
X225.837 Y-333.943 I-27.291 J52.763
X234.211 Y-327.396 I-71.508 J100.093
X237.586 Y-324.525 I-104.904 J126.764
X240.903 Y-321.588 I-92.639 J107.953
G1 X241.531 Y-320.962
G3 X243.675 Y-318.151 I-9.698 J9.62
G1 X244.076 Y-317.361
X244.389 Y-316.532
X244.591 Y-315.669
X244.665 Y-314.786
X244.6 Y-313.903
X244.394 Y-313.041
X244.044 Y-312.227
X243.679 Y-311.665
G3 X242.804 Y-311.521 I-0.503 J-0.327
G1 X240.861 Y-313.059
X240.597 Y-313.261
G3 X240.428 Y-313.971 I0.379 J-0.466
G1 X240.466 Y-314.057 Z-4.793
X240.503 Y-314.14 Z-4.771
X240.539 Y-314.22 Z-4.735
X240.572 Y-314.293 Z-4.685
X240.601 Y-314.358 Z-4.624
X240.626 Y-314.414 Z-4.553
X240.646 Y-314.459 Z-4.472
X240.661 Y-314.492 Z-4.385
X240.67 Y-314.512 Z-4.294
X240.673 Y-314.519 Z-4.2
G0 Z2.5
X197.12 Y-335.808
Z-3.6
G1 Z-4.2 F1000.
X197.113 Y-335.812 Z-4.294
X197.094 Y-335.822 Z-4.385
X197.062 Y-335.839 Z-4.472
X197.019 Y-335.862 Z-4.553
X196.965 Y-335.891 Z-4.624
X196.902 Y-335.925 Z-4.685
X196.831 Y-335.963 Z-4.735
X196.754 Y-336.004 Z-4.771
X196.673 Y-336.047 Z-4.793
X196.591 Y-336.091 Z-4.8
G3 X196.012 Y-336.622 I0.746 J-1.396
G2 X194.609 Y-337.828 I-2.544 J1.539
G1 X194.255 Y-338.001
X193.863 Y-338.31
X193.49 Y-338.764
X193.177 Y-339.383
X192.991 Y-340.104
X192.961 Y-340.99
X193.122 Y-341.861
X193.447 Y-342.685
X193.9 Y-343.447
X194.459 Y-344.134
X195.097 Y-344.75
X195.8 Y-345.289
X196.551 Y-345.759
G3 X200.726 Y-347.179 I6.309 J11.701
X206.907 Y-347.258 I3.362 J21.118
X214.639 Y-345.376 I-4.216 J34.13
X224.187 Y-340.74 I-17.41 J48.013
X232.187 Y-335.182 I-42.154 J69.211
G1 X232.891 Y-334.644
X233.587 Y-334.096
G3 X243.718 Y-325.495 I-133.299 J167.263
X246.656 Y-322.185 I-17.374 J18.38
X248.39 Y-319.102 I-12.523 J9.076
X249.223 Y-315.671 I-10.555 J4.379
X248.902 Y-312.157 I-10.266 J0.831
G1 X248.629 Y-311.314
X248.283 Y-310.498
X247.851 Y-309.724
X247.321 Y-309.015
X247.102 Y-308.796
G3 X246.305 Y-308.749 I-0.424 J-0.424
G1 X242.804 Y-311.521
G3 X242.65 Y-312.235 I0.389 J-0.457
G1 X242.69 Y-312.32 Z-4.793
X242.729 Y-312.403 Z-4.771
X242.767 Y-312.482 Z-4.735
X242.801 Y-312.554 Z-4.685
X242.832 Y-312.619 Z-4.624
X242.858 Y-312.674 Z-4.553
X242.879 Y-312.719 Z-4.472
X242.895 Y-312.751 Z-4.385
X242.904 Y-312.771 Z-4.294
X242.907 Y-312.778 Z-4.2
G0 Z2.5
X195.984 Y-337.872
Z-3.6
G1 Z-4.2 F1000.
X195.977 Y-337.87 Z-4.294
X195.955 Y-337.867 Z-4.385
X195.92 Y-337.86 Z-4.472
X195.871 Y-337.852 Z-4.553
X195.811 Y-337.841 Z-4.624
X195.741 Y-337.829 Z-4.685
X195.662 Y-337.815 Z-4.735
X195.576 Y-337.8 Z-4.771
X195.486 Y-337.785 Z-4.793
X195.393 Y-337.769 Z-4.8
G3 X194.61 Y-337.83 I-0.272 J-1.559
G2 X192.731 Y-337.976 I-1.161 J2.771
G1 X192.392 Y-337.906
X191.913 Y-337.912
X191.354 Y-338.043
X190.749 Y-338.333
X190.188 Y-338.773
X189.651 Y-339.426
X189.249 Y-340.216
X189.014 Y-341.071
X188.935 Y-341.953
X188.99 Y-342.838
X189.166 Y-343.706
X189.447 Y-344.547
X189.818 Y-345.351
X190.269 Y-346.114
G3 X193.382 Y-349.229 I9.6 J6.482
X198.204 Y-351.41 I8.835 J13.105
X205.227 Y-352.131 I5.8 J21.933
X213.931 Y-350.607 I-1.564 J34.534
X222.936 Y-346.917 I-14.037 J47.089
X226.798 Y-344.747 I-26.208 J51.154
X236.208 Y-338.115 I-49.012 J79.532
X246.367 Y-329.548 I-119.712 J152.278
X249.97 Y-325.645 I-22.879 J24.734
X252.653 Y-321.071 I-16.629 J12.828
X253.905 Y-314.15 I-14.894 J6.268
X252.708 Y-308.998 I-14.752 J-0.713
G1 X252.317 Y-308.203
X251.875 Y-307.434
X251.369 Y-306.707
X250.787 Y-306.039
X250.657 Y-305.924
G3 X249.878 Y-305.911 I-0.397 J-0.45
G1 X249.725 Y-306.038
X249.51 Y-306.212
X246.305 Y-308.749
G3 X246.152 Y-309.463 I0.389 J-0.457
G1 X246.192 Y-309.548 Z-4.793
X246.231 Y-309.631 Z-4.771
X246.268 Y-309.71 Z-4.735
X246.303 Y-309.782 Z-4.685
X246.333 Y-309.847 Z-4.624
X246.36 Y-309.902 Z-4.553
X246.381 Y-309.946 Z-4.472
X246.396 Y-309.979 Z-4.385
X246.405 Y-309.999 Z-4.294
X246.409 Y-310.006 Z-4.2
G0 Z2.5
X193.799 Y-338.843
Z-3.6
G1 Z-4.2 F1000.
X193.794 Y-338.837 Z-4.294
X193.779 Y-338.821 Z-4.385
X193.755 Y-338.795 Z-4.472
X193.721 Y-338.759 Z-4.553
X193.68 Y-338.714 Z-4.624
X193.631 Y-338.661 Z-4.685
X193.576 Y-338.602 Z-4.735
X193.517 Y-338.538 Z-4.771
X193.455 Y-338.471 Z-4.793
X193.391 Y-338.402 Z-4.8
G3 X192.731 Y-337.977 I-1.161 J-1.075
G2 X191.724 Y-337.509 I0.643 J2.704
G1 X191.322 Y-337.216
X191.065 Y-337.024
X190.798 Y-336.823
X190.386 Y-336.544
X189.841 Y-336.327
X189.223 Y-336.227
X188.502 Y-336.268
X187.685 Y-336.498
X186.904 Y-336.917
X186.229 Y-337.49
X185.661 Y-338.17
X185.211 Y-338.934
X184.867 Y-339.751
X184.632 Y-340.605
X184.488 Y-341.479
X184.442 Y-342.364
X184.476 Y-343.25
G3 X185.346 Y-346.672 I11.198 J1.025
X187.711 Y-350.396 I12.679 J5.438
X193.358 Y-354.601 I13.012 J11.58
X201.006 Y-356.715 I9.851 J20.755
X209.835 Y-356.42 I3.351 J31.964
X216.711 Y-354.729 I-6.841 J42.645
X227.976 Y-349.589 I-18.575 J55.626
X236.811 Y-343.684 I-42.499 J73.154
X247.111 Y-335.288 I-105.613 J140.076
X252.795 Y-329.706 I-32.542 J38.82
X256.235 Y-324.558 I-21.935 J18.382
X258.514 Y-316.96 I-19.541 J10.001
X257.453 Y-308.236 I-19.661 J2.037
X255.401 Y-304.324 I-15.575 J-5.675
G1 X254.85 Y-303.629
X254.232 Y-302.995
X254.162 Y-302.939
G3 X253.403 Y-302.95 I-0.373 J-0.47
G1 X250.245 Y-305.608
X249.878 Y-305.911
G3 X249.739 Y-306.629 I0.398 J-0.449
G1 X249.781 Y-306.713 Z-4.793
X249.822 Y-306.794 Z-4.771
X249.861 Y-306.872 Z-4.735
X249.897 Y-306.944 Z-4.685
X249.929 Y-307.008 Z-4.624
X249.956 Y-307.063 Z-4.553
X249.978 Y-307.107 Z-4.472
X249.994 Y-307.139 Z-4.385
X250.004 Y-307.159 Z-4.294
X250.007 Y-307.165 Z-4.2
G0 Z2.5
X191.493 Y-338.009
Z-3.6
G1 Z-4.2 F1000.
X191.49 Y-338.002 Z-4.294
X191.482 Y-337.982 Z-4.385
X191.468 Y-337.948 Z-4.472
X191.45 Y-337.903 Z-4.553
X191.427 Y-337.846 Z-4.624
X191.4 Y-337.78 Z-4.685
X191.369 Y-337.706 Z-4.735
X191.336 Y-337.625 Z-4.771
X191.302 Y-337.54 Z-4.793
X191.266 Y-337.453 Z-4.8
G3 X190.798 Y-336.823 I-1.465 J-0.599
G1 X187.898 Y-334.637
X187.356 Y-334.27
X186.724 Y-334.018
X185.998 Y-333.9
X185.113 Y-333.951
X184.26 Y-334.19
X183.47 Y-334.592
X182.755 Y-335.116
X182.125 Y-335.739
X181.574 Y-336.433
X181.109 Y-337.187
G3 X179.872 Y-341.41 I9.71 J-5.136
X180.407 Y-346.67 I14.311 J-1.202
X183.691 Y-352.9 I16.935 J4.948
X190.52 Y-358.448 I16.722 J13.605
X199.776 Y-361.334 I12.548 J23.963
X206.849 Y-361.545 I4.544 J33.672
X218.112 Y-359.277 I-3.35 J45.737
X230.202 Y-353.814 I-19.461 J59.184
X239.073 Y-347.964 I-43.364 J75.415
X250.756 Y-338.462 I-104.935 J140.935
X256.944 Y-332.135 I-33.155 J38.617
X260.723 Y-326.153 I-25.497 J20.296
X263.34 Y-315.028 I-23.605 J11.421
X261.448 Y-305.533 I-24.201 J0.115
X259.274 Y-301.681 I-18.635 J-7.981
G1 X258.727 Y-300.984
X258.132 Y-300.327
X257.736 Y-299.974
G3 X256.951 Y-299.963 I-0.399 J-0.448
G1 X253.403 Y-302.95
G3 X253.271 Y-303.668 I0.402 J-0.445
G1 X253.313 Y-303.752 Z-4.793
X253.355 Y-303.833 Z-4.771
X253.395 Y-303.911 Z-4.735
X253.431 Y-303.982 Z-4.685
X253.464 Y-304.046 Z-4.624
X253.492 Y-304.101 Z-4.553
X253.514 Y-304.144 Z-4.472
X253.531 Y-304.176 Z-4.385
X253.541 Y-304.196 Z-4.294
X253.544 Y-304.203 Z-4.2
G0 Z2.5
X188.594 Y-335.823
Z-3.6
G1 Z-4.2 F1000.
X188.591 Y-335.816 Z-4.294
X188.582 Y-335.795 Z-4.385
X188.569 Y-335.762 Z-4.472
X188.55 Y-335.717 Z-4.553
X188.527 Y-335.66 Z-4.624
X188.5 Y-335.594 Z-4.685
X188.47 Y-335.519 Z-4.735
X188.437 Y-335.439 Z-4.771
X188.402 Y-335.354 Z-4.793
X188.366 Y-335.267 Z-4.8
G3 X187.898 Y-334.637 I-1.465 J-0.599
G1 X184.654 Y-332.191
X184.051 Y-331.782
X183.381 Y-331.516
X182.597 Y-331.389
X181.712 Y-331.439
X180.855 Y-331.663
X180.051 Y-332.036
X179.308 Y-332.52
X178.635 Y-333.096
X178.03 Y-333.743
X177.488 Y-334.445
G3 X175.93 Y-337.615 I10.136 J-6.949
X175.175 Y-343.735 I15.625 J-5.035
X178.034 Y-352.959 I20.493 J1.296
X185.196 Y-360.706 I21.181 J12.398
X193.934 Y-364.921 I16.805 J23.672
G1 X194.785 Y-365.169
X195.643 Y-365.388
G3 X207.966 Y-366.221 I8.703 J37.191
X219.228 Y-363.924 I-4.284 J49.766
X231.393 Y-358.625 I-19.967 J62.447
X241.802 Y-351.893 I-43.623 J78.868
G1 X242.519 Y-351.373
G3 X254.833 Y-341.243 I-110.586 J146.975
X260.899 Y-334.796 I-36.428 J40.355
X265.452 Y-327.219 I-29.016 J22.59
X268.048 Y-316.062 I-28.464 J12.506
X267.771 Y-310.759 I-30.252 J1.076
X264.32 Y-300.77 I-27.27 J-3.831
X262.254 Y-297.895 I-17.586 J-10.452
G1 X261.64 Y-297.256
X261.245 Y-296.92
G3 X260.456 Y-296.93 I-0.389 J-0.457
G2 X256.949 Y-299.962 I-57.675 J63.16
G1 X256.889 Y-300.025
X256.839 Y-300.097
X256.799 Y-300.174
X256.771 Y-300.257
X256.756 Y-300.343
X256.753 Y-300.43
X256.762 Y-300.517
X256.785 Y-300.602
X256.819 Y-300.682
X256.861 Y-300.765 Z-4.793
X256.903 Y-300.847 Z-4.771
X256.943 Y-300.924 Z-4.735
X256.979 Y-300.996 Z-4.685
X257.012 Y-301.06 Z-4.624
X257.04 Y-301.114 Z-4.553
X257.062 Y-301.158 Z-4.472
X257.079 Y-301.19 Z-4.385
X257.089 Y-301.209 Z-4.294
X257.092 Y-301.216 Z-4.2
G0 Z2.5
X185.35 Y-333.377
Z-3.6
G1 Z-4.2 F1000.
X185.347 Y-333.37 Z-4.294
X185.339 Y-333.35 Z-4.385
X185.325 Y-333.316 Z-4.472
X185.306 Y-333.271 Z-4.553
X185.283 Y-333.214 Z-4.624
X185.256 Y-333.148 Z-4.685
X185.226 Y-333.074 Z-4.735
X185.193 Y-332.993 Z-4.771
X185.158 Y-332.908 Z-4.793
X185.123 Y-332.822 Z-4.8
G3 X184.654 Y-332.191 I-1.465 J-0.599
G1 X183.854 Y-331.587
X181.308 Y-329.573
X180.753 Y-329.177
X180.073 Y-328.888
X179.258 Y-328.737
X178.372 Y-328.766
X177.509 Y-328.964
X176.69 Y-329.303
X175.926 Y-329.752
X175.219 Y-330.286
X174.572 Y-330.892
G3 X172.126 Y-334.562 I9.733 J-9.138
X170.482 Y-341.416 I17.511 J-7.823
X171.917 Y-350.988 I23.646 J-1.351
X178.592 Y-361.322 I25.986 J9.465
X185.676 Y-366.595 I21.894 J22.018
X198.239 Y-370.704 I17.389 J31.902
X210.604 Y-370.726 I6.262 J44.295
X222.638 Y-367.812 I-7.356 J56.677
X233.92 Y-362.69 I-24.059 J67.973
X245.05 Y-355.443 I-47.481 J85.096
X258.714 Y-344.17 I-102.97 J138.727
X264.157 Y-338.347 I-42.061 J44.773
X269.716 Y-329.316 I-32.611 J26.302
G1 X270.06 Y-328.499
G3 X272.496 Y-310.27 I-32.304 J13.594
X269.374 Y-300.152 I-32.645 J-4.534
X266.531 Y-295.669 I-23.988 J-12.063
G1 X265.958 Y-294.992
X265.349 Y-294.349
X264.74 Y-293.81
G3 X263.942 Y-293.812 I-0.398 J-0.449
G1 X260.456 Y-296.93
G3 X260.346 Y-297.652 I0.415 J-0.433
G1 X260.391 Y-297.734 Z-4.793
X260.435 Y-297.814 Z-4.771
X260.477 Y-297.89 Z-4.735
X260.516 Y-297.961 Z-4.685
X260.55 Y-298.023 Z-4.624
X260.58 Y-298.077 Z-4.553
X260.604 Y-298.12 Z-4.472
X260.621 Y-298.152 Z-4.385
X260.632 Y-298.171 Z-4.294
X260.635 Y-298.177 Z-4.2
G0 Z2.5
X181.976 Y-330.775
Z-3.6
G1 Z-4.2 F1000.
X181.973 Y-330.768 Z-4.294
X181.965 Y-330.747 Z-4.385
X181.953 Y-330.714 Z-4.472
X181.935 Y-330.668 Z-4.553
X181.913 Y-330.611 Z-4.624
X181.888 Y-330.544 Z-4.685
X181.859 Y-330.469 Z-4.735
X181.828 Y-330.387 Z-4.771
X181.795 Y-330.302 Z-4.793
X181.762 Y-330.214 Z-4.8
G3 X181.308 Y-329.573 I-1.478 J-0.565
G1 X177.828 Y-326.82
X177.311 Y-326.451
X176.629 Y-326.161
X175.765 Y-326.
X174.879 Y-326.03
X174.015 Y-326.225
X173.191 Y-326.55
X172.418 Y-326.983
X171.697 Y-327.498
X171.027 Y-328.079
G3 X168.383 Y-331.613 I9.991 J-10.23
X165.969 Y-339.168 I19.288 J-10.326
X167.071 Y-351.42 I27.396 J-3.712
X173.575 Y-362.9 I30.206 J9.53
X176.69 Y-366.046 I24.016 J20.669
X190.497 Y-373.795 I25.06 J28.473
X202.687 Y-375.867 I13.393 J41.91
X216.755 Y-374.47 I1.729 J54.136
X224.41 Y-372.253 I-13.72 J61.686
X239.542 Y-364.941 I-27.299 J75.804
X250.449 Y-357.358 I-59.224 J96.834
X261.325 Y-348.269 I-106.129 J138.03
X265.697 Y-343.871 I-52.758 J56.835
X273.248 Y-332.982 I-36.124 J33.112
X276.731 Y-322.963 I-37.866 J18.777
X275.62 Y-302.845 I-38.095 J7.986
X273.156 Y-297.16 I-34.971 J-11.781
X269.655 Y-292.054 I-24.828 J-13.269
G1 X269.046 Y-291.41
X268.396 Y-290.807
X268.19 Y-290.655
G3 X267.433 Y-290.69 I-0.358 J-0.482
G1 X263.942 Y-293.812
G3 X263.832 Y-294.534 I0.415 J-0.433
G1 X263.877 Y-294.616 Z-4.793
X263.921 Y-294.696 Z-4.771
X263.963 Y-294.772 Z-4.735
X264.002 Y-294.843 Z-4.685
X264.036 Y-294.905 Z-4.624
X264.066 Y-294.959 Z-4.553
X264.09 Y-295.002 Z-4.472
X264.107 Y-295.034 Z-4.385
X264.118 Y-295.053 Z-4.294
X264.121 Y-295.059 Z-4.2
G0 Z2.5
X178.496 Y-328.021
Z-3.6
G1 Z-4.2 F1000.
X178.494 Y-328.015 Z-4.294
X178.486 Y-327.994 Z-4.385
X178.473 Y-327.96 Z-4.472
X178.455 Y-327.914 Z-4.553
X178.433 Y-327.857 Z-4.624
X178.408 Y-327.79 Z-4.685
X178.379 Y-327.715 Z-4.735
X178.348 Y-327.634 Z-4.771
X178.315 Y-327.549 Z-4.793
X178.282 Y-327.461 Z-4.8
G3 X177.828 Y-326.82 I-1.478 J-0.565
G2 X174.518 Y-324.135 I63.86 J82.125
G1 X173.924 Y-323.691
X173.243 Y-323.382
X172.379 Y-323.201
X171.493 Y-323.21
X170.624 Y-323.382
X169.79 Y-323.682
X169.004 Y-324.09
X168.266 Y-324.58
X167.575 Y-325.135
G3 X164.759 Y-328.537 I10.185 J-11.295
X161.776 Y-335.894 I20.624 J-12.647
X161.435 Y-348.212 I30.102 J-6.995
X168.008 Y-363.54 I34.977 J5.924
G1 X168.534 Y-364.253
G3 X181.309 Y-375.032 I31.825 J24.762
X195.49 Y-379.904 I21.615 J39.838
X209.616 Y-380.422 I8.987 J52.187
X214.011 Y-379.87 I-4.359 J52.454
X230.944 Y-374.797 I-11.766 J70.071
X241.212 Y-369.521 I-33.723 J78.259
X241.404 Y-368.643 I-0.307 J0.527
G2 X240.782 Y-366.83 I2.414 J1.841
X240.808 Y-365.823 I4.439 J0.39
X242.11 Y-363.81 I2.924 J-0.463
G1 X242.273 Y-363.689
X249.524 Y-358.714
X250.128 Y-358.292
X254.156 Y-355.456
X254.357 Y-355.312
X259.277 Y-351.726
G3 X264.225 Y-348.037 I-243.206 J331.406
G1 X268.656 Y-344.612
X269.092 Y-344.274
X269.606 Y-343.872
X272.885 Y-341.29
X273.553 Y-340.708
X274.191 Y-340.093
G3 X276.286 Y-337.242 I-12.494 J11.379
X280.224 Y-328.35 I-35.76 J21.155
X280.651 Y-303.021 I-41.802 J13.373
X276.867 Y-294.063 I-39.675 J-11.483
X273.274 Y-289.018 I-27.174 J-15.554
G1 X272.664 Y-288.375
X272.016 Y-287.77
X271.597 Y-287.448
G3 X270.818 Y-287.49 I-0.365 J-0.476
G1 X268.052 Y-290.117
X267.64 Y-290.504
X267.433 Y-290.69
G3 X267.322 Y-291.412 I0.415 J-0.433
G1 X267.368 Y-291.494 Z-4.793
X267.412 Y-291.574 Z-4.771
X267.454 Y-291.65 Z-4.735
X267.492 Y-291.721 Z-4.685
X267.527 Y-291.783 Z-4.624
X267.556 Y-291.837 Z-4.553
X267.58 Y-291.88 Z-4.472
X267.597 Y-291.912 Z-4.385
X267.608 Y-291.931 Z-4.294
X267.612 Y-291.937 Z-4.2
G0 Z2.5
X271.561 Y-341.661
Z-3.6
G1 Z-4.2 F1000.
X271.568 Y-341.66 Z-4.294
X271.59 Y-341.657 Z-4.385
X271.626 Y-341.652 Z-4.472
X271.675 Y-341.646 Z-4.553
X271.735 Y-341.638 Z-4.624
X271.806 Y-341.628 Z-4.685
X271.886 Y-341.618 Z-4.735
X271.972 Y-341.607 Z-4.771
X272.063 Y-341.595 Z-4.793
X272.156 Y-341.582 Z-4.8
G3 X272.885 Y-341.29 I-0.206 J1.569
G1 X273.086 Y-341.132
X273.69 Y-340.648
X274.182 Y-340.247
X278.605 Y-336.622
X279.575 Y-335.816
X281.948 Y-333.843
X282.6 Y-333.243
X283.17 Y-332.564
X283.657 Y-331.824
G3 X285.058 Y-328.576 I-14.259 J8.075
X286.894 Y-319.024 I-40.963 J12.823
X282.652 Y-294.863 I-47.342 J4.142
X278.037 Y-287.318 I-36.989 J-17.439
G1 X277.469 Y-286.637
X276.886 Y-285.97
X276.278 Y-285.326
X275.635 Y-284.715
X275.017 Y-284.218
G3 X274.228 Y-284.251 I-0.376 J-0.468
G1 X270.818 Y-287.49
G3 X270.73 Y-288.215 I0.428 J-0.42
G1 X270.777 Y-288.295 Z-4.793
X270.824 Y-288.374 Z-4.771
X270.868 Y-288.449 Z-4.735
X270.909 Y-288.518 Z-4.685
X270.945 Y-288.58 Z-4.624
X270.976 Y-288.633 Z-4.553
X271.001 Y-288.675 Z-4.472
X271.02 Y-288.706 Z-4.385
X271.031 Y-288.725 Z-4.294
X271.035 Y-288.731 Z-4.2
G0 Z2.5
X280.634 Y-334.248
Z-3.6
G1 Z-4.2 F1000.
X280.641 Y-334.247 Z-4.294
X280.663 Y-334.244 Z-4.385
X280.699 Y-334.238 Z-4.472
X280.747 Y-334.23 Z-4.553
X280.808 Y-334.221 Z-4.624
X280.878 Y-334.21 Z-4.685
X280.958 Y-334.197 Z-4.735
X281.044 Y-334.183 Z-4.771
X281.134 Y-334.169 Z-4.793
X281.227 Y-334.154 Z-4.8
G3 X281.948 Y-333.843 I-0.248 J1.563
G1 X282.722 Y-333.198
X283.19 Y-332.795
X288.06 Y-328.566
X288.392 Y-328.275
X289.028 Y-327.658
X289.586 Y-326.97
X290.04 Y-326.209
X290.406 Y-325.402
G3 X291.297 Y-321.977 I-15.905 J5.966
X291.798 Y-313.145 I-44.538 J6.959
X286.059 Y-291.029 I-51.538 J-1.573
X281.732 Y-284.342 I-38.981 J-20.475
X279.342 Y-281.728 I-21. J-16.805
G1 X278.67 Y-281.15
X278.351 Y-280.925
G3 X277.579 Y-280.993 I-0.345 J-0.491
G1 X276.336 Y-282.247
X274.853 Y-283.656
X274.228 Y-284.251
G3 X274.139 Y-284.976 I0.428 J-0.42
G1 X274.187 Y-285.057 Z-4.793
X274.233 Y-285.136 Z-4.771
X274.277 Y-285.21 Z-4.735
X274.318 Y-285.28 Z-4.685
X274.355 Y-285.341 Z-4.624
X274.386 Y-285.394 Z-4.553
X274.411 Y-285.436 Z-4.472
X274.429 Y-285.467 Z-4.385
X274.44 Y-285.486 Z-4.294
X274.444 Y-285.493 Z-4.2
G0 Z2.5
X287.09 Y-328.716
Z-3.6
G1 Z-4.2 F1000.
X287.097 Y-328.715 Z-4.294
X287.119 Y-328.711 Z-4.385
X287.154 Y-328.704 Z-4.472
X287.203 Y-328.695 Z-4.553
X287.263 Y-328.684 Z-4.624
X287.333 Y-328.671 Z-4.685
X287.412 Y-328.656 Z-4.735
X287.498 Y-328.64 Z-4.771
X287.588 Y-328.623 Z-4.793
X287.68 Y-328.606 Z-4.8
G3 X288.392 Y-328.275 I-0.29 J1.556
G1 X291.816 Y-325.268
X291.957 Y-325.143
X294.031 Y-323.236
X294.653 Y-322.604
X295.177 Y-321.89
X295.584 Y-321.102
X295.891 Y-320.271
G3 X296.482 Y-316.784 I-14.973 J4.332
X296.169 Y-307.942 I-46.204 J2.79
X289.296 Y-287.036 I-55.068 J-6.521
X284.725 Y-280.513 I-39.284 J-22.661
X282.228 Y-278.002 I-18.161 J-15.569
G1 X281.512 Y-277.479
X281.38 Y-277.431
X281.239 Y-277.427
X281.105 Y-277.469
X280.991 Y-277.551
X277.579 Y-280.993
G3 X277.512 Y-281.721 I0.441 J-0.407
G1 X277.562 Y-281.8 Z-4.793
X277.611 Y-281.877 Z-4.771
X277.658 Y-281.951 Z-4.735
X277.701 Y-282.019 Z-4.685
X277.739 Y-282.079 Z-4.624
X277.771 Y-282.131 Z-4.553
X277.798 Y-282.173 Z-4.472
X277.817 Y-282.203 Z-4.385
X277.829 Y-282.222 Z-4.294
X277.833 Y-282.228 Z-4.2
G0 Z2.5
X292.739 Y-323.706
Z-3.6
G1 Z-4.2 F1000.
X292.746 Y-323.704 Z-4.294
X292.768 Y-323.7 Z-4.385
X292.803 Y-323.692 Z-4.472
X292.851 Y-323.682 Z-4.553
X292.911 Y-323.67 Z-4.624
X292.981 Y-323.655 Z-4.685
X293.06 Y-323.639 Z-4.735
X293.145 Y-323.621 Z-4.771
X293.235 Y-323.602 Z-4.793
X293.326 Y-323.583 Z-4.8
G3 X294.031 Y-323.236 I-0.325 J1.549
G1 X297.253 Y-320.273
X299.066 Y-318.594
X299.685 Y-317.96
X300.188 Y-317.23
X300.562 Y-316.427
X300.828 Y-315.582
X301.008 Y-314.714
G3 X301.187 Y-311.179 I-18.64 J2.72
X299.907 Y-301.531 I-52.645 J-2.076
X292.266 Y-282.745 I-57.602 J-12.483
X287.427 Y-276.419 I-38.136 J-24.16
G1 X286.801 Y-275.792
X286.156 Y-275.183
X285.486 Y-274.604
X284.99 Y-274.241
G3 X284.21 Y-274.303 I-0.354 J-0.484
G1 X280.991 Y-277.551
G3 X280.924 Y-278.278 I0.441 J-0.407
G1 X280.974 Y-278.358 Z-4.793
X281.023 Y-278.435 Z-4.771
X281.07 Y-278.509 Z-4.735
X281.113 Y-278.577 Z-4.685
X281.151 Y-278.637 Z-4.624
X281.183 Y-278.689 Z-4.553
X281.21 Y-278.731 Z-4.472
X281.229 Y-278.761 Z-4.385
X281.241 Y-278.78 Z-4.294
X281.245 Y-278.786 Z-4.2
G0 Z2.5
X297.776 Y-319.069
Z-3.6
G1 Z-4.2 F1000.
X297.783 Y-319.068 Z-4.294
X297.805 Y-319.063 Z-4.385
X297.84 Y-319.056 Z-4.472
X297.888 Y-319.045 Z-4.553
X297.948 Y-319.033 Z-4.624
X298.018 Y-319.018 Z-4.685
X298.096 Y-319.001 Z-4.735
X298.181 Y-318.983 Z-4.771
X298.271 Y-318.963 Z-4.793
X298.363 Y-318.944 Z-4.8
G3 X299.066 Y-318.594 I-0.331 J1.547
G1 X300.691 Y-317.087
X301.109 Y-316.684
X304.007 Y-313.865
G3 X304.199 Y-313.462 I-0.42 J0.447
G1 X304.2 Y-313.261
Y-301.379
X304.156 Y-300.494
G3 X303.619 Y-296.996 I-17.191 J-0.846
X300.374 Y-287.819 I-51.939 J-13.206
X293.089 Y-275.698 I-52.171 J-23.105
X289.475 Y-271.806 I-27.485 J-21.898
G1 X288.795 Y-271.237
X288.202 Y-270.817
G3 X287.417 Y-270.898 I-0.347 J-0.49
G1 X285.094 Y-273.386
X284.767 Y-273.731
X284.521 Y-273.99
X284.21 Y-274.303
G3 X284.143 Y-275.031 I0.441 J-0.407
G1 X284.193 Y-275.11 Z-4.793
X284.242 Y-275.188 Z-4.771
X284.289 Y-275.261 Z-4.735
X284.332 Y-275.329 Z-4.685
X284.37 Y-275.39 Z-4.624
X284.402 Y-275.441 Z-4.553
X284.429 Y-275.483 Z-4.472
X284.448 Y-275.513 Z-4.385
X284.46 Y-275.532 Z-4.294
X284.464 Y-275.538 Z-4.2
G0 Z2.5
X303.672 Y-302.648
Z-3.6
G1 Z-4.2 F1000.
X303.676 Y-302.642 Z-4.294
X303.687 Y-302.623 Z-4.385
X303.705 Y-302.592 Z-4.472
X303.731 Y-302.549 Z-4.553
X303.762 Y-302.497 Z-4.624
X303.798 Y-302.435 Z-4.685
X303.839 Y-302.366 Z-4.735
X303.884 Y-302.292 Z-4.771
X303.931 Y-302.213 Z-4.793
X303.979 Y-302.132 Z-4.8
G3 X304.2 Y-301.379 I-1.36 J0.809
G1 Y-287.281
X304.156 Y-286.396
X304.026 Y-285.52
X303.81 Y-284.66
G3 X302.037 Y-280.608 I-20.898 J-6.732
X294.895 Y-270.5 I-45.659 J-24.682
X292.34 Y-268.047 I-21.538 J-19.879
G1 X291.632 Y-267.513
X291.377 Y-267.357
G3 X290.625 Y-267.46 I-0.313 J-0.512
G1 X287.417 Y-270.898
G3 X287.442 Y-271.712 Z-4.61 I0.453 J-0.394
G1 X287.474 Y-271.745 Z-4.6
X303.173 Y-287.682
G3 X303.58 Y-287.86 I0.427 J0.421
X304.2 Y-287.281 Z-4.8 I0.02 J0.6
G1 Y-277.615
X304.156 Y-276.73
X303.997 Y-275.858
X303.732 Y-275.013
G3 X302.056 Y-271.898 I-14.311 J-5.693
X296.283 Y-265.202 I-31.21 J-21.068
G1 X295.607 Y-264.629
X294.9 Y-264.095
X294.557 Y-263.884
G3 X293.792 Y-263.999 I-0.314 J-0.511
G1 X293.024 Y-264.872
X292.795 Y-265.129
X292.613 Y-265.33
X290.625 Y-267.46
G3 X290.684 Y-268.306 Z-4.6 I0.453 J-0.394
G1 X290.71 Y-268.327
X303.232 Y-278.067
G3 X303.58 Y-278.193 I0.368 J0.474
X304.2 Y-277.615 Z-4.8 I0.02 J0.6
G1 Y-269.559
X304.156 Y-268.674
X303.966 Y-267.809
X303.654 Y-266.979
X303.252 Y-266.189
G3 X301.12 Y-263.366 I-13.715 J-8.141
X298.533 Y-260.95 I-15.618 J-14.127
G1 X297.807 Y-260.441
X297.634 Y-260.345
G3 X296.891 Y-260.473 I-0.292 J-0.524
G1 X293.792 Y-263.999
G3 X293.876 Y-264.843 Z-4.6 I0.464 J-0.38
G1 X293.92 Y-264.876
X293.966 Y-264.905
X303.31 Y-270.063
G3 X303.58 Y-270.138 I0.29 J0.525
X304.2 Y-269.559 Z-4.8 I0.02 J0.6
G1 Y-262.712
X304.156 Y-261.827
X303.965 Y-260.962
X303.628 Y-260.142
G3 X300.678 Y-256.88 I-7.988 J-4.258
X299.935 Y-257.008 I-0.292 J-0.524
G1 X296.891 Y-260.473
G3 X296.975 Y-261.317 Z-4.6 I0.464 J-0.38
G1 X297.04 Y-261.363
X297.111 Y-261.401
X297.186 Y-261.428
X303.431 Y-263.267
X303.505 Y-263.283
X303.58 Y-263.291
G3 X304.2 Y-262.712 Z-4.8 I0.02 J0.6
G1 Y-256.67
X304.163 Y-255.933
X303.961 Y-255.194
X303.587 Y-254.485
X303.278 Y-254.121
G3 X302.358 Y-254.126 I-0.458 J-0.388
X302.268 Y-254.693 Z-4.673 I0.475 J-0.366
G1 X302.325 Y-254.853 Z-4.637
X302.383 Y-255.017 Z-4.6
X303.035 Y-256.85
G3 X303.58 Y-257.249 I0.565 J0.201
X304.2 Y-256.67 Z-4.8 I0.02 J0.6
G1 Y-253.649
G3 X303.091 Y-253.234 I-0.614 J0.047
G1 X300.878 Y-255.915
X300.476 Y-256.392
X300.409 Y-256.469
X299.935 Y-257.008
G3 X299.912 Y-257.738 I0.464 J-0.38
G1 X299.967 Y-257.814 Z-4.793
X300.021 Y-257.888 Z-4.771
X300.071 Y-257.959 Z-4.735
X300.118 Y-258.024 Z-4.685
X300.16 Y-258.082 Z-4.624
X300.196 Y-258.132 Z-4.553
X300.224 Y-258.172 Z-4.472
X300.245 Y-258.201 Z-4.385
X300.258 Y-258.219 Z-4.294
X300.262 Y-258.225 Z-4.2
G0 Z2.5
X175.158 Y-325.352
Z-3.6
G1 Z-4.2 F1000.
X175.155 Y-325.345 Z-4.294
X175.148 Y-325.325 Z-4.385
X175.136 Y-325.291 Z-4.472
X175.119 Y-325.244 Z-4.553
X175.099 Y-325.187 Z-4.624
X175.075 Y-325.119 Z-4.685
X175.048 Y-325.044 Z-4.735
X175.019 Y-324.962 Z-4.771
X174.988 Y-324.876 Z-4.793
X174.957 Y-324.787 Z-4.8
G3 X174.518 Y-324.136 I-1.491 J-0.53
G1 X169.169 Y-319.696
X168.967 Y-319.528
X168.564 Y-319.177
X168.54 Y-319.191
X168.524 Y-319.214
X168.49 Y-319.301 Z-4.793
X168.457 Y-319.387 Z-4.771
X168.426 Y-319.468 Z-4.735
X168.397 Y-319.543 Z-4.685
X168.372 Y-319.61 Z-4.624
X168.35 Y-319.667 Z-4.553
X168.332 Y-319.713 Z-4.472
X168.319 Y-319.746 Z-4.385
X168.311 Y-319.767 Z-4.294
X168.309 Y-319.774 Z-4.2
G0 Z2.5
X124.237 Y-335.174
Z-3.6
G1 Z-4.2 F1000.
X124.239 Y-335.181 Z-4.294
X124.245 Y-335.203 Z-4.385
X124.256 Y-335.237 Z-4.472
X124.27 Y-335.284 Z-4.553
X124.288 Y-335.343 Z-4.624
X124.309 Y-335.411 Z-4.685
X124.332 Y-335.488 Z-4.735
X124.357 Y-335.571 Z-4.771
X124.384 Y-335.659 Z-4.793
X124.411 Y-335.749 Z-4.8
G3 X124.818 Y-336.42 I1.515 J0.459
G1 X128.286 Y-339.589
X128.961 Y-340.146
G3 X131.6 Y-341.08 I2.717 J3.481
X134.315 Y-340.764 I0.444 J7.998
X137.679 Y-339.558 I-5.323 J20.147
X143.274 Y-336.883 I-43.252 J97.627
X166.016 Y-324.236 I-139.825 J278.213
G1 X166.085 Y-324.183
X166.146 Y-324.12
X166.197 Y-324.05
X166.237 Y-323.972
X166.265 Y-323.89
X166.282 Y-323.805
X166.285 Y-323.718
X166.276 Y-323.631
X166.255 Y-323.546
X166.225 Y-323.457 Z-4.793
X166.196 Y-323.371 Z-4.771
X166.169 Y-323.288 Z-4.735
X166.143 Y-323.212 Z-4.685
X166.121 Y-323.144 Z-4.624
X166.101 Y-323.086 Z-4.553
X166.086 Y-323.039 Z-4.472
X166.074 Y-323.005 Z-4.385
X166.067 Y-322.984 Z-4.294
X166.065 Y-322.977 Z-4.2
G0 Z2.5
X127.705 Y-338.343
Z-3.6
G1 Z-4.2 F1000.
X127.707 Y-338.35 Z-4.294
X127.714 Y-338.371 Z-4.385
X127.724 Y-338.405 Z-4.472
X127.738 Y-338.452 Z-4.553
X127.756 Y-338.511 Z-4.624
X127.777 Y-338.58 Z-4.685
X127.8 Y-338.656 Z-4.735
X127.825 Y-338.74 Z-4.771
X127.852 Y-338.827 Z-4.793
X127.879 Y-338.917 Z-4.8
G3 X128.286 Y-339.589 I1.515 J0.459
G1 X132.515 Y-343.452
X133.069 Y-343.909
X133.858 Y-344.313
X134.714 Y-344.542
X135.596 Y-344.622
X136.481 Y-344.582
X137.357 Y-344.447
G3 X140.722 Y-343.352 I-3.911 J17.735
X146.33 Y-340.703 I-33.102 J77.341
X158.927 Y-333.962 I-131.592 J261.039
G1 X158.997 Y-333.912
X159.06 Y-333.852
X159.113 Y-333.783
X159.156 Y-333.707
X159.188 Y-333.626
X159.207 Y-333.541
X159.214 Y-333.454
X159.208 Y-333.367
X159.19 Y-333.282
X159.163 Y-333.192 Z-4.793
X159.137 Y-333.104 Z-4.771
X159.112 Y-333.021 Z-4.735
X159.089 Y-332.944 Z-4.685
X159.069 Y-332.876 Z-4.624
X159.052 Y-332.817 Z-4.553
X159.038 Y-332.77 Z-4.472
X159.027 Y-332.735 Z-4.385
X159.021 Y-332.714 Z-4.294
X159.019 Y-332.707 Z-4.2
G0 Z2.5
X131.934 Y-342.206
Z-3.6
G1 Z-4.2 F1000.
X131.936 Y-342.213 Z-4.294
X131.943 Y-342.234 Z-4.385
X131.953 Y-342.269 Z-4.472
X131.968 Y-342.316 Z-4.553
X131.985 Y-342.375 Z-4.624
X132.006 Y-342.443 Z-4.685
X132.029 Y-342.52 Z-4.735
X132.055 Y-342.603 Z-4.771
X132.081 Y-342.691 Z-4.793
X132.108 Y-342.781 Z-4.8
G3 X132.515 Y-343.452 I1.515 J0.459
G1 X133.415 Y-344.274
X133.644 Y-344.476
X133.925 Y-344.721
X136.43 Y-346.893
X137.089 Y-347.409
X137.888 Y-347.792
X138.75 Y-347.999
X139.634 Y-348.059
X140.518 Y-348.002
X141.392 Y-347.853
G3 X144.745 Y-346.719 I-4.395 J18.523
X150.336 Y-344.038 I-34.315 J78.723
X157.189 Y-340.412 I-114.03 J223.81
G1 X157.261 Y-340.362
X157.324 Y-340.302
X157.379 Y-340.234
X157.423 Y-340.159
X157.455 Y-340.078
X157.476 Y-339.994
X157.484 Y-339.907
X157.479 Y-339.82
X157.462 Y-339.734
X157.436 Y-339.644 Z-4.793
X157.411 Y-339.556 Z-4.771
X157.388 Y-339.472 Z-4.735
X157.366 Y-339.395 Z-4.685
X157.347 Y-339.326 Z-4.624
X157.33 Y-339.267 Z-4.553
X157.317 Y-339.22 Z-4.472
X157.307 Y-339.185 Z-4.385
X157.301 Y-339.164 Z-4.294
X157.299 Y-339.157 Z-4.2
G0 Z2.5
X135.816 Y-345.662
Z-3.6
G1 Z-4.2 F1000.
X135.819 Y-345.669 Z-4.294
X135.826 Y-345.69 Z-4.385
X135.837 Y-345.724 Z-4.472
X135.852 Y-345.771 Z-4.553
X135.872 Y-345.829 Z-4.624
X135.894 Y-345.897 Z-4.685
X135.919 Y-345.973 Z-4.735
X135.947 Y-346.056 Z-4.771
X135.976 Y-346.143 Z-4.793
X136.005 Y-346.232 Z-4.8
G3 X136.43 Y-346.893 I1.502 J0.498
G1 X140.37 Y-350.308
X141.025 Y-350.821
G3 X143.684 Y-351.703 I2.679 J3.626
X146.435 Y-351.346 I0.335 J8.175
X149.752 Y-350.111 I-5.516 J19.901
X155.304 Y-347.348 I-40.611 J88.551
G1 X156.091 Y-346.939
X156.873 Y-346.524
X157.362 Y-346.263
G3 X157.579 Y-345.443 Z-4.6 I-0.302 J0.519
X156.913 Y-345.162 I-0.519 J-0.301
G1 X140.631 Y-349.287
G3 X140.339 Y-349.461 I0.147 J-0.582
G1 X140.284 Y-349.528 Z-4.618
X140.24 Y-349.603 Z-4.637
G3 X140.37 Y-350.308 Z-4.8 I0.538 J-0.266
X144.8 Y-354.05 I84.611 J95.688
G1 X145.473 Y-354.549
G3 X148.151 Y-355.379 I2.634 J3.765
X150.958 Y-354.972 I0.215 J8.404
X154.415 Y-353.626 I-6.116 J20.826
X157.786 Y-351.947 I-31.406 J67.242
G1 X157.896 Y-351.935
X158.003 Y-351.964
X158.092 Y-352.029
X158.152 Y-352.123
X158.173 Y-352.231
G3 X158.242 Y-355.402 I7.634 J-1.42
X159.565 Y-359.381 I17.367 J3.564
X164.266 Y-367.227 I34.689 J15.451
X178.26 Y-379.293 I35.876 J27.461
G1 X179.032 Y-379.728
X179.816 Y-380.14
X180.67 Y-380.377
G2 X183.991 Y-381.615 I-24.189 J-69.988
G3 X198.589 Y-385.145 I20.253 J51.798
X217.101 Y-384.149 I5.944 J62.063
X228.181 Y-381.042 I-13.952 J71.055
X242.59 Y-374.252 I-30.244 J82.863
G1 X243.327 Y-373.76
X244.004 Y-373.189
X244.604 Y-372.537
X245.103 Y-371.805
X245.208 Y-371.584
G3 X244.942 Y-370.793 I-0.542 J0.258
G1 X242.878 Y-369.726
X242.676 Y-369.619
X242.475 Y-369.511
G3 X241.758 Y-369.652 I-0.266 J-0.538
G1 X241.696 Y-369.723 Z-4.793
X241.636 Y-369.792 Z-4.771
X241.578 Y-369.857 Z-4.735
X241.525 Y-369.917 Z-4.685
X241.478 Y-369.971 Z-4.624
X241.438 Y-370.017 Z-4.553
X241.405 Y-370.054 Z-4.472
X241.381 Y-370.081 Z-4.385
X241.367 Y-370.097 Z-4.294
X241.362 Y-370.103 Z-4.2
G0 Z2.5
X144.155 Y-352.836
Z-3.6
G1 Z-4.2 F1000.
X144.158 Y-352.843 Z-4.294
X144.165 Y-352.864 Z-4.385
X144.177 Y-352.898 Z-4.472
X144.194 Y-352.944 Z-4.553
X144.215 Y-353.002 Z-4.624
X144.239 Y-353.069 Z-4.685
X144.266 Y-353.145 Z-4.735
X144.296 Y-353.226 Z-4.771
X144.327 Y-353.312 Z-4.793
X144.359 Y-353.401 Z-4.8
G3 X144.8 Y-354.05 I1.489 J0.537
G1 X149.231 Y-357.694
X149.903 Y-358.193
X150.712 Y-358.554
X151.578 Y-358.743
X152.463 Y-358.786
G3 X153.452 Y-358.663 I-0.465 J7.782
G1 X153.56 Y-358.684
X153.654 Y-358.743
X154.18 Y-359.457
G2 X155.776 Y-362.621 I-176.306 J-90.952
G3 X171.295 Y-380.518 I43.633 J22.159
X176.555 Y-383.797 I27.907 J38.912
G1 X177.361 Y-384.167
G3 X185.656 Y-387.278 I53.576 J130.224
G1 X186.504 Y-387.537
X187.352 Y-387.791
G3 X207.504 Y-390.125 I16.99 J58.543
X224.075 Y-387.379 I-3.334 J71.503
X236.529 Y-382.775 I-22.616 J80.325
X244.403 Y-378.72 I-36.676 J80.879
G1 X245.145 Y-378.234
G3 X247.81 Y-375.912 I-7.374 J11.153
G1 X248.362 Y-375.218
X248.841 Y-374.473
X249.225 Y-373.674
X249.254 Y-373.583
G3 X248.958 Y-372.868 I-0.572 J0.181
G1 X244.942 Y-370.793
G3 X244.228 Y-370.947 I-0.257 J-0.542
G1 X244.167 Y-371.019 Z-4.793
X244.108 Y-371.088 Z-4.771
X244.051 Y-371.155 Z-4.735
X243.999 Y-371.216 Z-4.685
X243.953 Y-371.271 Z-4.624
X243.914 Y-371.317 Z-4.553
X243.882 Y-371.355 Z-4.472
X243.858 Y-371.382 Z-4.385
X243.844 Y-371.399 Z-4.294
X243.839 Y-371.404 Z-4.2
G0 Z2.5
X148.586 Y-356.48
Z-3.6
G1 Z-4.2 F1000.
X148.588 Y-356.487 Z-4.294
X148.596 Y-356.508 Z-4.385
X148.608 Y-356.541 Z-4.472
X148.625 Y-356.588 Z-4.553
X148.645 Y-356.645 Z-4.624
X148.67 Y-356.713 Z-4.685
X148.697 Y-356.788 Z-4.735
X148.726 Y-356.87 Z-4.771
X148.758 Y-356.956 Z-4.793
X148.789 Y-357.044 Z-4.8
G3 X149.231 Y-357.694 I1.489 J0.537
G1 X151.524 Y-359.58
X151.647 Y-359.684
X152.05 Y-360.027
G2 X152.86 Y-362.941 I-2.08 J-2.148
G1 X152.637 Y-363.798
X152.602 Y-364.684
X152.709 Y-365.563
X152.924 Y-366.423
G3 X154.419 Y-369.628 I14.336 J4.735
X159.768 Y-376.673 I37.013 J22.548
X173.614 Y-387.61 I40.383 J36.894
X179.306 Y-390.067 I25.23 J50.628
