(6MM-ADAPTIVE)
(T1 D=6. CR=0. - ZMIN=-19.2 - FLAT END MILL)
G90 G94 G91.1 G40 G49 G17
G21
G28 G91 Z0.
G90

(ADAPTIVE2)
T1 M6
S5000 M3
G17 G90 G94
G54
M8
G0 X49.836 Y-0.893
G43 Z2.5 H1
G0 Z2.
G3 X54.497 Y-2.331 Z1.8 I2.828 J0.893 F333.
X54.198 Y2.532 Z1.6 I-1.831 J2.328
X49.758 Y0.539 Z1.4 I-1.53 J-2.532
X53.186 Y-2.908 Z1.2 I2.905 J-0.538
X55.199 Y1.51 Z1. I-0.521 J2.905
X50.361 Y1.835 Z0.8 I-2.531 J-1.511
X51.762 Y-2.801 Z0.6 I2.304 J-1.833
X55.601 Y0.142 Z0.4 I0.901 J2.799
X51.497 Y2.693 Z0.2 I-2.934 J-0.144
X50.56 Y-2.042 Z0. I1.169 J-2.691
X55.315 Y-1.249 Z-0.2 I2.103 J2.041
X52.898 Y2.915 Z-0.4 I-2.648 J1.246
X49.858 Y-0.811 Z-0.6 I-0.231 J-2.914
X54.412 Y-2.339 Z-0.8 I2.805 J0.811
X54.235 Y2.455 Z-1. I-1.746 J2.336
X49.817 Y0.601 Z-1.2 I-1.568 J-2.455
X53.107 Y-2.875 Z-1.4 I2.847 J-0.6
X55.195 Y1.425 Z-1.6 I-0.443 J2.872
X50.441 Y1.862 Z-1.8 I-2.528 J-1.426
X51.709 Y-2.735 Z-2. I2.224 J-1.86
X55.558 Y0.069 Z-2.2 I0.955 J2.734
X51.58 Y2.678 Z-2.4 I-2.891 J-0.071
X50.544 Y-1.959 Z-2.6 I1.085 J-2.677
X55.243 Y-1.293 Z-2.8 I2.119 J1.958
X52.965 Y2.864 Z-3. I-2.576 J1.291
X49.883 Y-0.73 Z-3.2 I-0.298 J-2.863
X54.327 Y-2.344 Z-3.4 I2.78 J0.73
X54.269 Y2.378 Z-3.6 I-1.662 J2.341
X49.877 Y0.66 Z-3.8 I-1.602 J-2.378
X53.031 Y-2.84 Z-4. I2.787 J-0.659
X55.19 Y1.341 Z-4.2 I-0.366 J2.837
X50.522 Y1.886 Z-4.4 I-2.522 J-1.342
X51.658 Y-2.669 Z-4.6 I2.143 J-1.884
X55.514 Y-0.002 Z-4.8 I1.006 J2.667
X49.813 I-2.85 J0.
X55.514 I2.85 J0.
G1 X55.515 Y0.109 F1000.
X55.557 Y0.212
X56.166 Y0.856
X56.244 Y0.906
X56.56 Y1.134
X56.862 Y1.474
X57.116 Y1.927
X57.285 Y2.489
X57.334 Y3.146
X57.23 Y3.872
X56.941 Y4.637
X56.457 Y5.379
X55.828 Y6.003
X55.092 Y6.497
X54.282 Y6.857
X53.426 Y7.084
X52.545 Y7.181
X51.659 Y7.153
X50.786 Y7.005
X49.939 Y6.744
X49.133 Y6.376
X48.379 Y5.91
X47.69 Y5.353
X47.074 Y4.715
X46.542 Y4.007
X46.1 Y3.239
X45.755 Y2.423
X45.511 Y1.571
X45.373 Y0.696
X45.341 Y-0.19
X45.417 Y-1.073
X45.599 Y-1.94
X45.884 Y-2.779
X46.269 Y-3.577
X46.747 Y-4.323
X47.312 Y-5.006
X47.955 Y-5.615
X48.668 Y-6.143
X49.438 Y-6.58
X50.256 Y-6.921
X51.109 Y-7.162
X51.985 Y-7.297
X52.87 Y-7.325
X53.753 Y-7.247
X54.62 Y-7.062
X55.458 Y-6.775
X56.255 Y-6.388
X57. Y-5.907
X57.681 Y-5.341
X58.289 Y-4.696
X58.814 Y-3.983
X59.314 Y-3.251
X59.847 Y-2.543
X60.35 Y-1.814
X60.801 Y-1.051
X61.187 Y-0.253
X61.486 Y0.581
X61.703 Y1.44
X61.819 Y2.319
X61.846 Y3.205
X61.769 Y4.087
X61.604 Y4.958
X61.34 Y5.804
X60.996 Y6.62
X60.56 Y7.392
X60.055 Y8.12
X59.473 Y8.788
X58.833 Y9.401
X58.133 Y9.944
X57.388 Y10.424
G3 X54.067 Y11.613 I-5.013 J-8.772
X49.669 Y11.461 I-1.834 J-10.658
X45.664 Y9.629 I2.645 J-11.075
X40.743 Y0.603 I6.891 J-9.611
X53.688 Y-11.897 I11.916 J-0.612
X61.461 Y-8.075 I-1.022 J11.891
X64.635 Y-3.822 I-18.836 J17.37
X66.208 Y0.303 I-12.755 J7.225
X63.572 Y11.137 I-12.742 J2.637
X57.938 Y15.314 I-10.84 J-8.731
X49.24 Y16.138 I-5.723 J-14.086
X45.062 Y14.707 I2.97 J-15.487
X36.538 Y-3.966 I7.485 J-14.698
X58.785 Y-15.443 I16.121 J3.949
X64.633 Y-11.529 I-6.156 J15.526
X69.283 Y-5.091 I-17.65 J17.645
X71.037 Y0.831 I-17.099 J8.286
X65.391 Y16.034 I-17.681 J2.084
X55.146 Y20.905 I-12.915 J-13.953
G1 X54.267 Y21.02
G3 X37.385 Y14.816 I-2.027 J-20.554
X36.742 Y-14.165 I15.211 J-14.835
X66.974 Y-15.798 I15.925 J14.149
X74.14 Y-5.794 I-18.789 J21.028
X75.42 Y-1.558 I-23.569 J9.433
X67.998 Y20.02 I-22.085 J4.469
X54.335 Y25.745 I-15.574 J-18.003
X43.036 Y24.106 I-2.169 J-24.818
X27.019 Y-4.445 I9.466 J-24.078
X33.618 Y-17.751 I25.489 J4.352
X69.654 Y-19.732 I19.048 J17.744
X76.478 Y-11.638 I-21.2 J24.798
X80.601 Y2.669 I-24.315 J14.755
X68.837 Y25.355 I-27.401 J0.184
X60.92 Y29.251 I-16.173 J-22.873
X36.991 Y26.409 I-8.762 J-28.39
X22.512 Y6.097 I15.435 J-26.319
X48.71 Y-30.516 I30.137 J-6.115
X73.304 Y-22.834 I3.956 J30.546
X83.289 Y-8.4 I-24.304 J27.484
X84.887 Y-2.415 I-32.376 J11.847
X73.597 Y27.681 I-31.587 J5.316
X58.505 Y34.726 I-21.094 J-25.503
X31.634 Y28.558 I-6.334 J-34.022
X18.872 Y10.898 I20.75 J-28.435
X36.88 Y-31.815 I33.77 J-10.915
X75.195 Y-27.46 I15.788 J31.816
X81.953 Y-20.468 I-25.493 J31.406
X89.14 Y-5.382 I-31.385 J24.206
X87.837 Y15.553 I-35.967 J8.271
X81.698 Y26.266 I-34.777 J-12.814
X57.474 Y39.698 I-29.21 J-24.12
X35.85 Y36.506 I-5.326 J-38.758
X12.676 Y-4.652 I16.642 J-36.473
X44.64 Y-39.458 I39.962 J4.619
X78.659 Y-30.762 I8.029 J39.476
X87.975 Y-20.15 I-29.284 J35.104
X94.779 Y0.677 I-36.203 J23.354
X88.369 Y25.143 I-41.535 J2.191
G1 X87.885 Y25.885
X87.387 Y26.618
X86.873 Y27.34
G3 X60.548 Y44.006 I-34.313 J-25.076
X42.085 Y43.641 I-8.391 J-42.698
X8.646 Y9.391 I10.315 J-43.519
X25.093 Y-35.591 I43.962 J-9.424
X72.762 Y-40.289 I27.572 J35.571
X86.745 Y-29.572 I-21.154 J42.083
X97.872 Y-9.632 I-36.745 J33.577
X99.496 Y-0.037 I-46.262 J12.767
X82.304 Y38.98 I-46.231 J2.926
X77.244 Y42.559 I-28.091 J-34.356
X42.28 Y48.552 I-25.042 J-41.104
X29.001 Y43.73 I9.715 J-47.439
X2.977 Y2.975 I23.493 J-43.688
X23.899 Y-40.633 I49.653 J-3.
X71.984 Y-45.883 I28.764 J40.619
X88.692 Y-34.449 I-19.923 J47.039
X101.926 Y-12.695 I-39. J38.629
X103.081 Y-8.418 I-57.224 J17.744
X90.094 Y38.284 I-49.775 J11.316
X57.268 Y54.092 I-37.656 J-36.206
X44.017 Y53.714 I-5.139 J-52.234
X4.406 Y25.388 I8.318 J-53.491
X3.354 Y-23.318 I48.168 J-25.405
X41.659 Y-53.428 I49.298 J23.296
X86.716 Y-42.624 I11.005 J53.462
G1 X87.412 Y-42.076
X88.093 Y-41.51
X88.766 Y-40.933
G3 X105.7 Y-16.394 I-39.542 J45.4
X109.115 Y3.589 I-53.44 J19.416
X87.241 Y47.222 I-55.905 J-0.727
X50.003 Y59.06 I-34.929 J-45.389
X39.472 Y57.704 I1.92 J-56.506
X0.451 Y28.106 I12.881 J-57.503
X-2.893 Y-20.772 I52.124 J-28.119
X31.687 Y-55.483 I55.541 J20.751
X80.582 Y-52.335 I20.978 J55.474
X98.418 Y-37.961 I-29.286 J54.59
X111.48 Y-14.036 I-48.217 J41.854
X104.935 Y34.59 I-58.267 J16.911
X67.217 Y62.043 I-52.321 J-32.245
G1 X66.358 Y62.259
X65.493 Y62.453
X64.626 Y62.636
G3 X16.445 Y52.803 I-12.455 J-61.936
X-10.363 Y11.546 I35.999 J-52.73
X0.027 Y-36.554 I62.966 J-11.57
X41.465 Y-63.1 I52.627 J36.535
X89.509 Y-52.44 I11.2 J63.118
X115.697 Y-16.593 I-39.87 J56.617
X117.061 Y-11.455 I-71.779 J21.801
X108.965 Y37.138 I-63.766 J14.347
X69.321 Y66.43 I-56.325 J-34.757
X21.095 Y61.111 I-17.186 J-65.457
G1 X20.305 Y60.71
G3 X-12.073 Y23.43 I32.161 J-60.633
X-11.118 Y-25.943 I64.684 J-23.445
X22.654 Y-61.975 I63.773 J25.931
X71.863 Y-66.128 I30.01 J61.971
X99.412 Y-50.606 I-19.442 J66.714
X111.473 Y-36.5 I-49.616 J54.633
X123.15 Y-3.411 I-60.004 J39.779
X122.885 Y11.623 I-71.11 J6.267
X99.849 Y55.354 I-69.678 J-8.771
X53.793 Y73.397 I-47.491 J-53.424
X6.878 Y57.605 I-1.62 J-72.769
X-19.293 Y15.569 I45.559 J-57.529
X-12.884 Y-33.537 I71.888 J-15.59
X23.185 Y-67.473 I65.535 J33.518
X72.592 Y-70.884 I29.479 J67.466
X102.52 Y-54.234 I-20.16 J71.457
X113.179 Y-42.406 I-52.136 J57.704
X127.216 Y-9.257 I-62.246 J45.905
X128.178 Y4.868 I-75.946 J12.265
X110.553 Y51.187 I-74.893 J-1.985
X67.956 Y76.561 I-58.021 J-48.959
X18.704 Y70.585 I-15.813 J-75.621
X-16.944 Y36.052 I33.649 J-70.4
X-24.657 Y-12.983 I69.5 J-36.056
X-1.366 Y-56.819 I77.294 J12.962
X43.585 Y-77.88 I54.026 J56.808
X92.176 Y-67.725 I9.079 J77.886
X115.911 Y-46.714 I-41.395 J70.671
X125.529 Y-30.83 I-65.166 J50.315
X131.444 Y18.496 I-72.786 J33.746
X107.021 Y61.751 I-78.353 J-15.72
X61.821 Y82.401 I-54.617 J-59.754
X12.994 Y73.038 I-9.665 J-81.595
X-21.644 Y37.354 I39.385 J-72.882
X-29.686 Y-11.726 I74.208 J-37.358
X-8.277 Y-56.619 I82.32 J11.706
X34.921 Y-81.27 I60.938 J56.609
X84.462 Y-76.867 I17.743 J81.269
X112.211 Y-58.186 I-32.442 J78.139
X122.892 Y-45.206 I-61.796 J61.735
X137.233 Y-6.532 I-71.568 J48.535
X137.753 Y2.31 I-89.843 J9.714
X123.421 Y49.961 I-84.425 J0.588
X84.804 Y81.363 I-70.703 J-47.503
X35.235 Y86.08 I-32.624 J-80.027
X-8.825 Y62.852 I17.015 J-85.679
X-33.13 Y19.369 I61.304 J-62.8
X-29.897 Y-30.343 I85.73 J-19.385
X-0.175 Y-70.323 I82.541 J30.324
X46.497 Y-87.746 I52.835 J70.308
X95.147 Y-77.024 I6.168 J87.747
X120.955 Y-55.696 I-44. J79.52
X130.569 Y-41.903 I-70.349 J59.284
X142.469 Y6.512 I-78.454 J44.952
X126.614 Y53.763 I-89.306 J-3.68
X87.951 Y85.229 I-73.923 J-51.345
X38.482 Y91.498 I-35.758 J-83.846
X-6.975 Y70.969 I13.749 J-91.036
X-35.147 Y29.802 I59.429 J-70.892
X-37.89 Y-20.009 I87.734 J-29.813
X-14.424 Y-64.032 I90.528 J19.99
X28.456 Y-89.527 I67.08 J64.015
X78.342 Y-89.116 I24.207 J89.512
X115.165 Y-68.569 I-25.928 J89.738
X120.867 Y-62.997 I-59.777 J66.877
X143.578 Y-23.395 I-71.024 J67.045
X144.703 Y-19.11 I-121.638 J34.23
X143.088 Y30.77 I-91.525 J22.002
X116.177 Y72.8 I-89.999 J-27.994
X71.629 Y95.323 I-63.724 J-70.722
X21.783 Y92.397 I-19.473 J-94.299
X-19.983 Y65.018 I30.513 J-92.093
X-42.666 Y20.521 I72.484 J-64.979
X-40.328 Y-29.37 I95.283 J-20.536
X-13.593 Y-71.558 I92.984 J29.361
X30.524 Y-94.976 I66.253 J71.55
X80.448 Y-93.48 I22.14 J94.965
X118.678 Y-71.837 I-28.058 J94.149
X123.143 Y-67.534 I-59.037 J65.718
X147.786 Y-26.016 I-73.404 J71.642
G1 X148.032 Y-25.165
X148.278 Y-24.314
G3 X149.444 Y25.636 I-95.194 J27.209
X126.022 Y69.768 I-96.267 J-22.809
X84.07 Y96.919 I-73.444 J-67.496
X34.215 Y100.483 I-31.892 J-95.65
X-11.293 Y79.792 I18.023 J-100.029
X-41.501 Y39.955 I63.741 J-79.705
X-49.198 Y-9.446 I94.089 J-39.961
X-32.559 Y-56.593 I101.835 J9.43
X4.438 Y-90.223 I85.219 J56.585
X52.955 Y-102.303 I48.226 J90.223
X101.402 Y-89.948 I-0.292 J102.311
X132.039 Y-64.8 I-50.205 J92.401
X138.458 Y-56.328 I-78.154 J65.876
X156.134 Y-9.525 I-87.235 J59.687
X149.963 Y40.106 I-103.057 J12.384
X121.266 Y81.067 I-96.953 J-37.39
X76.795 Y103.968 I-68.807 J-78.988
X26.765 Y103.782 I-24.633 J-102.857
X-17.642 Y80.723 I25.501 J-103.398
X-46.672 Y39.964 I70.106 J-80.65
X-53.992 Y-9.539 I99.262 J-39.971
X-38.014 Y-56.961 I106.632 J9.524
X-2.231 Y-91.944 I90.673 J56.954
X45.54 Y-106.848 I54.894 J91.938
X94.867 Y-98.418 I7.124 J106.848
X129.706 Y-74.493 I-42.942 J99.859
X135.09 Y-68.613 I-72.875 J72.13
X158.228 Y-24.199 I-84.906 J72.465
X159.203 Y25.849 I-105.392 J27.088
X137.584 Y70.994 I-106.062 J-23.043
X98.033 Y101.682 I-84.909 J-68.601
X48.96 Y111.609 I-45.801 J-100.155
X0.525 Y98.899 I3.227 J-110.943
X-37.448 Y66.252 I51.845 J-98.712
X-57.341 Y20.293 I89.985 J-66.234
X-55.176 Y-29.741 I109.962 J-20.305
X-31.394 Y-73.816 I107.828 J29.729
X9.237 Y-103.095 I84.056 J73.811
X58.571 Y-111.712 I43.426 J103.088
X106.722 Y-97.941 I-5.911 J111.735
X140.451 Y-69.636 I-55.639 J100.55
X144.241 Y-64.727 I-77.814 J63.989
X164.343 Y-18.827 I-93.471 J68.289
X162.835 Y31.244 I-111.394 J21.703
X139.857 Y75.756 I-109.698 J-28.442
X99.965 Y106.059 I-87.195 J-73.378
X50.947 Y116.433 I-47.726 J-104.514
X2.145 Y105.064 I1.233 J-115.726
X-37.325 Y74.187 I50.214 J-104.856
X-60.166 Y29.581 I89.842 J-74.154
X-62.171 Y-20.494 I112.776 J-29.593
X-42.975 Y-66.788 I114.826 J20.485
X-6.126 Y-100.754 I95.632 J66.778
X41.574 Y-116.124 I58.79 J100.749
X91.321 Y-110.06 I11.088 J116.129
X133.33 Y-84.342 I-39.082 J111.002
G1 X133.978 Y-83.737
G3 X162.249 Y-42.316 I-84.59 J88.095
X171.156 Y7.017 I-109.903 J45.313
X158.793 Y55.594 I-117.955 J-4.159
X127.388 Y94.662 I-105.82 J-52.906
X82.655 Y117.293 I-74.937 J-92.599
X32.572 Y119.616 I-30.48 J-116.1
X-14.127 Y101.356 I19.656 J-119.111
X-49.42 Y65.735 I66.532 J-101.216
X-67.289 Y18.882 I101.983 J-65.729
X-64.694 Y-31.196 I119.925 J-18.894
X-42.085 Y-75.955 I117.338 J31.182
X-3.317 Y-107.763 I94.739 J75.941
X44.996 Y-121.194 I55.984 J107.768
X94.617 Y-113.959 I7.665 J121.204
X137.121 Y-87.339 I-42.43 J114.99
X165.809 Y-46.174 I-87.422 J91.502
X176.011 Y2.936 I-113.445 J49.182
X165.743 Y52.028 I-122.793 J-0.063
X136.7 Y92.918 I-112.708 J-49.295
X93.777 Y118.872 I-84.151 J-90.697
X44.087 Y125.746 I-41.571 J-117.462
X-4.315 Y112.551 I8.107 J-125.103
X-43.704 Y81.477 I56.689 J-112.363
X-67.849 Y37.497 I96.243 J-81.454
X-72.941 Y-12.416 I120.459 J-37.506
X-58.182 Y-60.369 I125.567 J12.399
X-25.908 Y-98.783 I110.823 J60.346
X18.782 Y-121.589 I78.569 J98.773
X68.826 Y-125.183 I33.884 J121.603
X116.317 Y-108.998 I-16.184 J125.26
X153.913 Y-75.748 I-65.507 J111.949
X176.266 Y-30.807 I-103.207 J79.363
X179.742 Y19.254 I-123.383 J33.717
X163.632 Y66.777 I-126.462 J-16.378
X130.451 Y104.424 I-110.69 J-64.114
X85.369 Y126.474 I-78.011 J-102.383
X35.283 Y129.691 I-33.192 J-125.266
X-12.295 Y113.698 I16.945 J-129.173
X-50.323 Y80.935 I64.7 J-113.549
X-73.215 Y36.262 I102.868 J-80.915
X-77.616 Y-13.741 I125.823 J-36.271
X-62.887 Y-61.728 I130.242 J13.723
X-31.191 Y-100.652 I115.52 J61.7
X12.816 Y-124.799 I83.836 J100.616
X62.674 Y-130.623 I39.844 J124.764
X111.062 Y-117.271 I-10.007 J130.619
X150.368 Y-87.453 I-59.516 J119.271
G1 X150.969 Y-86.802
G3 X177.057 Y-43.889 I-101.369 J91.011
X185.554 Y5.594 I-124.704 J46.885
X175.022 Y54.681 I-132.374 J-2.731
X146.963 Y96.312 I-121.986 J-51.946
X105.458 Y124.563 I-94.38 J-94.045
X56.455 Y135.513 I-53.222 J-123.05
X6.848 Y127.731 I-4.275 J-134.749
X-36.496 Y102.373 I45.479 J-127.459
X-67.629 Y62.971 I88.995 J-102.32
X-82.298 Y14.943 I120.243 J-62.981
X-78.503 Y-35.132 I134.967 J-14.952
X-56.766 Y-80.402 I131.189 J35.138
X-20.062 Y-114.676 I109.451 J80.422
X26.589 Y-133.266 I72.737 J114.703
X76.806 Y-133.63 I26.075 J133.294
X123.723 Y-115.72 I-24.179 J133.75
X161.079 Y-82.136 I-73.023 J118.79
X184.268 Y-37.572 I-110.593 J85.863
X190.043 Y12.321 I-131.595 J40.513
X177.465 Y60.945 I-136.826 J-9.455
X148.225 Y101.781 I-124.457 J-58.23
X106.283 Y129.416 I-95.663 J-99.544
X57.239 Y140.276 I-54.049 J-127.915
X7.53 Y133.034 I-5.059 J-139.501
X-36.419 Y108.7 I44.788 J-132.742
X-68.975 Y70.44 I88.898 J-108.629
X-85.986 Y23.17 I121.559 J-70.439
X-85.282 Y-27.063 I138.611 J-23.181
X-66.959 Y-73.84 I137.917 J27.047
X-33.358 Y-111.187 I119.596 J73.813
X11.23 Y-134.334 I86.001 J111.145
X61.109 Y-140.325 I41.428 J134.282
X109.909 Y-128.395 I-8.435 J140.284
X151.444 Y-100.123 I-57.946 J129.775
X180.824 Y-59.349 I-101.805 J104.328
X194.472 Y-10.99 I-128.867 J62.473
X190.458 Y39.093 I-141.362 J13.873
X169.233 Y84.633 I-137.287 J-36.269
X133.49 Y119.946 I-116.418 J-82.09
X87.728 Y140.697 I-81.088 J-117.987
X37.616 Y144.416 I-35.543 J-139.451
X-10.737 Y130.73 I14.582 J-143.776
X-51.505 Y101.346 I63.063 J-130.468
X-79.809 Y59.82 I103.968 J-101.271
X-92.269 Y11.134 I132.384 J-59.82
X-87.403 Y-38.885 I144.927 J-11.145
X-65.793 Y-84.257 I140.099 J38.895
X-30.023 Y-119.558 I118.482 J84.281
X15.629 Y-140.569 I82.691 J119.567
X65.708 Y-144.779 I37.032 J140.545
X114.227 Y-131.685 I-13.036 J144.749
X155.437 Y-102.912 I-62.351 J133.197
X184.805 Y-62.109 I-105.81 J107.126
X198.977 Y-13.883 I-132.935 J65.26
X196.086 Y36.294 I-145.89 J16.768
X176.418 Y82.546 I-142.853 J-33.44
X142.307 Y119.459 I-123.491 J-79.898
X97.78 Y142.778 I-89.814 J-117.327
X48.019 Y149.883 I-45.571 J-141.369
X-1.276 Y140.036 I4.168 J-149.173
X-44.523 Y114.409 I53.611 J-139.775
X-76.862 Y75.921 I96.998 J-114.333
X-94.672 Y28.91 I129.406 J-75.904
X-95.961 Y-21.344 I147.258 J-28.921
X-80.588 Y-69.207 I148.604 J21.33
X-50.277 Y-109.312 I133.275 J69.22
X-8.426 Y-137.164 I102.957 J109.336
X40.272 Y-149.641 I61.086 J137.154
X90.36 Y-145.344 I12.394 J149.598
X136.225 Y-124.762 I-37.759 J145.539
X172.886 Y-90.347 I-85.752 J128.08
X196.626 Y-46.019 I-122.527 J94.14
X204.725 Y3.602 I-144.073 J48.987
X196.147 Y53.14 I-151.438 J-0.71
X171.823 Y97.14 I-142.965 J-50.311
X134.461 Y130.784 I-119.058 J-94.647
X88.187 Y150.448 I-82.084 J-128.879
X38.037 Y154.077 I-36.001 J-149.196
X-10.609 Y141.348 I14.155 J-153.409
X-52.585 Y113.661 I62.95 J-141.104
X-83.461 Y73.972 I105.09 J-113.612
X-99.99 Y26.481 I136.033 J-73.965
X-100.434 Y-23.803 I152.583 J-26.492
X-84.75 Y-71.58 I153.084 J23.79
X-54.59 Y-111.817 I137.437 J71.594
X-13.132 Y-140.276 I107.254 J111.818
X35.256 Y-153.96 I65.786 J140.239
X85.478 Y-151.426 I17.41 J153.946
X132.245 Y-132.946 I-32.859 J151.568
X170.731 Y-100.568 I-81.22 J135.608
X197.262 Y-57.835 I-120.787 J104.591
X209.065 Y-8.947 I-145.087 J60.898
X204.757 Y41.158 I-155.927 J11.831
X184.748 Y87.295 I-151.507 J-38.298
X151.135 Y124.702 I-131.798 J-84.626
X107.418 Y149.566 I-98.629 J-122.551
X58.096 Y159.406 I-55.19 J-148.098
X8.173 Y153.294 I-5.924 J-158.538
X-37.345 Y131.894 I44.09 J-152.887
X-73.926 Y97.372 I89.779 J-131.778
X-97.942 Y53.177 I126.469 J-97.348
X-107.017 Y3.704 I150.515 J-53.179
X-100.255 Y-46.138 I159.66 J-3.718
X-78.325 Y-91.405 I152.933 J46.142
X-43.406 Y-127.607 I130.972 J91.388
X1.039 Y-151.157 I96.064 J127.59
X50.605 Y-159.716 I51.629 J151.18
X100.374 Y-152.437 I2.057 J159.714
X145.419 Y-130.052 I-47.836 J152.774
X181.435 Y-94.926 I-95.131 J133.569
X205.183 Y-50.574 I-131.081 J98.721
X214.253 Y-1.094 I-152.703 J53.56
X207.629 Y48.771 I-161.039 J3.981
X185.937 Y94.156 I-154.423 J-45.932
X151.317 Y130.651 I-133.025 J-91.521
X107.164 Y154.757 I-98.828 J-128.527
X57.753 Y164.21 I-54.939 J-153.303
X7.809 Y158.169 I-5.581 J-163.337
X-37.947 Y137.254 I44.459 J-157.771
X-75.218 Y103.461 I90.375 J-137.127
X-100.519 Y59.975 I127.727 J-103.418
X-111.489 Y10.875 I153.118 J-59.983
X-107.101 Y-39.244 I164.146 J-10.883
X-87.772 Y-85.694 I159.734 J39.227
X-55.308 Y-124.129 I140.438 J85.69
X-12.746 Y-150.955 I107.98 J124.143
X35.934 Y-163.664 I65.402 J150.927
X86.178 Y-161.068 I16.732 J163.669
X133.288 Y-143.409 I-33.546 J161.166
X172.928 Y-112.418 I-81.896 J145.595
X201.708 Y-71.138 I-123.289 J116.628
X217.023 Y-23.207 I-149.971 J74.333
X217.315 Y27.107 I-163.983 J26.107
X202.497 Y75.189 I-164.046 J-24.23
X173.944 Y116.617 I-149.404 J-72.419
X134.309 Y147.613 I-121.245 J-114.197
X87.238 Y165.394 I-81.966 J-145.791
X37.01 Y168.408 I-35.055 J-164.174
X-11.865 Y156.437 I15.189 J-167.764
X-55.036 Y130.582 I64.194 J-156.16
X-88.683 Y93.163 I107.479 J-130.479
X-109.833 Y47.502 I141.253 J-93.156
X-116.621 Y-2.36 I162.432 J-47.507
X-108.452 Y-52.014 I169.261 J2.345
X-86.048 Y-97.074 I161.121 J52.015
X-51.389 Y-133.557 I138.696 J97.056
X-7.537 Y-158.242 I104.059 J133.565
X41.633 Y-168.946 I60.197 J158.233
X91.778 Y-164.726 I11.033 J168.937
X138.469 Y-145.956 I-39.16 J164.863
X177.655 Y-114.375 I-87.225 J148.334
X206.177 Y-72.904 I-127.996 J118.573
X221.585 Y-24.992 I-154.451 J76.104
X222.4 Y25.327 I-168.579 J27.895
X208.492 Y73.692 I-169.119 J-22.447
X181.083 Y115.898 I-155.366 J-70.896
X142.576 Y148.301 I-128.346 J-113.438
X96.326 Y168.146 I-90.18 J-146.359
X46.314 Y173.784 I-44.133 J-166.838
X-3.205 Y164.784 I5.875 J-173.049
X-48.055 Y141.945 I55.491 J-164.43
X-84.477 Y107.207 I100.491 J-141.826
X-109.427 Y63.495 I136.995 J-107.17
X-120.823 Y14.47 I162.031 J-63.501
X-117.715 Y-35.766 I173.449 J-14.48
X-100.364 Y-83.013 I170.372 J35.755
X-70.221 Y-123.321 I153.029 J83.014
X-29.808 Y-153.322 I122.882 J123.31
X17.5 Y-170.507 I82.474 J153.333
X67.746 Y-173.441 I35.163 J170.49
X116.732 Y-161.878 I-15.085 J173.452
X160.376 Y-136.803 I-64.385 J162.585
X195.204 Y-100.455 I-110.38 J140.623
X218.554 Y-55.857 I-144.801 J104.225
X228.417 Y-6.496 I-166.18 J58.871
X223.872 Y43.633 I-175.231 J9.383
X205.272 Y90.405 I-170.597 J-40.757
X174.162 Y129.976 I-152.269 J-87.7
X133.124 Y159.124 I-121.521 J-127.629
X85.529 Y175.512 I-80.801 J-157.352
X35.245 Y177.864 I-33.349 J-174.332
X-13.685 Y166.033 I16.955 J-177.214
X-57.358 Y140.995 I65.997 J-165.726
X-92.308 Y104.764 I109.8 J-140.89
X-115.767 Y60.223 I144.848 J-104.739
X-125.883 Y10.909 I168.37 J-60.232
X-121.854 Y-39.271 I178.52 J-10.918
X-104.003 Y-86.342 I174.512 J39.261
X-73.743 Y-126.573 I156.667 J86.342
X-33.472 Y-156.781 I126.409 J126.569
X13.621 Y-174.572 I86.137 J156.79
X63.806 Y-178.538 I39.046 J174.57
X113.109 Y-168.363 I-11.148 J178.547
X157.632 Y-144.867 I-60.642 J168.847
X193.979 Y-110.027 I-107.272 J148.292
X219.533 Y-66.643 I-143.953 J114.008
X232.25 Y-17.929 I-167.478 J69.737
X231.027 Y32.4 I-179.15 J20.827
X215.921 Y80.424 I-177.733 J-29.518
X188.122 Y122.397 I-162.812 J-77.638
X149.817 Y155.068 I-135.369 J-119.923
X104.002 Y175.941 I-97.406 J-153.088
X54.218 Y183.45 I-51.79 J-174.556
X4.276 Y177.069 I-2.044 J-182.618
X-42.035 Y157.312 I47.99 J-176.649
X-81.223 Y125.699 I94.423 J-157.14
X-110.339 Y84.621 I133.727 J-125.645
X-127.201 Y37.179 I162.918 J-84.622
X-130.541 Y-13.06 I179.83 J-37.187
X-120.114 Y-62.319 I183.188 J13.046
X-96.7 Y-106.894 I172.773 J62.316
X-62.063 Y-143.437 I149.367 J106.889
X-18.803 Y-169.2 I114.727 J143.442
X29.827 Y-182.25 I71.471 J169.199
X80.173 Y-181.602 I22.833 J182.257
X128.452 Y-167.31 I-27.512 J181.628
X171.055 Y-140.472 I-76.314 J168.375
X204.963 Y-103.24 I-121.243 J144.474
X227.824 Y-58.372 I-154.501 J106.981
X237.862 Y-9.028 I-175.459 J61.387
X234.24 Y41.194 I-184.684 J11.919
X217.202 Y88.576 I-180.938 J-38.308
X188.022 Y129.612 I-164.13 J-85.817
X148.88 Y161.287 I-135.295 J-127.164
X102.677 Y181.308 I-96.489 J-159.351
X52.802 Y188.251 I-50.468 J-179.939
X2.88 Y181.653 I-0.627 J-187.434
X-43.492 Y162.02 I49.386 J-181.23
X-82.993 Y130.786 I95.88 J-161.849
X-112.798 Y90.195 I135.5 J-130.733
X-130.784 Y43.159 I165.37 J-90.193
X-135.667 Y-6.961 I183.416 J-43.168
X-127.103 Y-56.586 I188.295 J6.946
X-105.702 Y-102.17 I179.763 J56.58
X-72.993 Y-140.459 I158.35 J102.155
X-31.313 Y-168.721 I125.659 J140.457
X16.364 Y-184.935 I83.971 J168.711
X66.631 Y-187.946 I36.304 J184.938
X115.902 Y-177.537 I-13.973 J187.952
X160.664 Y-154.464 I-63.412 J177.974
X197.824 Y-120.469 I-110.091 J157.646
X224.963 Y-78.041 I-148.017 J124.576
X240.161 Y-30.026 I-173.239 J81.246
X242.238 Y20.292 I-187.189 J32.93
X231.007 Y69.383 I-188.942 J-17.397
X207.254 Y113.79 I-177.806 J-66.55
X172.673 Y150.401 I-154.36 J-111.167
X129.706 Y176.672 I-120.13 J-148.204
X81.369 Y190.81 I-77.417 J-174.982
X31.017 Y191.873 I-29.194 J-189.715
X-17.885 Y179.823 I21.184 J-191.213
X-61.993 Y155.511 I70.197 J-179.526
X-98.304 Y120.609 I114.431 J-155.392
X-124.355 Y77.505 I150.823 J-120.576
X-138.376 Y29.13 I176.966 J-77.511
X-139.418 Y-21.224 I190.98 J-29.14
X-127.412 Y-70.138 I192.079 J21.214
X-103.173 Y-114.287 I180.059 J70.129
X-68.35 Y-150.675 I155.839 J114.28
X-25.307 Y-176.827 I121.021 J150.69
X23.032 Y-190.969 I77.964 J176.8
X73.384 Y-192.141 I29.633 J190.984
X122.328 Y-180.26 I-20.72 J192.125
X166.55 Y-156.151 I-69.908 J180.838
X203.153 Y-121.548 I-116.143 J159.518
X229.872 Y-78.845 I-153.289 J125.621
X244.894 Y-30.768 I-178.137 J82.047
X247.113 Y19.551 I-191.926 J33.672
X236.341 Y68.753 I-193.814 J-16.653
X213.295 Y113.538 I-183.141 J-65.92
X179.537 Y150.919 I-160.348 J-110.872
X137.341 Y178.423 I-126.967 J-148.674
X89.524 Y194.255 I-85.018 J-176.659
X39.252 Y197.408 I-37.346 J-193.062
X-10.176 Y187.707 I12.947 J-196.725
X-55.539 Y165.81 I62.447 J-187.311
X-93.896 Y133.159 I107.958 J-165.679
X-122.761 Y91.878 I146.404 J-133.107
X-140.274 Y44.649 I175.32 J-91.871
X-145.301 Y-5.472 I192.929 J-44.661
X-137.518 Y-55.24 I197.907 J5.458
X-117.432 Y-101.434 I190.184 J55.23
X-86.34 Y-141.065 I170.111 J101.447
X-46.255 Y-171.571 I138.979 J141.03
X0.229 Y-190.978 I98.933 J171.594
X50.105 Y-198.028 I52.429 J190.965
X100.147 Y-192.268 I2.564 J198.01
X147.118 Y-174.071 I-47.527 J192.396
X188.014 Y-144.658 I-95.377 J175.751
X220.373 Y-106.046 I-138.423 J148.871
X242.232 Y-60.657 I-169.783 J109.722
X252.114 Y-11.261 I-189.812 J63.66
X249.316 Y39.036 I-198.973 J14.158
X233.992 Y87.023 I-196.017 J-36.154
X207.132 Y129.638 I-180.828 J-84.202
X170.463 Y164.178 I-154.339 J-127.117
X126.332 Y188.472 I-117.956 J-162.04
X77.544 Y201.021 I-74.068 J-186.855
X27.167 Y201.067 I-25.37 J-200.003
X-21.653 Y188.636 I25.033 J-200.404
X-65.887 Y164.527 I73.958 J-188.328
X-102.8 Y130.243 I118.347 J-164.433
X-130.115 Y87.912 I155.278 J-130.174
X-146.15 Y40.154 I182.711 J-87.921
X-149.916 Y-10.084 I198.818 J-40.164
X-141.184 Y-59.7 I202.504 J10.065
X-120.494 Y-105.634 I193.864 J59.697
X-89.119 Y-145.05 I173.178 J105.653
X-48.998 Y-175.519 I141.747 J145.001
X-2.606 Y-195.161 I101.679 J175.546
X47.196 Y-202.761 I55.268 J195.178
X97.335 Y-197.855 I5.474 J202.705
X144.719 Y-180.745 I-44.701 J197.96
X186.449 Y-152.517 I-92.791 J182.137
X220.108 Y-115.024 I-136.645 J156.524
X243.769 Y-70.541 I-169.846 J118.878
X255.927 Y-21.648 I-191.673 J73.622
X255.767 Y28.732 I-202.794 J24.548
X243.271 Y77.538 I-202.49 J-25.842
X219.199 Y121.795 I-190.086 J-74.715
X185.034 Y158.822 I-166.24 J-119.118
X142.865 Y186.392 I-132.477 J-156.592
X95.253 Y202.866 I-90.545 J-184.642
X45.065 Y207.291 I-43.058 J-201.555
X-4.702 Y199.431 I7.121 J-206.566
X-51.093 Y179.772 I56.988 J-199.05
X-91.367 Y149.499 I103.429 J-179.523
X-123.154 Y110.407 I143.869 J-149.453
X-144.579 Y64.804 I175.768 J-110.415
X-154.385 Y15.383 I197.117 J-64.795
X-151.998 Y-34.944 I207.027 J-15.4
X-137.555 Y-83.215 I204.715 J34.957
X-111.909 Y-126.584 I190.159 J83.18
X-76.574 Y-162.5 I164.56 J126.561
X-33.626 Y-188.846 I129.275 J162.56
X14.404 Y-204.07 I86.273 J188.808
X64.686 Y-207.278 I38.26 J204.021
X114.261 Y-198.279 I-12.033 J207.346
X160.209 Y-177.607 I-61.675 J198.483
X199.877 Y-146.536 I-108.812 J179.774
X231.103 Y-106.986 I-150.404 J150.854
X252.139 Y-61.198 I-180.393 J110.602
X261.686 Y-11.724 I-199.647 J64.185
X259.128 Y38.598 I-208.527 J14.624
X244.59 Y86.841 I-205.881 J-35.728
X218.925 Y130.201 I-191.371 J-83.997
X183.641 Y166.171 I-166.029 J-127.574
X140.795 Y192.686 I-131.133 J-164.023
X92.869 Y208.245 I-88.477 J-190.943
X42.62 Y211.988 I-40.679 J-206.948
X-7.088 Y203.728 I9.572 J-211.299
X-53.434 Y183.953 I59.383 J-203.37
X-93.805 Y153.797 I105.76 J-183.686
X-125.927 Y114.973 I146.273 J-153.724
X-147.992 Y69.671 I178.573 J-115.002
X-158.761 Y20.445 I200.564 J-69.664
X-157.63 Y-29.932 I211.309 J-20.461
X-144.665 Y-78.626 I210.35 J29.936
X-120.592 Y-122.894 I197.369 J78.649
X-86.769 Y-160.246 I173.181 J122.827
X-45.101 Y-188.582 I139.431 J160.231
X2.07 Y-206.305 I97.8 J188.673
X52.088 Y-212.416 I50.584 J206.269
X102.138 Y-206.575 I0.588 J212.325
X149.405 Y-189.111 I-49.517 J206.719
X191.251 Y-161.034 I-97.485 J190.512
X225.454 Y-124.023 I-141.334 J164.922
X250.235 Y-80.142 I-175.3 J127.936
X264.171 Y-31.714 I-198.439 J83.322
X266.411 Y18.628 I-211.235 J34.618
X256.801 Y68.095 I-212.994 J-15.711
X235.874 Y113.936 I-203.557 J-65.228
X204.801 Y153.607 I-182.939 J-111.283
X165.322 Y184.924 I-152.061 J-151.151
X119.632 Y206.182 I-112.865 J-182.851
X70.252 Y216.24 I-67.42 J-204.775
X19.886 Y214.57 I-18.073 J-215.336
X-28.727 Y201.29 I32.307 J-213.884
X-72.958 Y177.139 I81.001 J-200.92
X-110.42 Y143.43 I125.449 J-177.089
X-139.095 Y101.988 I162.987 J-143.418
X-157.443 Y55.052 I191.564 J-101.938
X-164.479 Y5.15 I210.006 J-55.058
X-159.824 Y-45.03 I217.239 J-5.154
X-143.728 Y-92.785 I212.516 J45.04
X-117.059 Y-135.546 I196.275 J92.712
X-81.256 Y-171.012 I169.705 J135.516
X-38.243 Y-197.271 I133.988 J171.118
X9.665 Y-212.909 I90.906 J197.288
X59.886 Y-217.088 I42.986 J212.776
X109.72 Y-209.581 I-7.216 J217.079
X156.482 Y-190.794 I-57.143 J209.824
X197.685 Y-161.772 I-104.694 J192.392
X231.246 Y-124.172 I-147.84 J165.739
X255.487 Y-79.984 I-181.027 J128.051
X269.067 Y-31.45 I-203.68 J83.159
X271.195 Y18.902 I-216.142 J34.355
X261.73 Y68.402 I-217.753 J-15.982
X241.175 Y114.416 I-208.423 J-65.508
X210.63 Y154.502 I-188.249 J-111.763
X171.73 Y186.544 I-157.927 J-152.094
X126.548 Y208.871 I-119.224 J-184.39
X77.47 Y220.334 I-74.289 J-207.262
X27.071 Y220.357 I-25.301 J-219.416
X-22.023 Y208.96 I25.157 J-219.796
X-67.266 Y186.753 I74.266 J-208.497
X-106.323 Y154.899 I119.589 J-186.502
X-137.18 Y115.049 I158.894 J-154.907
X-158.245 Y69.262 I189.879 J-115.097
X-168.435 Y19.903 I210.787 J-69.249
X-167.229 Y-30.483 I220.911 J-19.919
X-154.689 Y-79.298 I219.906 J30.473
X-131.46 Y-124.026 I207.496 J79.367
X-98.739 Y-162.36 I184.127 J124.035
X-58.215 Y-192.326 I151.301 J162.224
X-11.976 Y-212.381 I110.861 J192.269
X37.594 Y-221.489 I64.671 J212.526
X87.941 Y-219.179 I15.06 J221.58
X136.47 Y-205.572 I-35.251 J219.068
X180.686 Y-181.383 I-83.993 J206.039
X218.384 Y-147.925 I-130.025 J184.468
X247.773 Y-106.974 I-169.012 J152.317
X267.382 Y-60.541 I-196.772 J110.456
X276.145 Y-10.907 I-214.713 J63.495
X273.565 Y39.429 I-222.889 J13.812
X259.759 Y87.902 I-220.383 J-36.568
X235.43 Y132.044 I-206.669 J-85.131
X201.831 Y169.613 I-182.411 J-129.323
X160.684 Y198.72 I-149.104 J-167.146
X114.079 Y217.914 I-108.334 J-196.869
X64.369 Y226.251 I-61.896 J-216.704
X14.05 Y223.335 I-12.187 J-225.354
X-34.371 Y209.335 I38.125 J-222.597
X-78.49 Y184.963 I86.616 J-208.914
X-116.126 Y151.435 I130.978 J-184.912
X-145.418 Y110.414 I168.802 J-151.505
X-164.919 Y63.935 I197.997 J-110.403
X-173.67 Y14.296 I217.337 J-63.906
X-171.241 Y-36.05 I226.188 J-14.318
X-157.751 Y-84.616 I224.023 J36.07
X-133.864 Y-129.002 I210.58 J84.703
X-100.764 Y-167.015 I186.503 J128.986
X-60.085 Y-196.778 I153.302 J166.844
X-13.837 Y-216.823 I112.715 J196.684
X35.696 Y-226.157 I66.535 J216.972
X86.067 Y-224.319 I16.958 J226.341
X134.788 Y-211.399 I-33.399 J224.274
X179.457 Y-188.047 I-82.221 J211.676
X217.928 Y-155.475 I-128.434 J190.7
X248.446 Y-115.353 I-168.569 J159.884
X269.561 Y-69.58 I-197.935 J119.066
X280.181 Y-20.305 I-217.279 J72.61
X279.736 Y30.099 I-226.877 J23.202
X268.23 Y79.174 I-226.256 J-27.16
X246.225 Y124.523 I-215.081 J-76.353
X214.803 Y163.937 I-193.397 J-121.955
X175.506 Y195.506 I-162.112 J-161.546
X130.258 Y217.72 I-122.977 J-193.307
X81.253 Y229.528 I-77.963 J-215.974
X30.853 Y230.383 I-29.086 J-228.496
X-18.529 Y220.264 I21.391 J-229.943
X-64.538 Y199.668 I70.871 J-220.005
X-104.989 Y169.588 I116.844 J-199.367
X-137.964 Y131.461 I157.273 J-169.347
X-161.904 Y87.1 I190.434 J-131.406
X-175.673 Y38.608 I214.68 J-87.161
X-178.62 Y-11.715 I228.551 J-38.631
X-170.606 Y-61.483 I231.278 J11.714
X-152.013 Y-108.338 I223.051 J61.396
X-123.723 Y-150.06 I204.496 J108.208
X-87.076 Y-184.673 I176.417 J150.078
X-43.806 Y-210.535 I139.873 J184.888
X4.034 Y-226.42 I96.52 J210.699
X54.179 Y-231.577 I48.612 J226.314
X104.251 Y-225.763 I-1.486 J231.317
X151.88 Y-209.254 I-51.556 J225.697
X194.821 Y-182.849 I-99.763 J210.36
X231.125 Y-147.871 I-144.718 J186.535
X259.207 Y-106.003 I-181.612 J152.159
X277.753 Y-59.126 I-207.881 J109.351
X285.832 Y-9.367 I-224.911 J62.053
X283.025 Y40.964 I-232.495 J12.278
X269.449 Y89.512 I-229.832 J-38.098
X245.742 Y134. I-216.486 J-86.801
X213.024 Y172.351 I-192.857 J-131.399
X172.838 Y202.786 I-160.24 J-169.833
X127.065 Y223.908 I-120.307 J-200.557
X77.835 Y234.759 I-74.805 J-222.281
X27.423 Y234.858 I-25.668 J-233.882
X-21.854 Y224.219 I24.842 J-234.496
X-67.741 Y203.343 I74.201 J-223.972
X-108.146 Y173.196 I120.038 J-203.031
X-141.231 Y135.159 I160.39 J-172.916
X-165.493 Y90.968 I193.601 J-135.046
X-179.828 Y42.636 I218.17 J-91.003
X-183.585 Y-7.637 I232.765 J-42.673
X-176.594 Y-57.563 I236.473 J7.664
X-159.172 Y-104.87 I229.212 J57.548
X-132.116 Y-147.407 I211.594 J104.716
X-96.655 Y-183.239 I184.582 J147.205
X-54.402 Y-210.738 I149.299 J183.195
X-7.278 Y-228.65 I107.158 J210.961
X42.572 Y-236.161 I59.988 J228.962
X92.882 Y-232.929 I10.079 J236.255
X141.361 Y-219.101 I-40.173 J232.753
X185.812 Y-195.318 I-88.771 J219.344
X224.267 Y-162.716 I-134.734 J197.905
X255.109 Y-122.833 I-174.848 J167.079
X276.992 Y-77.413 I-204.825 J126.666
X288.878 Y-28.419 I-225.162 J80.561
X290.182 Y21.978 I-235.938 J31.32
X280.825 Y71.516 I-236.655 J-19.045
X261.229 Y117.966 I-227.235 J-68.51
X232.281 Y159.24 I-207.991 J-115.085
X195.292 Y193.496 I-179.551 J-156.78
X151.929 Y219.212 I-142.94 J-191.608
X104.136 Y235.26 I-99.709 J-217.757
X54.042 Y240.947 I-51.937 J-234.003
X3.865 Y236.043 I-1.885 J-239.829
X-44.184 Y220.779 I48.258 J-235.174
X-88. Y195.838 I96.393 J-220.3
X-125.662 Y162.322 I140.459 J-195.756
X-155.527 Y121.702 I178.429 J-162.47
X-176.287 Y75.758 I208.436 J-121.846
X-187.037 Y26.5 I229.048 J-75.792
X-187.31 Y-23.916 I239.517 J-26.504
X-177.095 Y-73.286 I239.607 J23.836
X-156.838 Y-119.455 I229.448 J73.143
X-127.426 Y-160.403 I209.42 J119.385
X-90.143 Y-194.341 I180.233 J160.548
X-46.617 Y-219.786 I143.005 J194.675
X1.247 Y-235.624 I99.372 J220.072
X51.359 Y-241.163 I51.41 J235.633
X101.527 Y-236.164 I1.327 J240.886
X149.56 Y-220.844 I-48.758 J235.835
X193.366 Y-195.886 I-97.084 J221.325
X231.094 Y-162.439 I-142.657 J198.914
X261.219 Y-122.007 I-181.853 J166.935
X282.468 Y-76.283 I-210.929 J125.826
X293.87 Y-27.171 I-230.588 J79.413
X294.886 Y23.237 I-240.882 J30.069
X285.454 Y72.765 I-241.323 J-20.296
X265.981 Y119.27 I-231.802 J-69.734
X237.315 Y160.745 I-212.629 J-116.315
X200.704 Y195.409 I-184.456 J-158.148
X157.734 Y221.784 I-148.293 J-193.411
X110.257 Y238.754 I-105.552 J-220.404
X60.306 Y245.614 I-58.099 J-237.781
X10.01 Y242.089 I-8.118 J-244.796
X-38.501 Y228.347 I42.159 J-241.314
X-83.179 Y204.98 I90.624 J-227.669
X-122.144 Y172.981 I135.324 J-204.509
X-153.758 Y133.704 I174.451 J-172.778
X-176.694 Y88.803 I206.365 J-133.722
X-189.989 Y40.166 I229.62 J-88.902
X-193.084 Y-10.159 I243.086 J-40.207
X-185.849 Y-60.058 I246.081 J10.203
X-168.591 Y-107.433 I238.574 J60.082
X-142.034 Y-150.292 I221.051 J107.31
X-107.296 Y-186.836 I194.392 J150.002
X-65.837 Y-215.529 I159.72 J186.485
X-19.398 Y-235.166 I118.411 J215.302
X30.07 Y-244.921 I72.077 J235.21
X80.488 Y-244.383 I22.595 J245.255
X129.736 Y-233.574 I-27.925 J244.848
X175.747 Y-212.953 I-77.308 J234.131
X216.613 Y-183.418 I-124.128 J214.789
X250.718 Y-146.277 I-166.674 J187.281
X276.725 Y-103.078 I-200.487 J150.126
X293.532 Y-55.539 I-224.789 J106.21
X300.386 Y-5.586 I-240.451 J58.439
X296.971 Y44.72 I-246.984 J8.501
X283.418 Y93.285 I-243.745 J-41.844
X260.294 Y138.092 I-230.535 J-90.606
X228.567 Y177.281 I-207.685 J-135.701
X189.564 Y209.236 I-176.089 J-175.144
X144.908 Y232.651 I-137.148 J-207.272
X96.448 Y246.579 I-92.571 J-230.826
X46.175 Y250.466 I-44.226 J-244.958
X-3.853 Y244.17 I5.944 J-249.163
X-51.6 Y227.962 I55.957 J-243.279
X-95.128 Y202.511 I103.821 J-227.512
X-132.676 Y168.856 I147.596 J-202.438
X-162.724 Y128.363 I185.453 J-169.014
X-184.059 Y82.675 I215.762 J-128.576
X-195.817 Y33.641 I237.176 J-82.802
X-197.525 Y-16.754 I248.801 J-33.659
X-189.115 Y-66.472 I250.232 J16.76
X-170.927 Y-113.501 I241.556 J66.386
X-143.698 Y-155.94 I223.213 J113.259
X-108.529 Y-192.074 I195.988 J155.575
X-66.842 Y-220.441 I160.941 J191.698
X-20.322 Y-239.895 I119.413 J220.205
X29.15 Y-249.648 I72.996 J239.915
X79.572 Y-249.306 I23.517 J249.953
X128.907 Y-238.882 I-27.011 J249.806
X175.16 Y-218.801 I-76.528 J239.571
X216.482 Y-189.901 I-123.596 J220.717
X251.293 Y-153.417 I-166.684 J193.888
X278.283 Y-110.821 I-201.488 J157.518
X296.362 Y-63.747 I-226.724 J114.081
X304.754 Y-14.026 I-243.341 J66.642
X303.091 Y36.371 I-251.042 J16.942
X291.427 Y85.427 I-249.283 J-33.355
X270.23 Y131.18 I-237.892 J-82.428
X240.355 Y171.801 I-217.143 J-128.403
X203.004 Y205.677 I-187.727 J-169.457
X159.674 Y231.47 I-150.721 J-203.904
X112.094 Y248.172 I-107.55 J-230.264
X62.152 Y255.139 I-59.967 J-247.394
X11.816 Y252.112 I-9.95 J-254.598
X-36.936 Y239.225 I40.437 J-251.641
X-82.198 Y216.995 I89.173 J-238.749
X-122.203 Y186.297 I134.359 J-216.514
X-155.395 Y148.334 I174.277 J-185.866
X-180.481 Y104.591 I207.426 J-148.017
X-196.485 Y56.771 I232.558 J-104.421
X-202.786 Y6.74 I248.711 J-56.734
X-199.138 Y-43.555 I255.239 J-6.769
X-185.685 Y-92.154 I251.852 J43.557
X-162.949 Y-137.165 I238.622 J92.282
X-131.818 Y-176.835 I216.02 J137.476
X-93.501 Y-209.619 I184.892 J177.309
X-49.493 Y-234.24 I146.465 J210.155
X-1.507 Y-249.739 I102.298 J234.686
X48.588 Y-255.513 I54.192 J249.969
X98.842 Y-251.337 I4.073 J255.469
X147.297 Y-237.375 I-46.105 J251.068
X192.071 Y-214.177 I-94.598 J237.388
X231.459 Y-182.688 I-140.457 J216.067
X264.031 Y-144.187 I-181.395 J186.487
X288.585 Y-100.14 I-213.413 J147.837
X304.147 Y-52.172 I-236.462 J103.22
X310.068 Y-2.093 I-251.089 J55.08
X306.096 Y48.177 I-256.747 J5.003
X292.374 Y96.702 I-252.909 J-45.315
X269.434 Y141.61 I-239.492 J-94.023
X238.167 Y181.176 I-216.873 J-139.248
X199.785 Y213.885 I-185.855 J-179.215
X155.77 Y238.495 I-147.612 J-212.339
X107.81 Y254.081 I-103.632 J-237.298
X57.737 Y260.066 I-55.651 J-253.14
X7.453 Y256.238 I-5.548 J-259.29
X-41.14 Y242.755 I44.74 J-255.553
X-86.213 Y220.136 I93.3 J-242.131
X-126.069 Y189.24 I138.305 J-219.571
X-159.214 Y151.233 I178.086 J-188.761
X-184.405 Y107.546 I211.179 J-150.875
X-200.697 Y59.821 I236.369 J-107.334
X-207.48 Y9.85 I252.726 J-59.751
X-204.501 Y-40.491 I259.64 J-9.892
X-191.87 Y-89.314 I256.841 J40.398
X-170.064 Y-134.785 I244.41 J89.246
X-139.9 Y-175.199 I222.786 J134.821
X-102.509 Y-209.039 I192.752 J175.399
X-59.296 Y-235.035 I155.416 J209.434
X-11.881 Y-252.212 I112.172 J235.611
X37.956 Y-259.924 I64.655 J252.912
X88.345 Y-257.883 I14.678 J260.656
X137.395 Y-246.165 I-35.841 J258.543
X183.267 Y-225.214 I-85.047 J246.896
X224.263 Y-195.843 I-131.769 J227.221
X258.929 Y-159.213 I-174.511 J199.876
X286.053 Y-116.695 I-209.25 J163.396
X304.617 Y-69.804 I-234.768 J120.063
X313.885 Y-20.232 I-251.884 J72.747
X313.482 Y30.197 I-260.333 J23.133
X303.409 Y79.611 I-259.595 J-27.184
X284.04 Y126.173 I-249.508 J-76.479
X256.101 Y168.157 I-230.34 J-122.998
X220.636 Y204.01 I-202.735 J-165.071
X178.967 Y232.417 I-167.659 J-201.173
X132.639 Y252.342 I-126.355 J-229.972
X83.361 Y263.067 I-80.303 J-250.385
X32.942 Y264.215 I-31.179 J-261.641
X-16.775 Y255.757 I19.213 J-263.294
X-63.983 Y238.012 I69.014 J-255.27
X-106.967 Y211.634 I116.382 J-237.858
X-144.17 Y177.585 I159.572 J-211.704
X-174.247 Y137.102 I196.994 J-177.774
X-196.111 Y91.655 I227.284 J-137.321
X-208.97 Y42.889 I249.326 J-91.824
X-212.36 Y-7.43 I262.321 J-42.95
X-206.16 Y-57.481 I265.782 J7.514
X-190.594 Y-105.452 I259.593 J57.724
X-166.226 Y-149.607 I243.965 J105.838
X-133.937 Y-188.349 I219.486 J150.101
X-94.896 Y-220.275 I187.046 J188.892
X-50.516 Y-244.232 I147.845 J220.806
X-2.402 Y-259.35 I103.321 J244.685
X47.704 Y-265.085 I55.101 J259.681
X97.989 Y-261.228 I4.944 J265.263
X146.634 Y-247.919 I-45.337 J261.261
X191.881 Y-225.644 I-94.054 J248.152
X232.122 Y-195.243 I-140.225 J227.448
X265.988 Y-157.87 I-182.102 J199.042
X292.33 Y-114.86 I-215.802 J161.744
X310.189 Y-67.693 I-240.574 J118.051
X318.88 Y-18.014 I-257.125 J70.581
X318.062 Y32.412 I-265.119 J20.923
X307.755 Y81.781 I-264.055 J-29.371
X288.326 Y128.321 I-253.782 J-78.616
X260.478 Y170.369 I-234.567 J-125.109
X225.215 Y206.424 I-207.04 J-167.219
X183.804 Y235.21 I-172.145 J-203.465
X137.727 Y255.715 I-131.089 J-232.556
X88.623 Y267.224 I-85.306 J-253.438
X38.234 Y269.346 I-36.414 J-265.363
X-11.665 Y262.019 I13.85 J-267.885
X-59.322 Y245.511 I63.694 J-260.912
X-103.066 Y220.409 I111.344 J-244.701
X-141.369 Y187.598 I155.112 J-219.836
X-172.893 Y148.229 I193.453 J-187.21
X-196.538 Y103.68 I225.028 J-147.991
X-211.481 Y55.509 I248.731 J-103.559
X-217.199 Y5.4 I263.74 J-55.479
X-213.495 Y-44.899 I269.529 J-5.435
X-200.497 Y-93.631 I265.901 J44.823
X-178.66 Y-139.093 I252.979 J93.538
X-148.746 Y-179.7 I231.213 J139.007
X-111.8 Y-214.032 I201.36 J179.642
X-69.112 Y-240.892 I164.457 J214.018
X-22.172 Y-259.342 I121.795 J240.937
X27.38 Y-268.737 I74.858 J259.451
X77.816 Y-268.749 I25.284 J268.914
X127.373 Y-259.379 I-25.196 J268.986
X174.323 Y-240.954 I-74.854 J259.768
X217.037 Y-214.133 I-122.377 J242.32
X254.081 Y-179.904 I-166.811 J217.687
X284.254 Y-139.486 I-204.94 J184.466
X306.535 Y-94.236 I-234.102 J143.382
X320.117 Y-45.662 I-254.93 J97.466
X324.492 Y4.584 I-267.608 J48.618
X319.491 Y54.772 I-271.609 J-1.722
X305.281 Y103.165 I-266.551 J-51.988
X282.355 Y148.09 I-252.453 J-100.517
X251.513 Y187.997 I-229.716 J-145.663
X213.826 Y221.517 I-199.083 J-185.886
X170.601 Y247.505 I-161.577 J-219.804
X123.326 Y265.083 I-118.461 J-246.234
X73.623 Y273.663 I-71.208 J-264.252
X23.191 Y272.966 I-21.441 J-273.234
X-26.258 Y263.026 I29.123 J-272.857
X-73.047 Y244.191 I78.74 J-263.141
X-115.596 Y217.106 I125.702 J-244.43
X-152.468 Y182.691 I168.405 J-217.387
X-182.422 Y142.11 I205.397 J-182.952
X-204.447 Y96.735 I235.435 J-142.316
X-217.803 Y48.098 I257.504 J-96.865
X-222.041 Y-2.162 I270.877 J-48.145
X-217.017 Y-52.35 I275.1 J2.193
X-202.901 Y-100.772 I270.045 J52.45
X-180.171 Y-145.798 I255.881 J100.928
X-149.591 Y-185.909 I233.096 J145.995
X-112.193 Y-219.753 I202.456 J186.129
X-69.239 Y-246.189 I164.999 J219.982
X-22.175 Y-264.327 I121.988 J246.412
X27.412 Y-273.554 I74.876 J264.529
X77.85 Y-273.56 I25.251 J273.731
X127.439 Y-264.344 I-25.214 J273.703
X174.508 Y-246.219 I-74.848 J264.547
X217.479 Y-219.809 I-122.361 J247.258
X254.957 Y-186.051 I-166.865 J222.931
X285.765 Y-146.112 I-205.428 J190.316
X308.903 Y-101.292 I-235.244 J149.823
X323.566 Y-53.031 I-256.796 J104.379
X329.227 Y-2.911 I-270.382 J55.921
X325.677 Y47.402 I-275.525 J5.842
X313.028 Y96.228 I-271.824 J-44.368
X291.703 Y141.937 I-259.245 J-93.118
X262.42 Y183.005 I-238.125 J-138.819
X226.163 Y218.068 I-209.122 J-179.966
X184.145 Y245.97 I-173.177 J-215.204
X137.766 Y265.796 I-131.461 J-243.359
X88.565 Y276.905 I-85.343 J-263.485
X38.167 Y278.941 I-36.351 J-274.916
X-11.771 Y271.852 I13.89 J-277.264
X-59.615 Y255.878 I63.713 J-270.457
X-103.799 Y231.55 I111.469 J-254.737
X-142.885 Y199.667 I155.588 J-230.638
X-175.598 Y161.274 I194.627 J-198.967
X-200.874 Y117.624 I227.321 J-160.777
X-217.891 Y70.142 I252.61 J-117.32
X-226.094 Y20.374 I269.674 J-70.014
X-225.219 Y-30.059 I277.965 J-20.4
X-215.294 Y-79.513 I277.206 J29.914
X-196.641 Y-126.377 I267.425 J79.294
X-169.869 Y-169.126 I248.926 J126.134
X-135.85 Y-206.368 I222.306 J168.913
X-95.692 Y-236.888 I188.415 J206.231
X-50.702 Y-259.695 I148.35 J236.871
X-2.345 Y-274.044 I103.406 J259.82
X47.803 Y-279.469 I55.043 J274.33
X98.109 Y-275.792 I4.831 J279.904
X146.936 Y-263.134 I-45.592 J276.365
X192.694 Y-241.91 I-94.671 J264.047
X233.913 Y-212.835 I-141.414 J244.237
X269.318 Y-176.905 I-184.571 J217.278
X297.832 Y-135.294 I-220.671 J181.793
X318.54 Y-89.297 I-248.056 J139.335
X330.736 Y-40.352 I-267.424 J92.629
X333.996 Y9.984 I-278.753 J43.327
X328.199 Y60.091 I-281.559 J-7.184
X313.529 Y108.352 I-275.558 J-57.406
X290.46 Y153.209 I-260.822 J-105.772
X259.743 Y193.219 I-237.773 J-150.748
X222.375 Y227.1 I-207.13 J-190.904
X179.562 Y253.773 I-169.865 J-224.96
X132.683 Y272.393 I-127.163 J-251.823
X83.24 Y282.379 I-80.39 J-270.631
X32.809 Y283.425 I-31.05 J-280.801
X-17.008 Y275.509 I19.276 J-282.012
X-64.633 Y258.891 I68.983 J-274.247
X-108.564 Y234.103 I116.495 J-257.782
X-147.416 Y201.932 I160.322 J-233.165
X-179.965 Y163.397 I199.099 J-201.187
X-205.188 Y119.714 I231.627 J-162.867
X-222.292 Y72.26 I256.9 J-119.401
X-230.738 Y22.53 I274.131 J-72.14
X-230.261 Y-27.91 I282.781 J-22.55
X-220.877 Y-77.472 I282.555 J27.829
X-202.882 Y-124.596 I273.447 J77.426
X-176.841 Y-167.797 I255.701 J124.68
X-143.575 Y-205.716 I229.855 J168.095
X-104.131 Y-237.16 I196.687 J206.27
X-59.751 Y-261.137 I157.238 J237.971
X-11.832 Y-276.894 I112.751 J262.15
X38.117 Y-283.934 I64.655 J278.017
X88.525 Y-282.035 I14.503 J285.056
X137.803 Y-271.258 I-36.087 J283.055
X184.402 Y-251.943 I-85.535 J272.231
X226.866 Y-224.715 I-132.706 J253.688
X263.909 Y-190.474 I-176.681 J228.303
X294.447 Y-150.323 I-214.548 J194.864
X317.548 Y-105.479 I-243.889 J154.012
X332.464 Y-57.291 I-265.242 J108.5
X338.694 Y-7.234 I-278.919 J60.131
X336.025 Y43.138 I-284.509 J10.183
X324.533 Y92.255 I-281.641 J-39.992
X304.578 Y138.582 I-270.252 J-88.946
X276.786 Y180.679 I-250.607 J-135.228
X242.03 Y217.237 I-223.251 J-177.449
X201.396 Y247.127 I-188.979 J-214.333
X156.153 Y269.434 I-148.788 J-244.749
X107.703 Y283.477 I-103.86 J-267.725
X57.544 Y288.835 I-55.547 J-282.514
X7.219 Y285.356 I-5.328 J-288.586
X-41.728 Y273.154 I45.22 J-285.674
X-87.8 Y252.611 I94.474 J-273.82
X-129.593 Y224.36 I140.83 J-253.377
X-165.832 Y189.269 I182.795 J-225.03
X-195.415 Y148.408 I219.045 J-189.725
X-217.441 Y103.026 I248.48 J-148.634
X-231.24 Y54.505 I270.227 J-103.077
X-236.394 Y4.324 I283.685 J-54.491
X-232.746 Y-45.988 I288.504 J-4.369
X-220.407 Y-94.9 I284.598 J45.781
X-199.754 Y-140.923 I272.128 J94.474
X-171.416 Y-182.655 I251.489 J140.288
X-136.255 Y-218.826 I223.299 J181.89
X-95.342 Y-248.334 I188.372 J218.058
X-49.922 Y-270.282 I147.718 J247.724
X-1.379 Y-284. I102.505 J269.97
X48.811 Y-289.072 I54.058 J284.089
X99.118 Y-285.342 I3.821 J289.575
X148.011 Y-272.924 I-46.666 J286.192
X194.002 Y-252.198 I-95.886 J274.167
X235.706 Y-223.816 I-142.792 J254.645
X271.91 Y-188.685 I-186.255 J228.164
X301.586 Y-147.888 I-223.139 J193.505
X323.85 Y-102.621 I-251.47 J151.794
X338.003 Y-54.201 I-271.91 J105.752
X343.584 Y-4.065 I-284.716 J57.075
X340.409 Y46.28 I-289.522 J7.013
X328.567 Y95.315 I-286.031 J-43.129
X308.416 Y141.56 I-274.23 J-91.978
X280.569 Y183.623 I-254.392 J-138.169
X245.871 Y220.239 I-227.037 J-180.395
X205.372 Y250.315 I-192.896 J-217.44
X160.293 Y272.958 I-152.892 J-248.195
X111.988 Y287.5 I-108.129 J-271.674
X61.902 Y293.519 I-59.899 J-287.057
X11.526 Y290.845 I-9.668 J-293.74
X-37.644 Y279.567 I40.959 J-291.414
X-84.154 Y260.028 I90.343 J-280.165
X-126.629 Y232.811 I136.916 J-260.419
X-163.817 Y198.723 I179.261 J-232.895
X-194.622 Y158.775 I216.153 J-198.533
X-218.138 Y114.145 I246.59 J-158.442
X-233.673 Y66.15 I269.778 J-113.835
X-240.771 Y16.205 I285.139 J-65.995
X-239.221 Y-34.217 I292.287 J-16.254
X-229.071 Y-83.632 I291.017 J34.026
X-210.62 Y-130.583 I281.324 J83.457
X-184.41 Y-173.687 I263.371 J130.623
X-151.215 Y-211.674 I237.566 J174.104
X-112.012 Y-243.424 I204.551 J212.495
X-67.955 Y-268. I165.284 J244.512
X-20.345 Y-284.68 I121.001 J269.1
X29.416 Y-292.971 I73.144 J285.529
X79.862 Y-292.629 I23.237 J293.38
X129.506 Y-283.665 I-27.189 J292.53
X176.886 Y-266.344 I-76.671 J283.189
X220.612 Y-241.186 I-124.086 J266.245
X259.43 Y-208.967 I-168.812 J242.882
X292.27 Y-170.67 I-208.967 J212.419
X318.212 Y-127.403 I-241.72 J174.342
X336.484 Y-80.38 I-266.779 J130.728
X346.52 Y-30.94 I-284.504 J83.486
X348. Y19.486 I-294.424 J33.88
X340.872 Y69.428 I-295.912 J-16.757
X325.34 Y117.425 I-288.691 J-66.906
X301.862 Y162.077 I-272.942 J-115.018
X271.128 Y202.082 I-249.197 J-159.639
X234.04 Y236.279 I-218.262 J-199.497
X191.685 Y263.683 I-181.126 J-233.52
X145.295 Y283.507 I-138.899 J-260.841
X96.219 Y295.189 I-92.766 J-280.792
X45.874 Y298.402 I-43.969 J-292.896
X-4.291 Y293.064 I6.218 J-296.817
X-52.836 Y279.336 I56.462 J-292.353
X-98.371 Y257.617 I105.346 J-279.459
X-139.593 Y228.534 I151.356 J-258.291
X-175.327 Y192.922 I192.955 J-229.346
X-204.552 Y151.8 I228.769 J-193.531
X-226.436 Y106.344 I257.733 J-152.076
X-240.355 Y57.854 I279.096 J-106.356
X-245.913 Y7.712 I292.429 J-57.794
X-242.953 Y-42.649 I297.531 J-7.779
X-231.559 Y-91.794 I294.403 J42.362
X-212.057 Y-138.321 I283.19 J91.351
X-185.003 Y-180.902 I264.143 J137.94
X-151.168 Y-218.322 I237.65 J180.869
X-111.518 Y-249.515 I204.247 J218.832
X-67.183 Y-273.588 I164.74 J250.531
X-19.428 Y-289.856 I120.263 J274.814
X30.383 Y-297.853 I72.252 J290.895
X80.83 Y-297.353 I22.266 J298.385
X130.472 Y-288.369 I-28.156 J297.243
X177.895 Y-271.16 I-77.595 J287.769
X221.751 Y-246.225 I-124.997 J270.879
X260.82 Y-214.308 I-169.835 J247.765
X294.058 Y-176.354 I-210.447 J217.825
X320.565 Y-133.428 I-244.025 J180.336
X339.581 Y-86.698 I-269.95 J137.085
X350.535 Y-37.451 I-288.388 J89.986
X353.092 Y12.934 I-298.841 J40.427
X347.17 Y63.035 I-300.832 J-10.162
X332.932 Y111.433 I-294.286 J-60.278
X310.784 Y156.761 I-279.504 J-108.495
X281.357 Y197.739 I-257.053 J-153.539
X245.488 Y233.215 I-227.667 J-194.318
X204.194 Y262.196 I-192.16 J-229.889
X158.641 Y283.877 I-151.399 J-259.404
X110.11 Y297.66 I-106.318 J-282.037
X59.961 Y303.167 I-57.99 J-296.969
X9.595 Y300.255 I-7.723 J-303.42
X-39.588 Y289.012 I42.91 J-300.907
X-86.22 Y269.758 I92.24 J-289.506
X-129.011 Y243.034 I138.741 J-269.77
X-166.777 Y209.583 I181.146 J-242.559
X-198.476 Y170.334 I218.459 J-208.86
X-223.231 Y126.375 I249.909 J-169.687
X-240.361 Y78.922 I274.827 J-126.025
X-249.391 Y29.286 I292.569 J-78.868
X-250.073 Y-21.16 I302.458 J-29.315
X-242.387 Y-71.022 I303.823 J21.313
X-226.544 Y-118.921 I296.31 J71.435
X-202.984 Y-163.533 I280.106 J119.401
X-172.358 Y-203.625 I255.922 J163.754
X-135.513 Y-238.089 I224.726 J203.322
X-93.469 Y-265.973 I187.598 J237.224
X-47.387 Y-286.507 I145.608 J264.792
X1.46 Y-299.125 I99.788 J285.458
X51.723 Y-303.476 I51.177 J298.683
X102.012 Y-299.44 I0.921 J303.881
X150.938 Y-287.128 I-49.616 J300.53
X197.148 Y-266.882 I-98.888 J288.562
X239.378 Y-239.276 I-145.712 J269.005
X276.503 Y-205.113 I-189.11 J242.763
X307.567 Y-165.358 I-226.643 J209.104
X331.741 Y-121.074 I-256.414 J168.714
X348.342 Y-73.432 I-279.05 J123.951
X353.498 Y-49.598 I-295.755 J76.447
X355.519 Y-32.021 I-355.482 J49.789
G1 X355.938 Y-26.986
G3 X356.369 Y-20.542 I-525.042 J38.306
G1 X356.641 Y-15.104
X356.666 Y-14.5
X356.846 Y-9.063
X356.862 Y-8.257
X356.949 Y-3.021
X356.951 Y-2.014
Y2.417
X356.949 Y3.021
X356.859 Y8.458
X356.846 Y9.063
X356.666 Y14.5
X356.641 Y15.104
X356.369 Y20.542
X356.332 Y21.146
X355.985 Y26.382
X355.731 Y29.504
X355.467 Y32.625
X354.946 Y37.862
X354.882 Y38.466
X354.861 Y38.667
X354.249 Y43.903
X354.199 Y44.306
X354.143 Y44.75
X353.451 Y49.945
G3 X352.477 Y56.39 I-509.346 J-73.661
G1 X351.636 Y61.424
X351.524 Y62.063
X351.495 Y62.23
X350.518 Y67.512
G3 X349.269 Y73.709 I-560.24 J-109.626
G1 X348.101 Y79.028
G3 X346.495 Y85.793 I-579.085 J-133.898
G1 X346.234 Y86.639
G3 X344.013 Y94.298 I-124.501 J-31.953
X328.856 Y133.054 I-288.05 J-90.311
X303.609 Y176.734 I-275.991 J-130.386
X271.505 Y215.653 I-251.551 J-174.801
X233.428 Y248.753 I-219.442 J-213.985
X190.426 Y275.137 I-181.07 J-246.879
X143.673 Y294.099 I-137.867 J-272.82
X100.639 Y304.205 I-91.008 J-290.836
G1 X6.142 Y304.2
X5.257 Y304.156
G3 X0.854 Y303.704 I1.046 J-31.885
X-13.07 Y301.042 I38.042 J-236.731
X-42.996 Y292.948 I64.241 J-296.888
X-89.526 Y273.445 I95.453 J-292.996
X-132.245 Y246.601 I142.02 J-273.416
X-170.006 Y213.142 I184.335 J-246.076
X-201.8 Y173.969 I221.58 J-212.328
X-226.776 Y130.133 I253.158 J-173.274
X-244.267 Y82.81 I278.502 J-129.826
X-253.803 Y33.267 I296.893 J-82.836
X-255.128 Y-17.169 I307.418 J-33.314
X-248.207 Y-67.145 I309.192 J17.355
X-233.224 Y-115.322 I301.951 J67.485
X-210.583 Y-160.409 I286.165 J115.472
X-180.891 Y-201.199 I262.741 J160.052
X-144.944 Y-236.601 I232.666 J200.301
X-103.706 Y-265.665 I196.843 J235.505
X-58.278 Y-287.615 I156.049 J264.971
X-9.879 Y-301.862 I111.02 J287.824
X2.788 Y-304.206 I62.442 J302.06
G1 X100.191 Y-304.2
G3 X106.352 Y-303.533 I-1.186 J39.763
X124.57 Y-299.761 I-46.345 J269.659
X149.282 Y-292.739 I-70.362 J294.641
X195.739 Y-273.061 I-96.887 J293.419
X238.373 Y-246.082 I-143.837 J274.474
X276.081 Y-212.562 I-187.39 J248.769
X307.919 Y-173.422 I-225.65 J216.076
X333.071 Y-129.684 I-256.776 J176.763
X335.641 Y-124.101 I-273.697 J129.363
G1 X335.686 Y-123.955
X335.693 Y-123.803
X335.662 Y-123.654
G2 X335.714 Y-121.44 I2.843 J1.041
G1 X335.776 Y-121.237
X338.268 Y-113.987
X338.472 Y-113.383
X338.54 Y-113.182
X340.251 Y-107.946
X341.159 Y-105.003
X342.059 Y-102.057
X343.624 Y-96.668
X343.682 Y-96.466
X345.103 Y-91.23
X345.157 Y-91.029
X345.315 Y-90.425
X346.691 Y-85.022
X347.935 Y-79.751
X348.028 Y-79.348
X348.119 Y-78.945
X349.269 Y-73.709
G3 X350.518 Y-67.512 I-622.191 J128.553
G1 X351.495 Y-62.23
X351.601 Y-61.626
X351.636 Y-61.424
X352.511 Y-56.188
G3 X353.5 Y-49.599 I-610.403 J95.012
G1 X353.502 Y-49.511
X353.491 Y-49.424
X353.468 Y-49.34
X353.432 Y-49.26
X353.386 Y-49.186
X353.329 Y-49.119
X353.263 Y-49.062
X353.19 Y-49.014
X353.111 Y-48.978
X353.023 Y-48.945 Z-4.793
X352.937 Y-48.913 Z-4.771
X352.856 Y-48.882 Z-4.735
X352.781 Y-48.854 Z-4.685
X352.714 Y-48.829 Z-4.624
X352.656 Y-48.807 Z-4.553
X352.61 Y-48.79 Z-4.472
X352.577 Y-48.777 Z-4.385
X352.556 Y-48.77 Z-4.294
X352.549 Y-48.767 Z-4.2
G0 Z2.5
X346.297 Y84.432
Z-3.6
G1 Z-4.2 F1000.
X346.299 Y84.439 Z-4.294
X346.305 Y84.46 Z-4.385
X346.315 Y84.495 Z-4.472
X346.329 Y84.542 Z-4.553
X346.346 Y84.601 Z-4.624
X346.367 Y84.669 Z-4.685
X346.389 Y84.746 Z-4.735
X346.414 Y84.83 Z-4.771
X346.44 Y84.918 Z-4.793
X346.466 Y85.008 Z-4.8
G3 X346.495 Y85.793 I-1.518 J0.448
G1 X345.315 Y90.425
X345.157 Y91.029
X343.738 Y96.265
G3 X341.923 Y102.508 I-929.727 J-266.81
G1 X340.377 Y107.543
X340.315 Y107.744
X340.247 Y107.96
X338.54 Y113.182
X338.336 Y113.786
X338.199 Y114.189
X335.776 Y121.237
G2 X335.5 Y122.244 I4.438 J1.759
X335.815 Y123.999 I2.969 J0.373
G1 X336.057 Y124.521
X336.246 Y125.386
X336.28 Y126.272
X336.195 Y127.154
X336.021 Y128.023
G3 X334.854 Y131.366 I-22.062 J-5.832
X330.721 Y140.192 I-149.574 J-64.659
X314.671 Y168.732 I-274.619 J-135.649
G2 X314.378 Y169.169 I2.18 J1.781
G3 X287.999 Y204.717 I-257.481 J-163.501
X283.913 Y209.384 I-186.262 J-158.959
X247.317 Y244.115 I-230.649 J-206.389
X205.578 Y272.458 I-193.966 J-240.735
X159.803 Y293.675 I-152.597 J-269.248
X125.095 Y304.204 I-107.344 J-291.35
G1 X125.046 Y304.2
X100.638
G3 X100.075 Y303.735 I0.021 J-0.6
G1 X100.053 Y303.644 Z-4.793
X100.033 Y303.555 Z-4.771
X100.013 Y303.47 Z-4.735
X99.995 Y303.392 Z-4.685
X99.979 Y303.322 Z-4.624
X99.965 Y303.262 Z-4.553
X99.954 Y303.214 Z-4.472
X99.946 Y303.179 Z-4.385
X99.941 Y303.158 Z-4.294
X99.94 Y303.151 Z-4.2
G0 Z2.5
X314.535 Y167.803
Z-3.6
G1 Z-4.2 F1000.
X314.536 Y167.81 Z-4.294
Y167.832 Z-4.385
X314.537 Y167.868 Z-4.472
X314.538 Y167.917 Z-4.553
X314.54 Y167.979 Z-4.624
X314.542 Y168.05 Z-4.685
X314.544 Y168.13 Z-4.735
X314.547 Y168.217 Z-4.771
X314.549 Y168.309 Z-4.793
X314.552 Y168.403 Z-4.8
G3 X314.378 Y169.169 I-1.582 J0.043
G1 X314.041 Y169.773
X311.155 Y175.009
X310.815 Y175.613
X310.643 Y175.915
X307.622 Y181.147
X307.203 Y181.856
X307.083 Y182.058
X303.795 Y187.5
G2 X303.342 Y189.912 I2.541 J1.726
G1 X303.432 Y190.331
X303.421 Y191.217
X303.254 Y192.087
X302.97 Y192.926
X302.601 Y193.732
G3 X300.688 Y196.712 I-19.764 J-10.581
X294.608 Y204.328 I-130.32 J-97.802
X272.335 Y228.368 I-237.997 J-198.165
X233.458 Y260.528 I-219.96 J-226.319
X189.947 Y286.072 I-181.432 J-259.217
X143.417 Y304.206 I-137.547 J-284.175
G1 X143.356 Y304.2
X125.046
G3 X124.482 Y303.735 I0.021 J-0.6
G1 X124.461 Y303.644 Z-4.793
X124.441 Y303.555 Z-4.771
X124.421 Y303.47 Z-4.735
X124.403 Y303.392 Z-4.685
X124.387 Y303.322 Z-4.624
X124.373 Y303.262 Z-4.553
X124.362 Y303.214 Z-4.472
X124.354 Y303.179 Z-4.385
X124.349 Y303.158 Z-4.294
X124.347 Y303.151 Z-4.2
G0 Z2.5
X302.51 Y188.819
Z-3.6
G1 Z-4.2 F1000.
X302.516 Y188.824 Z-4.294
X302.531 Y188.84 Z-4.385
X302.557 Y188.865 Z-4.472
X302.592 Y188.9 Z-4.553
X302.636 Y188.942 Z-4.624
X302.687 Y188.993 Z-4.685
X302.744 Y189.049 Z-4.735
X302.806 Y189.11 Z-4.771
X302.871 Y189.174 Z-4.793
X302.938 Y189.24 Z-4.8
G3 X303.345 Y189.912 I-1.109 J1.129
G2 X304.61 Y191.723 I2.923 J-0.694
G1 X304.976 Y191.969
X305.395 Y192.404
X305.769 Y193.014
X306.043 Y193.812
X306.144 Y194.692
X306.08 Y195.576
X305.885 Y196.441
X305.588 Y197.276
G3 X303.833 Y200.348 I-15.202 J-6.648
X300.05 Y205.261 I-64.376 J-45.655
X278.407 Y229.119 I-241.369 J-197.219
G1 X278.247 Y229.235
X278.056 Y229.291
X277.857 Y229.281
X276.406 Y228.962
G2 X275.4 Y228.817 I-1.242 J5.081
X273.043 Y229.989 I0.059 J3.076
G1 X267.545 Y236.306
G3 X263.453 Y240.864 I-408.69 J-362.819
G1 X259.691 Y244.91
G3 X255.664 Y249.123 I-244.251 J-229.446
G1 X254.465 Y250.329
X253.81 Y250.926
G3 X250.468 Y253.831 I-29.49 J-30.545
X232.609 Y266.931 I-180.572 J-227.451
X213.11 Y279.193 I-176.566 J-259.138
X167.602 Y300.983 I-160.206 J-276.165
X158.909 Y304.187 I-112.474 J-291.771
G1 X158.842 Y304.196
X158.774 Y304.2
X143.356
G3 X142.792 Y303.735 I0.021 J-0.6
G1 X142.771 Y303.644 Z-4.793
X142.75 Y303.555 Z-4.771
X142.731 Y303.47 Z-4.735
X142.713 Y303.392 Z-4.685
X142.697 Y303.322 Z-4.624
X142.683 Y303.262 Z-4.553
X142.672 Y303.214 Z-4.472
X142.664 Y303.179 Z-4.385
X142.659 Y303.158 Z-4.294
X142.657 Y303.151 Z-4.2
G0 Z2.5
X254.985 Y249.057
Z-3.6
G1 Z-4.2 F1000.
X254.983 Y249.064 Z-4.294
X254.978 Y249.085 Z-4.385
X254.969 Y249.12 Z-4.472
X254.957 Y249.168 Z-4.553
X254.942 Y249.227 Z-4.624
X254.925 Y249.296 Z-4.685
X254.905 Y249.374 Z-4.735
X254.884 Y249.459 Z-4.771
X254.862 Y249.547 Z-4.793
X254.839 Y249.639 Z-4.8
G3 X254.465 Y250.329 I-1.535 J-0.385
X247.565 Y257.176 I-301.31 J-296.723
G1 X243.292 Y261.204
X242.202 Y262.211
X239.351 Y264.842
X239.142 Y265.031
X234.719 Y268.932
X234.517 Y269.109
X230.621 Y272.482
X230.49 Y272.593
X225.743 Y276.51
X224.247 Y277.725
X223.532 Y278.248
G3 X219.87 Y280.738 I-22.704 J-29.46
X204.45 Y289.467 I-144.256 J-236.843
X179.656 Y301.273 I-149.263 J-281.517
X172.575 Y304.184 I-115.54 J-271.016
G1 X172.5 Y304.195
X172.424 Y304.2
X158.774
G3 X158.21 Y303.735 I0.021 J-0.6
G1 X158.189 Y303.644 Z-4.793
X158.169 Y303.555 Z-4.771
X158.149 Y303.47 Z-4.735
X158.131 Y303.392 Z-4.685
X158.115 Y303.322 Z-4.624
X158.101 Y303.262 Z-4.553
X158.09 Y303.214 Z-4.472
X158.082 Y303.179 Z-4.385
X158.077 Y303.158 Z-4.294
X158.075 Y303.151 Z-4.2
G0 Z2.5
X224.899 Y276.515
Z-3.6
G1 Z-4.2 F1000.
X224.897 Y276.522 Z-4.294
X224.889 Y276.542 Z-4.385
X224.877 Y276.576 Z-4.472
X224.86 Y276.622 Z-4.553
X224.839 Y276.68 Z-4.624
X224.814 Y276.747 Z-4.685
X224.786 Y276.822 Z-4.735
X224.756 Y276.904 Z-4.771
X224.725 Y276.99 Z-4.793
X224.692 Y277.078 Z-4.8
G3 X224.247 Y277.725 I-1.485 J-0.546
G1 X221.774 Y279.732
X221.519 Y279.934
X216.997 Y283.422
X216.293 Y283.961
X212.767 Y286.642
X212.365 Y286.944
X207.277 Y290.607
X203.504 Y293.293
X203.026 Y293.628
X202.899 Y293.715
X197.629 Y297.253
X193.837 Y299.775
G3 X188.357 Y302.669 I-23.257 J-37.395
X185.007 Y304.18 I-51.808 J-110.437
G1 X184.926 Y304.194
X184.843 Y304.2
X172.424
G3 X171.846 Y303.58 Z-4.6 I0.021 J-0.6
X172.325 Y303.013 I0.6 J0.02
G1 X193.367 Y298.699
G3 X193.975 Y298.938 I0.12 J0.588
X193.837 Y299.775 Z-4.8 I-0.488 J0.349
G1 X193.636 Y299.909
X193.434 Y300.039
X187.576 Y303.698
X186.927 Y304.101
G3 X186.587 Y304.2 I-0.341 J-0.534
G1 X184.843
G3 X184.279 Y303.735 I0.021 J-0.6
G1 X184.258 Y303.644 Z-4.793
X184.238 Y303.555 Z-4.771
X184.218 Y303.47 Z-4.735
X184.2 Y303.392 Z-4.685
X184.184 Y303.322 Z-4.624
X184.17 Y303.262 Z-4.553
X184.159 Y303.214 Z-4.472
X184.151 Y303.179 Z-4.385
X184.146 Y303.158 Z-4.294
X184.145 Y303.151 Z-4.2
G0 Z2.5
X303.248 Y191.529
Z-3.6
G1 Z-4.2 F1000.
X303.256 Z-4.294
X303.278 Z-4.385
X303.314 Z-4.472
X303.363 Z-4.553
X303.424 Z-4.624
X303.496 Z-4.685
X303.576 Z-4.735
X303.663 Z-4.771
X303.754 Z-4.793
X303.848 Z-4.8
G3 X304.609 Y191.724 I0. J1.583
G2 X305.607 Y192.141 I1.606 J-2.441
G1 X306.011 Y192.221
X306.413 Y192.291
X307.219 Y192.429
X307.703 Y192.536
X308.271 Y192.802
X308.841 Y193.239
X309.36 Y193.856
X309.77 Y194.642
X310.017 Y195.493
X310.113 Y196.374
X310.082 Y197.259
X309.946 Y198.135
X309.719 Y198.991
G3 X308.22 Y202.194 I-14.137 J-4.665
X305.151 Y206.532 I-36.631 J-22.662
X296.034 Y217.387 I-185.294 J-146.372
X283.961 Y230.336 I-231.74 J-203.968
G1 X283.799 Y230.455
X283.606 Y230.512
X283.405 Y230.502
X277.857 Y229.281
G3 X277.406 Y228.706 I0.149 J-0.581
G1 X277.405 Y228.612 Z-4.793
X277.404 Y228.521 Z-4.771
X277.403 Y228.434 Z-4.735
Y228.353 Z-4.685
X277.402 Y228.282 Z-4.624
X277.401 Y228.221 Z-4.553
Y228.172 Z-4.472
X277.4 Y228.135 Z-4.385
Y228.113 Z-4.294
Y228.106 Z-4.2
G0 Z2.5
X305.879 Y192.735
Z-3.6
G1 Z-4.2 F1000.
X305.886 Y192.733 Z-4.294
X305.906 Y192.725 Z-4.385
X305.94 Y192.712 Z-4.472
X305.986 Y192.694 Z-4.553
X306.043 Y192.672 Z-4.624
X306.11 Y192.647 Z-4.685
X306.185 Y192.618 Z-4.735
X306.266 Y192.587 Z-4.771
X306.351 Y192.554 Z-4.793
X306.439 Y192.52 Z-4.8
G3 X307.219 Y192.429 I0.568 J1.477
G1 X311.045 Y193.082
X311.662 Y193.219
X312.304 Y193.519
X312.927 Y193.997
X313.498 Y194.675
X313.92 Y195.455
X314.196 Y196.297
X314.346 Y197.17
X314.384 Y198.055
X314.324 Y198.939
X314.185 Y199.815
G3 X313.019 Y203.153 I-14.146 J-3.069
X310.243 Y207.679 I-26.513 J-13.147
X305.309 Y213.942 I-86.29 J-62.901
X289.503 Y231.52 I-240.817 J-200.646
G1 X289.346 Y231.639
X289.158 Y231.699
X288.96 Y231.694
X288.288 Y231.564
X287.684 Y231.444
X283.405 Y230.502
G3 X282.954 Y229.927 I0.149 J-0.581
G1 X282.953 Y229.833 Z-4.793
Y229.742 Z-4.771
X282.952 Y229.655 Z-4.735
X282.951 Y229.575 Z-4.685
X282.95 Y229.503 Z-4.624
X282.949 Y229.442 Z-4.553
Y229.393 Z-4.472
Y229.357 Z-4.385
X282.948 Y229.335 Z-4.294
Y229.327 Z-4.2
G0 Z2.5
X309.705 Y193.389
Z-3.6
G1 Z-4.2 F1000.
X309.712 Y193.386 Z-4.294
X309.733 Y193.378 Z-4.385
X309.766 Y193.365 Z-4.472
X309.812 Y193.348 Z-4.553
X309.869 Y193.326 Z-4.624
X309.936 Y193.3 Z-4.685
X310.011 Y193.271 Z-4.735
X310.092 Y193.24 Z-4.771
X310.178 Y193.207 Z-4.793
X310.265 Y193.173 Z-4.8
G3 X311.045 Y193.082 I0.568 J1.477
G1 X314.891 Y193.738
X315.274 Y193.803
X315.849 Y193.926
X316.512 Y194.228
X317.18 Y194.732
X317.756 Y195.405
X318.192 Y196.177
X318.496 Y197.009
X318.68 Y197.876
X318.766 Y198.758
X318.759 Y199.644
G3 X317.771 Y203.945 I-14.412 J-1.045
X314.833 Y209.393 I-25.329 J-10.148
X310.582 Y215.063 I-60.607 J-41.004
X297.17 Y230.403 I-224.646 J-182.88
X295.112 Y232.599 I-105.601 J-96.883
G1 X294.953 Y232.719
X294.763 Y232.78
X294.564 Y232.775
X288.96 Y231.694
G3 X288.495 Y231.131 I0.134 J-0.585
G1 X288.491 Y231.037 Z-4.793
X288.488 Y230.946 Z-4.771
X288.485 Y230.859 Z-4.735
X288.482 Y230.778 Z-4.685
X288.479 Y230.707 Z-4.624
X288.477 Y230.646 Z-4.553
X288.475 Y230.597 Z-4.472
X288.474 Y230.561 Z-4.385
X288.473 Y230.539 Z-4.294
Y230.531 Z-4.2
G0 Z2.5
X313.937 Y194.121
Z-3.6
G1 Z-4.2 F1000.
X313.944 Y194.119 Z-4.294
X313.964 Y194.111 Z-4.385
X313.998 Y194.097 Z-4.472
X314.044 Y194.079 Z-4.553
X314.101 Y194.057 Z-4.624
X314.167 Y194.031 Z-4.685
X314.242 Y194.001 Z-4.735
X314.323 Y193.969 Z-4.771
X314.408 Y193.936 Z-4.793
X314.495 Y193.901 Z-4.8
G3 X315.274 Y193.803 I0.581 J1.472
G1 X315.476 Y193.836
X319.504 Y194.427
X320.121 Y194.549
X320.803 Y194.849
X321.504 Y195.361
X322.09 Y196.026
X322.542 Y196.788
X322.87 Y197.612
X323.084 Y198.471
X323.203 Y199.349
X323.239 Y200.235
G3 X322.501 Y204.587 I-14.838 J-0.276
X319.924 Y210.213 I-24.752 J-7.936
X315.9 Y216.043 I-46.79 J-27.997
X307.974 Y225.584 I-153.536 J-119.473
X300.698 Y233.657 I-220.639 J-191.575
G1 X300.544 Y233.777
X300.358 Y233.84
X300.162
X299.768 Y233.775
X299.566 Y233.74
X299.365 Y233.702
X294.564 Y232.775
G3 X294.098 Y232.212 I0.134 J-0.585
G1 X294.095 Y232.118 Z-4.793
X294.092 Y232.027 Z-4.771
X294.088 Y231.94 Z-4.735
X294.086 Y231.86 Z-4.685
X294.083 Y231.788 Z-4.624
X294.081 Y231.727 Z-4.553
X294.079 Y231.678 Z-4.472
X294.078 Y231.642 Z-4.385
X294.077 Y231.62 Z-4.294
Y231.613 Z-4.2
G0 Z2.5
X318.171 Y194.765
Z-3.6
G1 Z-4.2 F1000.
X318.178 Y194.762 Z-4.294
X318.198 Y194.754 Z-4.385
X318.232 Y194.74 Z-4.472
X318.277 Y194.721 Z-4.553
X318.334 Y194.698 Z-4.624
X318.4 Y194.671 Z-4.685
X318.474 Y194.64 Z-4.735
X318.554 Y194.607 Z-4.771
X318.639 Y194.572 Z-4.793
X318.726 Y194.536 Z-4.8
G3 X319.504 Y194.427 I0.603 J1.463
G1 X323.934 Y195.077
X324.535 Y195.197
X325.222 Y195.498
X325.937 Y196.02
X326.525 Y196.683
X326.982 Y197.443
X327.321 Y198.261
X327.551 Y199.117
X327.689 Y199.992
G3 X327.554 Y203.524 I-12.912 J1.272
X325.684 Y209.418 I-22.702 J-3.958
X322.154 Y215.555 I-36.057 J-16.655
X316.788 Y222.602 I-76.921 J-53.006
X306.358 Y234.59 I-217.067 J-178.337
G1 X306.206 Y234.715
X306.018 Y234.78
X305.82
X300.162 Y233.84
G3 X299.682 Y233.29 I0.119 J-0.588
G1 X299.676 Y233.196 Z-4.793
X299.671 Y233.105 Z-4.771
X299.665 Y233.018 Z-4.735
X299.66 Y232.938 Z-4.685
X299.656 Y232.866 Z-4.624
X299.652 Y232.805 Z-4.553
X299.649 Y232.756 Z-4.472
X299.647 Y232.72 Z-4.385
X299.645 Y232.698 Z-4.294
Y232.691 Z-4.2
G0 Z2.5
X322.602 Y195.415
Z-3.6
G1 Z-4.2 F1000.
X322.608 Y195.413 Z-4.294
X322.629 Y195.404 Z-4.385
X322.662 Y195.39 Z-4.472
X322.708 Y195.372 Z-4.553
X322.764 Y195.348 Z-4.624
X322.83 Y195.321 Z-4.685
X322.905 Y195.291 Z-4.735
X322.985 Y195.257 Z-4.771
X323.07 Y195.223 Z-4.793
X323.156 Y195.187 Z-4.8
G3 X323.934 Y195.077 I0.603 J1.463
G2 X328.163 Y195.624 I17.167 J-116.219
G1 X328.911 Y195.754
X329.61 Y196.041
X330.337 Y196.547
X330.941 Y197.196
X331.416 Y197.944
X331.777 Y198.753
X332.032 Y199.602
X332.197 Y200.472
G3 X332.186 Y204.007 I-13.296 J1.725
X330.587 Y209.982 I-23.758 J-3.158
X326.887 Y217.032 I-36.622 J-14.723
X321.665 Y224.185 I-66.725 J-43.233
X311.983 Y235.521 I-192.611 J-154.704
G1 X311.83 Y235.651
X311.64 Y235.716
X311.439
X311.247 Y235.682
X305.82 Y234.78
G3 X305.34 Y234.23 I0.119 J-0.588
G1 X305.335 Y234.136 Z-4.793
X305.329 Y234.045 Z-4.771
X305.323 Y233.958 Z-4.735
X305.318 Y233.878 Z-4.685
X305.314 Y233.806 Z-4.624
X305.31 Y233.745 Z-4.553
X305.307 Y233.696 Z-4.472
X305.305 Y233.66 Z-4.385
X305.304 Y233.638 Z-4.294
X305.303 Y233.631 Z-4.2
G0 Z2.5
X326.839 Y195.993
Z-3.6
G1 Z-4.2 F1000.
X326.846 Y195.99 Z-4.294
X326.866 Y195.981 Z-4.385
X326.899 Y195.966 Z-4.472
X326.944 Y195.947 Z-4.553
X327. Y195.922 Z-4.624
X327.066 Y195.893 Z-4.685
X327.139 Y195.861 Z-4.735
X327.219 Y195.826 Z-4.771
X327.302 Y195.789 Z-4.793
X327.388 Y195.751 Z-4.8
G3 X328.163 Y195.624 I0.637 J1.449
G1 X332.795 Y196.194
X333.408 Y196.301
X334.112 Y196.59
X334.839 Y197.096
X335.446 Y197.741
X335.928 Y198.485
X336.296 Y199.291
X336.564 Y200.136
X336.743 Y201.004
G3 X336.714 Y205.419 I-15.318 J2.106
X334.794 Y212.224 I-27.969 J-4.217
X330.625 Y220.027 I-41.706 J-17.266
X325.4 Y227.178 I-70.905 J-46.328
X316.214 Y237.975 I-180.999 J-144.692
G1 X315.566 Y238.58
X314.855 Y239.109
G3 X313.957 Y238.613 I-0.299 J-0.521
X314.398 Y238.031 I0.6 J-0.004
G1 X314.489 Y238.006 Z-4.793
X314.577 Y237.982 Z-4.771
X314.661 Y237.959 Z-4.735
X314.738 Y237.938 Z-4.685
X314.807 Y237.919 Z-4.624
X314.866 Y237.902 Z-4.553
X314.914 Y237.889 Z-4.472
X314.949 Y237.88 Z-4.385
X314.97 Y237.874 Z-4.294
X314.977 Y237.872 Z-4.2
G0 Z2.5
X331.471 Y196.563
Z-3.6
G1 Z-4.2 F1000.
X331.478 Y196.56 Z-4.294
X331.498 Y196.551 Z-4.385
X331.531 Y196.536 Z-4.472
X331.576 Y196.517 Z-4.553
X331.632 Y196.492 Z-4.624
X331.697 Y196.463 Z-4.685
X331.771 Y196.431 Z-4.735
X331.851 Y196.396 Z-4.771
X331.934 Y196.359 Z-4.793
X332.02 Y196.321 Z-4.8
G3 X332.795 Y196.194 I0.637 J1.449
G1 X334.205 Y196.367
X334.809 Y196.439
G2 X336.017 Y196.291 I0.23 J-3.124
G1 X336.452 Y196.173
X337.07 Y196.143
X337.751 Y196.259
X338.522 Y196.572
X339.252 Y197.075
X339.864 Y197.715
X340.364 Y198.447
X340.756 Y199.242
X341.052 Y200.077
X341.268 Y200.936
G3 X341.498 Y204.465 I-14.15 J2.694
X340.404 Y210.555 I-25.578 J-1.451
X336.534 Y219.477 I-39.858 J-11.991
X331.669 Y226.875 I-58.419 J-33.112
X323.868 Y236.518 I-130.422 J-97.532
G1 X323.297 Y237.195
X322.717 Y237.865
G3 X319.742 Y241.147 I-49.263 J-41.665
G1 X319.085 Y241.742
X318.395 Y242.298
X317.65 Y242.778
X316.849 Y243.158
X316.003 Y243.42
X315.126 Y243.546
X314.24 Y243.531
X313.369 Y243.366
X312.539 Y243.056
X312.301 Y242.916
G3 X312.136 Y242.027 I0.305 J-0.517
G1 X313.059 Y240.861
X313.261 Y240.597
G3 X313.971 Y240.428 I0.466 J0.379
G1 X314.057 Y240.466 Z-4.793
X314.14 Y240.503 Z-4.771
X314.22 Y240.539 Z-4.735
X314.293 Y240.572 Z-4.685
X314.358 Y240.601 Z-4.624
X314.414 Y240.626 Z-4.553
X314.459 Y240.646 Z-4.472
X314.492 Y240.661 Z-4.385
X314.512 Y240.67 Z-4.294
X314.519 Y240.673 Z-4.2
G0 Z2.5
X335.002 Y197.219
Z-3.6
G1 Z-4.2 F1000.
X335.007 Y197.213 Z-4.294
X335.021 Y197.196 Z-4.385
X335.044 Y197.168 Z-4.472
X335.075 Y197.13 Z-4.553
X335.114 Y197.083 Z-4.624
X335.159 Y197.028 Z-4.685
X335.21 Y196.966 Z-4.735
X335.266 Y196.898 Z-4.771
X335.324 Y196.828 Z-4.793
X335.383 Y196.755 Z-4.8
G3 X336.018 Y196.292 I1.222 J1.006
G2 X337.628 Y195.004 I-0.939 J-2.826
G1 X337.729 Y194.848
X338.103 Y194.475
X338.587 Y194.168
X339.202 Y193.944
X339.974 Y193.843
X340.816 Y193.916
X341.662 Y194.182
X342.444 Y194.598
X343.144 Y195.141
X343.764 Y195.775
X344.298 Y196.482
X344.754 Y197.241
X345.138 Y198.04
G3 X346.042 Y201.457 I-12.178 J5.051
X345.902 Y207.637 I-21.391 J2.606
X343.46 Y216.131 I-35.538 J-5.619
X338.931 Y224.747 I-49.218 J-20.372
X332.709 Y233.363 I-78.284 J-49.979
G1 X332.163 Y234.061
X331.606 Y234.75
G3 X324.712 Y242.845 I-182.174 J-148.163
X321.47 Y245.855 I-17.88 J-16.01
G1 X320.734 Y246.349
G3 X317.507 Y247.785 I-6.263 J-9.733
G1 X316.642 Y247.974
X315.764 Y248.097
X314.879 Y248.136
X313.993 Y248.104
X313.115 Y247.986
X312.249 Y247.798
X311.407 Y247.521
X310.604 Y247.146
X309.862 Y246.663
X309.466 Y246.313
G3 X309.394 Y245.491 I0.398 J-0.449
G1 X312.136 Y242.027
G3 X312.85 Y241.873 I0.457 J0.389
G1 X312.935 Y241.914 Z-4.793
X313.018 Y241.953 Z-4.771
X313.096 Y241.99 Z-4.735
X313.169 Y242.025 Z-4.685
X313.234 Y242.055 Z-4.624
X313.289 Y242.081 Z-4.553
X313.333 Y242.103 Z-4.472
X313.366 Y242.118 Z-4.385
X313.386 Y242.127 Z-4.294
X313.392 Y242.131 Z-4.2
G0 Z2.5
X337.506 Y196.374
Z-3.6
G1 Z-4.2 F1000.
Y196.367 Z-4.294
X337.504 Y196.345 Z-4.385
X337.502 Y196.309 Z-4.472
X337.5 Y196.26 Z-4.553
X337.497 Y196.199 Z-4.624
X337.493 Y196.127 Z-4.685
X337.489 Y196.047 Z-4.735
X337.484 Y195.96 Z-4.771
X337.479 Y195.869 Z-4.793
X337.474 Y195.775 Z-4.8
G3 X337.629 Y195.005 I1.58 J-0.084
G2 X338.047 Y193.134 I-2.568 J-1.556
G1 X338.034 Y192.94
X338.109 Y192.467
X338.322 Y191.922
X338.681 Y191.389
X339.194 Y190.9
X339.924 Y190.459
X340.764 Y190.175
X341.644 Y190.073
X342.529 Y190.121
X343.395 Y190.309
X344.228 Y190.61
X345.017 Y191.014
X345.76 Y191.496
X346.448 Y192.055
G3 X349.096 Y195.576 I-8.114 J8.859
X350.657 Y200.635 I-15.02 J7.404
X350.672 Y207.7 I-24.665 J3.584
X348.512 Y216.274 I-37.892 J-4.987
X343.412 Y226.58 I-52.228 J-19.43
G1 X342.951 Y227.336
X342.472 Y228.082
X341.986 Y228.823
G3 X334.528 Y238.73 I-99.227 J-66.939
X328.183 Y246.127 I-138.067 J-112.01
X324.938 Y249.139 I-22.94 J-21.463
X320.339 Y251.772 I-11.273 J-14.357
X314.261 Y252.784 I-5.523 J-14.411
X309.933 Y251.92 I0.536 J-13.952
G1 X309.12 Y251.569
X308.334 Y251.16
X307.585 Y250.686
X306.89 Y250.136
X306.61 Y249.847
G3 X306.571 Y249.057 I0.431 J-0.418
G1 X309.394 Y245.491
G3 X310.108 Y245.337 I0.457 J0.389
G1 X310.193 Y245.378 Z-4.793
X310.275 Y245.417 Z-4.771
X310.354 Y245.454 Z-4.735
X310.426 Y245.489 Z-4.685
X310.491 Y245.519 Z-4.624
X310.546 Y245.545 Z-4.553
X310.591 Y245.567 Z-4.472
X310.623 Y245.582 Z-4.385
X310.643 Y245.591 Z-4.294
X310.65 Y245.595 Z-4.2
G0 Z2.5
X338.711 Y194.337
Z-3.6
G1 Z-4.2 F1000.
X338.706 Y194.331 Z-4.294
X338.693 Y194.314 Z-4.385
X338.671 Y194.285 Z-4.472
X338.642 Y194.246 Z-4.553
X338.605 Y194.197 Z-4.624
X338.561 Y194.14 Z-4.685
X338.513 Y194.076 Z-4.735
X338.461 Y194.006 Z-4.771
X338.405 Y193.933 Z-4.793
X338.349 Y193.859 Z-4.8
G3 X338.046 Y193.134 I1.263 J-0.954
G2 X337.511 Y191.723 I-2.894 J0.29
G1 X337.226 Y191.335
X337.051 Y191.068
X336.862 Y190.57
X336.774 Y189.962
X336.822 Y189.308
X337.047 Y188.558
X337.472 Y187.795
X338.061 Y187.132
X338.768 Y186.598
X339.552 Y186.185
X340.39 Y185.898
X341.258 Y185.719
X342.141 Y185.65
X343.027 Y185.674
X343.906 Y185.786
G3 X347.227 Y186.981 I-1.963 J10.671
X351.264 Y190.391 I-6.719 J12.049
X354.27 Y195.782 I-13.836 J11.246
X355.631 Y203.603 I-22.77 J7.993
X354.642 Y212.385 I-34.691 J0.538
X352.187 Y219.963 I-46.002 J-10.717
X346.339 Y230.882 I-60.255 J-25.243
X339.53 Y240.167 I-91.348 J-59.851
X332.08 Y248.951 I-144.499 J-115.002
X328.207 Y252.588 I-28.641 J-26.615
X322.1 Y256.136 I-14.714 J-18.301
G1 X321.265 Y256.432
X320.419 Y256.698
X319.563 Y256.925
G3 X309.067 Y256.584 I-4.643 J-18.801
X305.104 Y254.631 I5.106 J-15.352
G1 X304.4 Y254.092
X303.752 Y253.488
X303.639 Y253.351
G3 X303.641 Y252.581 I0.462 J-0.383
G1 X305.608 Y250.245
X306.038 Y249.725
X306.212 Y249.51
X306.571 Y249.057
G3 X307.285 Y248.903 I0.457 J0.389
G1 X307.37 Y248.944 Z-4.793
X307.452 Y248.983 Z-4.771
X307.531 Y249.02 Z-4.735
X307.603 Y249.055 Z-4.685
X307.668 Y249.085 Z-4.624
X307.723 Y249.111 Z-4.553
X307.768 Y249.132 Z-4.472
X307.8 Y249.148 Z-4.385
X307.82 Y249.157 Z-4.294
X307.827 Y249.16 Z-4.2
G0 Z2.5
X338.4 Y192.051
Z-3.6
G1 Z-4.2 F1000.
X338.393 Y192.048 Z-4.294
X338.373 Y192.039 Z-4.385
X338.34 Y192.025 Z-4.472
X338.294 Y192.006 Z-4.553
X338.238 Y191.981 Z-4.624
X338.172 Y191.953 Z-4.685
X338.099 Y191.922 Z-4.735
X338.019 Y191.887 Z-4.771
X337.935 Y191.851 Z-4.793
X337.848 Y191.814 Z-4.8
G3 X337.226 Y191.335 I0.624 J-1.455
G1 X337.024 Y191.065
X335.244 Y188.703
X334.895 Y188.189
X334.649 Y187.571
X334.536 Y186.869
X334.584 Y186.021
X334.824 Y185.168
X335.231 Y184.381
X335.765 Y183.674
X336.401 Y183.056
X337.111 Y182.527
X337.88 Y182.087
X338.69 Y181.726
G3 X342.155 Y181.056 I3.733 J10.008
X347.365 Y181.938 I0.366 J13.671
X353.308 Y185.708 I-5.974 J15.986
X358.238 Y192.995 I-14.806 J15.327
X360.271 Y201.579 I-25.067 J10.469
X360.007 Y209.533 I-35.34 J2.808
X356.716 Y221.46 I-48.651 J-7.004
X351.475 Y231.702 I-61.191 J-24.856
X344.322 Y241.829 I-87.692 J-54.347
X335.769 Y251.999 I-142.678 J-111.306
G1 X335.152 Y252.636
G3 X329.097 Y257.802 I-26.791 J-25.274
X321.051 Y261.422 I-14.968 J-22.515
X308.779 Y261.411 I-6.116 J-23.511
X303.113 Y258.939 I5.53 J-20.4
G1 X302.384 Y258.435
X301.68 Y257.897
X301.022 Y257.304
X300.671 Y256.911
G3 X300.659 Y256.125 I0.447 J-0.4
G1 X303.641 Y252.581
G3 X304.36 Y252.449 I0.445 J0.402
G1 X304.443 Y252.492 Z-4.793
X304.525 Y252.534 Z-4.771
X304.602 Y252.573 Z-4.735
X304.674 Y252.61 Z-4.685
X304.738 Y252.643 Z-4.624
X304.792 Y252.67 Z-4.553
X304.836 Y252.693 Z-4.472
X304.868 Y252.709 Z-4.385
X304.887 Y252.719 Z-4.294
X304.894 Y252.723 Z-4.2
G0 Z2.5
X336.43 Y189.399
Z-3.6
G1 Z-4.2 F1000.
X336.423 Y189.396 Z-4.294
X336.403 Y189.388 Z-4.385
X336.369 Y189.374 Z-4.472
X336.324 Y189.356 Z-4.553
X336.267 Y189.333 Z-4.624
X336.201 Y189.305 Z-4.685
X336.127 Y189.275 Z-4.735
X336.046 Y189.242 Z-4.771
X335.962 Y189.207 Z-4.793
X335.875 Y189.172 Z-4.8
G3 X335.244 Y188.703 I0.599 J-1.465
G1 X332.815 Y185.481
X332.449 Y184.942
X332.185 Y184.278
X332.06 Y183.507
X332.11 Y182.622
X332.337 Y181.765
X332.716 Y180.964
X333.208 Y180.227
X333.795 Y179.564
X334.453 Y178.97
X335.166 Y178.444
G3 X338.38 Y176.978 I6.421 J9.826
X344.523 Y176.487 I4.3 J15.105
X352.812 Y179.401 I-2.198 J19.498
X359.806 Y186.09 I-12.397 J19.962
X364.114 Y195.743 I-23.285 J16.181
X364.789 Y199.221 I-28.797 J7.387
X364.64 Y210.7 I-39.585 J5.229
X361.381 Y222.64 I-52.659 J-7.959
X355.839 Y233.721 I-65.201 J-25.685
X348.771 Y243.907 I-88.586 J-53.92
G1 X348.235 Y244.613
X347.687 Y245.31
G3 X339.695 Y254.795 I-149.216 J-117.615
X334.556 Y259.671 I-39.013 J-35.977
X325.405 Y265.001 I-21.351 J-26.135
X312.35 Y266.828 I-10.547 J-27.811
X305.446 Y265.304 I2.508 J-27.766
X299.943 Y262.478 I8.153 J-22.647
G1 X299.232 Y261.948
X298.551 Y261.381
X297.913 Y260.766
X297.637 Y260.438
G3 X297.649 Y259.652 I0.46 J-0.386
G1 X298.242 Y258.989
X298.358 Y258.856
X299.095 Y257.982
X300.659 Y256.125
G3 X301.377 Y255.993 I0.445 J0.402
G1 X301.461 Y256.036 Z-4.793
X301.542 Y256.077 Z-4.771
X301.62 Y256.117 Z-4.735
X301.691 Y256.153 Z-4.685
X301.755 Y256.186 Z-4.624
X301.809 Y256.214 Z-4.553
X301.853 Y256.236 Z-4.472
X301.885 Y256.253 Z-4.385
X301.905 Y256.263 Z-4.294
X301.911 Y256.266 Z-4.2
G0 Z2.5
X334. Y186.177
Z-3.6
G1 Z-4.2 F1000.
X333.994 Y186.174 Z-4.294
X333.973 Y186.166 Z-4.385
X333.94 Y186.152 Z-4.472
X333.894 Y186.133 Z-4.553
X333.838 Y186.11 Z-4.624
X333.772 Y186.083 Z-4.685
X333.697 Y186.053 Z-4.735
X333.617 Y186.02 Z-4.771
X333.532 Y185.985 Z-4.793
X333.445 Y185.95 Z-4.8
G3 X332.815 Y185.481 I0.599 J-1.465
G1 X331.587 Y183.854
X330.177 Y182.072
X329.877 Y181.651
X329.59 Y180.976
X329.441 Y180.173
X329.47 Y179.287
X329.67 Y178.424
X330.014 Y177.607
X330.468 Y176.846
X331.01 Y176.145
X331.624 Y175.506
G3 X335.337 Y173.129 I8.746 J9.571
X342.236 Y171.694 I7.156 J17.105
X351.731 Y173.548 I0.447 J22.946
X361.662 Y180.798 I-10.519 J24.835
X366.836 Y189.012 I-23.229 J20.368
X369.749 Y201.01 I-33.701 J14.537
X369.179 Y212.484 I-45.529 J3.49
X365.146 Y226.042 I-58.901 J-10.144
X359.417 Y237.03 I-70.826 J-29.939
X351.748 Y247.877 I-97.371 J-60.706
X343.196 Y258.048 I-136.974 J-106.496
X337.386 Y263.502 I-42.534 J-39.486
X328.294 Y268.954 I-24.527 J-30.596
X323.255 Y270.636 I-14.007 J-33.58
X305.738 Y270.388 I-8.298 J-32.559
X299.228 Y267.62 I8.711 J-29.533
X295.62 Y265.059 I11.213 J-19.62
G1 X294.982 Y264.444
X294.532 Y263.921
G3 X294.539 Y263.129 I0.454 J-0.392
G1 X297.649 Y259.652
G3 X298.371 Y259.541 I0.433 J0.415
G1 X298.454 Y259.587 Z-4.793
X298.534 Y259.631 Z-4.771
X298.61 Y259.673 Z-4.735
X298.68 Y259.711 Z-4.685
X298.743 Y259.746 Z-4.624
X298.797 Y259.775 Z-4.553
X298.84 Y259.799 Z-4.472
X298.871 Y259.816 Z-4.385
X298.891 Y259.827 Z-4.294
X298.897 Y259.831 Z-4.2
G0 Z2.5
X331.379 Y182.74
Z-3.6
G1 Z-4.2 F1000.
X331.372 Y182.737 Z-4.294
X331.351 Y182.729 Z-4.385
X331.318 Y182.716 Z-4.472
X331.272 Y182.699 Z-4.553
X331.215 Y182.677 Z-4.624
X331.148 Y182.651 Z-4.685
X331.073 Y182.623 Z-4.735
X330.992 Y182.592 Z-4.771
X330.906 Y182.559 Z-4.793
X330.818 Y182.525 Z-4.8
G3 X330.177 Y182.072 I0.565 J-1.478
G1 X327.617 Y178.835
X327.176 Y178.217
X326.888 Y177.54
X326.729 Y176.685
X326.759 Y175.799
X326.955 Y174.935
X327.283 Y174.112
X327.72 Y173.341
X328.24 Y172.624
X328.827 Y171.96
G3 X332.395 Y169.364 I9.886 J9.84
X340. Y167.123 I9.688 J18.856
X351.362 Y168.369 I2.848 J26.469
X362.708 Y175.091 I-9.598 J29.137
X366.326 Y178.979 I-21.607 J23.729
X373.039 Y192.351 I-29.367 J23.116
X374.617 Y202.839 I-41.581 J11.619
X373.149 Y216.899 I-53.372 J1.533
X369.915 Y227.016 I-63.272 J-14.649
X362.492 Y241.106 I-77.425 J-31.789
X354.7 Y251.867 I-105.75 J-68.371
X346.676 Y261.324 I-128.247 J-100.687
X340.193 Y267.355 I-45.85 J-42.79
X330.334 Y273.251 I-27.446 J-34.702
X310.392 Y276.165 I-15.458 J-36.091
X300.162 Y273.397 I4.456 J-36.757
X293.337 Y269.314 I12.189 J-28.127
G1 X292.669 Y268.731
X292.027 Y268.12
X291.435 Y267.461
X291.371 Y267.371
G3 X291.413 Y266.624 I0.489 J-0.347
G1 X294.539 Y263.129
G3 X295.261 Y263.019 I0.433 J0.415
G1 X295.343 Y263.064 Z-4.793
X295.424 Y263.108 Z-4.771
X295.5 Y263.15 Z-4.735
X295.57 Y263.189 Z-4.685
X295.633 Y263.223 Z-4.624
X295.686 Y263.253 Z-4.553
X295.729 Y263.276 Z-4.472
X295.761 Y263.294 Z-4.385
X295.78 Y263.304 Z-4.294
X295.787 Y263.308 Z-4.2
G0 Z2.5
X328.818 Y179.503
Z-3.6
G1 Z-4.2 F1000.
X328.811 Y179.5 Z-4.294
X328.791 Y179.493 Z-4.385
X328.757 Y179.48 Z-4.472
X328.711 Y179.462 Z-4.553
X328.654 Y179.44 Z-4.624
X328.587 Y179.415 Z-4.685
X328.512 Y179.386 Z-4.735
X328.431 Y179.355 Z-4.771
X328.345 Y179.322 Z-4.793
X328.258 Y179.289 Z-4.8
G3 X327.617 Y178.835 I0.565 J-1.478
G1 X325.704 Y176.419
X325.543 Y176.217
X325.143 Y175.731
X324.877 Y175.412
X324.44 Y174.827
X324.133 Y174.15
X323.953 Y173.292
X323.962 Y172.406
X324.135 Y171.537
X324.438 Y170.705
X324.85 Y169.92
X325.345 Y169.185
X325.904 Y168.498
G3 X329.335 Y165.719 I10.996 J10.07
X335.878 Y163.064 I11.866 J19.849
X348.189 Y162.705 I7.001 J28.864
X361.986 Y168.44 I-5.875 J33.6
X364.799 Y170.594 I-18.978 J27.69
X374.932 Y183.881 I-25.797 J30.183
X379.043 Y198.301 I-40.77 J19.418
X379.055 Y210.678 I-52.471 J6.238
X378.065 Y216.798 I-57.654 J-6.179
X372.635 Y232.695 I-70.988 J-15.375
X368.403 Y240.659 I-76.761 J-35.679
X367.71 Y240.923 I-0.512 J-0.302
G2 X366.83 Y240.783 I-0.883 J2.705
X365.823 Y240.808 I-0.394 J4.394
X363.81 Y242.11 I0.463 J2.924
G1 X363.689 Y242.273
X358.714 Y249.524
X358.292 Y250.128
X355.456 Y254.156
X355.312 Y254.357
X351.726 Y259.277
G3 X348.037 Y264.225 I-331.536 J-243.303
G1 X344.612 Y268.656
X344.274 Y269.092
X343.872 Y269.606
X343.51 Y270.065
G3 X340.288 Y273.088 I-12.992 J-10.622
X331.776 Y277.79 I-23.834 J-33.088
X305.713 Y280.185 I-16.828 J-40.13
X296.543 Y276.945 I9.071 J-40.273
X290.568 Y273.154 I14.953 J-30.172
G1 X289.893 Y272.58
X289.242 Y271.979
X288.623 Y271.345
X288.203 Y270.824
G3 X288.235 Y270.034 I0.467 J-0.377
G1 X290.117 Y268.052
X290.504 Y267.64
X291.413 Y266.624
G3 X292.135 Y266.513 I0.433 J0.415
G1 X292.218 Y266.559 Z-4.793
X292.298 Y266.603 Z-4.771
X292.374 Y266.645 Z-4.735
X292.444 Y266.683 Z-4.685
X292.507 Y266.718 Z-4.624
X292.561 Y266.747 Z-4.553
X292.604 Y266.771 Z-4.472
X292.635 Y266.788 Z-4.385
X292.655 Y266.799 Z-4.294
X292.661 Y266.802 Z-4.2
G0 Z2.5
X343.881 Y268.742
Z-3.6
G1 Z-4.2 F1000.
X343.88 Y268.749 Z-4.294
X343.877 Y268.771 Z-4.385
X343.872 Y268.806 Z-4.472
X343.866 Y268.855 Z-4.553
X343.858 Y268.916 Z-4.624
X343.848 Y268.987 Z-4.685
X343.838 Y269.066 Z-4.735
X343.827 Y269.153 Z-4.771
X343.815 Y269.243 Z-4.793
X343.803 Y269.336 Z-4.8
G3 X343.51 Y270.065 I-1.569 J-0.206
G1 X341.132 Y273.086
X340.648 Y273.69
X340.247 Y274.182
X336.622 Y278.605
X335.816 Y279.575
X335.413 Y280.059
X334.813 Y280.711
X334.16 Y281.31
X333.443 Y281.83
G3 X330.255 Y283.364 I-8.55 J-13.693
X320.784 Y285.572 I-14.257 J-39.739
X297.315 Y282.518 I-5.884 J-46.496
X289.535 Y278.309 I16.002 J-38.866
G1 X288.818 Y277.788
X288.112 Y277.252
G3 X285.491 Y274.872 I13.572 J-17.578
G1 X284.931 Y274.185
G3 X284.997 Y273.442 I0.501 J-0.33
G1 X288.235 Y270.034
G3 X288.96 Y269.945 I0.42 J0.428
G1 X289.041 Y269.993 Z-4.793
X289.12 Y270.04 Z-4.771
X289.195 Y270.084 Z-4.735
X289.264 Y270.125 Z-4.685
X289.325 Y270.161 Z-4.624
X289.378 Y270.192 Z-4.553
X289.42 Y270.217 Z-4.472
X289.451 Y270.235 Z-4.385
X289.47 Y270.246 Z-4.294
X289.477 Y270.25 Z-4.2
G0 Z2.5
X335.819 Y278.746
Z-3.6
G1 Z-4.2 F1000.
X335.818 Y278.753 Z-4.294
X335.815 Y278.775 Z-4.385
X335.809 Y278.81 Z-4.472
X335.801 Y278.859 Z-4.553
X335.792 Y278.919 Z-4.624
X335.78 Y278.99 Z-4.685
X335.768 Y279.069 Z-4.735
X335.754 Y279.155 Z-4.771
X335.74 Y279.245 Z-4.793
X335.725 Y279.338 Z-4.8
G3 X335.413 Y280.059 I-1.563 J-0.248
G1 X333.34 Y282.552
X333.171 Y282.753
X332.795 Y283.19
X329.502 Y286.982
X328.889 Y287.622
X328.202 Y288.182
X327.444 Y288.641
X326.642 Y289.017
G3 X323.235 Y289.975 I-6.437 J-16.344
X312.646 Y290.645 I-8.212 J-45.808
X291.407 Y285.005 I1.993 J-50.317
X284.746 Y280.641 I19.688 J-37.318
G1 X284.072 Y280.066
X283.414 Y279.472
X282.78 Y278.853
X282.173 Y278.207
X281.71 Y277.617
G3 X281.759 Y276.82 I0.472 J-0.371
G1 X282.247 Y276.336
X283.656 Y274.853
X284.997 Y273.442
G3 X285.722 Y273.353 I0.42 J0.428
G1 X285.803 Y273.401 Z-4.793
X285.882 Y273.448 Z-4.771
X285.957 Y273.492 Z-4.735
X286.026 Y273.533 Z-4.685
X286.088 Y273.569 Z-4.624
X286.14 Y273.6 Z-4.553
X286.183 Y273.625 Z-4.472
X286.214 Y273.643 Z-4.385
X286.233 Y273.654 Z-4.294
X286.239 Y273.658 Z-4.2
G0 Z2.5
X329.936 Y285.678
Z-3.6
G1 Z-4.2 F1000.
X329.935 Y285.685 Z-4.294
X329.931 Y285.707 Z-4.385
X329.924 Y285.742 Z-4.472
X329.916 Y285.79 Z-4.553
X329.905 Y285.851 Z-4.624
X329.892 Y285.921 Z-4.685
X329.878 Y286. Z-4.735
X329.862 Y286.086 Z-4.771
X329.846 Y286.176 Z-4.793
X329.829 Y286.268 Z-4.8
G3 X329.502 Y286.982 I-1.557 J-0.281
G1 X328.566 Y288.06
X325.268 Y291.816
X325.143 Y291.957
X324.346 Y292.823
X323.715 Y293.444
X322.995 Y293.961
X322.207 Y294.366
X321.376 Y294.675
G3 X317.896 Y295.309 I-4.676 J-15.798
X309.049 Y295.156 I-3.62 J-46.537
X288.049 Y288.597 I5.407 J-54.214
X280.805 Y283.519 I21.444 J-38.298
G1 X280.16 Y282.911
X279.53 Y282.287
X278.93 Y281.636
X278.382 Y280.939
G3 X278.308 Y280.287 I0.495 J-0.387
G1 X278.425 Y280.125
X281.759 Y276.82
G3 X282.486 Y276.753 I0.407 J0.441
G1 X282.566 Y276.804 Z-4.793
X282.643 Y276.852 Z-4.771
X282.717 Y276.899 Z-4.735
X282.784 Y276.942 Z-4.685
X282.845 Y276.98 Z-4.624
X282.897 Y277.013 Z-4.553
X282.938 Y277.039 Z-4.472
X282.969 Y277.058 Z-4.385
X282.987 Y277.07 Z-4.294
X282.994 Y277.074 Z-4.2
G0 Z2.5
X324.817 Y291.531
Z-3.6
G1 Z-4.2 F1000.
X324.815 Y291.538 Z-4.294
X324.811 Y291.56 Z-4.385
X324.803 Y291.595 Z-4.472
X324.793 Y291.643 Z-4.553
X324.781 Y291.703 Z-4.624
X324.766 Y291.773 Z-4.685
X324.749 Y291.852 Z-4.735
X324.731 Y291.937 Z-4.771
X324.713 Y292.026 Z-4.793
X324.693 Y292.118 Z-4.8
G3 X324.346 Y292.823 I-1.549 J-0.325
G1 X320.273 Y297.253
X319.705 Y297.867
X319.071 Y298.486
X318.351 Y299.003
X317.556 Y299.393
X316.716 Y299.674
X315.851 Y299.869
G3 X312.32 Y300.111 I-3.047 J-18.592
X301.785 Y298.811 I1.168 J-52.794
X283.021 Y291.129 I12.114 J-56.347
X277.395 Y286.828 I24.452 J-37.82
G1 X276.757 Y286.212
X276.139 Y285.577
X275.547 Y284.918
X275.011 Y284.213
G3 X275.08 Y283.44 I0.496 J-0.345
G1 X278.425 Y280.125
G3 X279.152 Y280.058 I0.407 J0.441
G1 X279.232 Y280.108 Z-4.793
X279.309 Y280.157 Z-4.771
X279.383 Y280.203 Z-4.735
X279.451 Y280.246 Z-4.685
X279.511 Y280.284 Z-4.624
X279.563 Y280.317 Z-4.553
X279.605 Y280.343 Z-4.472
X279.635 Y280.362 Z-4.385
X279.654 Y280.374 Z-4.294
X279.66 Y280.378 Z-4.2
G0 Z2.5
X320.093 Y296.753
Z-3.6
G1 Z-4.2 F1000.
X320.092 Y296.76 Z-4.294
X320.087 Y296.781 Z-4.385
X320.079 Y296.817 Z-4.472
X320.069 Y296.865 Z-4.553
X320.056 Y296.924 Z-4.624
X320.041 Y296.995 Z-4.685
X320.024 Y297.073 Z-4.735
X320.006 Y297.158 Z-4.771
X319.987 Y297.248 Z-4.793
X319.967 Y297.339 Z-4.8
G3 X319.705 Y297.867 I-1.161 J-0.249
G1 X317.087 Y300.691
X316.684 Y301.109
X315.145 Y302.691
X314.496 Y303.294
X313.754 Y303.778
X312.939 Y304.127
G3 X312.593 Y304.2 I-0.386 J-0.971
X312.468 Y303.718 Z-4.659 I0.009 J-0.26
G1 X312.555 Y303.665 Z-4.637
X312.703 Y303.575 Z-4.6
X314.647 Y302.398
X314.795 Y302.308 Z-4.637
X314.818 Y302.294 Z-4.643
G3 X315.145 Y302.691 Z-4.8 I0.135 J0.222
G1 X313.865 Y304.007
G3 X313.462 Y304.199 I-0.447 J-0.42
G1 X313.261 Y304.2
X306.816
X305.046 Y304.112
G3 X298.944 Y303.037 I3.504 J-37.76
X280.299 Y295.04 I14.605 J-59.788
X274.004 Y290.158 I25.831 J-39.804
G1 X273.376 Y289.533
X272.765 Y288.892
X272.179 Y288.226
X271.647 Y287.518
X271.588 Y287.419
G3 X271.694 Y286.673 I0.515 J-0.307
G2 X275.081 Y283.441 I-64.304 J-70.761
G1 X275.149 Y283.386
X275.224 Y283.342
X275.305 Y283.31
X275.389 Y283.289
X275.476 Y283.281
X275.563 Y283.286
X275.649 Y283.303
X275.731 Y283.332
X275.808 Y283.373
X275.887 Y283.424 Z-4.793
X275.964 Y283.472 Z-4.771
X276.038 Y283.519 Z-4.735
X276.106 Y283.562 Z-4.685
X276.166 Y283.6 Z-4.624
X276.218 Y283.632 Z-4.553
X276.26 Y283.659 Z-4.472
X276.29 Y283.678 Z-4.385
X276.309 Y283.69 Z-4.294
X276.315 Y283.694 Z-4.2
G0 Z2.5
X308.085 Y303.672
Z-3.6
G1 Z-4.2 F1000.
X308.079 Y303.676 Z-4.294
X308.06 Y303.687 Z-4.385
X308.029 Y303.705 Z-4.472
X307.987 Y303.731 Z-4.553
X307.934 Y303.762 Z-4.624
X307.873 Y303.798 Z-4.685
X307.804 Y303.839 Z-4.735
X307.729 Y303.884 Z-4.771
X307.65 Y303.931 Z-4.793
X307.57 Y303.979 Z-4.8
G3 X306.816 Y304.2 I-0.809 J-1.36
G1 X290.101
X289.216 Y304.156
X288.335 Y304.056
G3 X284.964 Y302.988 I2.893 J-14.996
X277.962 Y299.189 I19.116 J-43.582
X270.306 Y293.184 I25.417 J-40.29
G1 X269.692 Y292.544
X269.1 Y291.885
X268.539 Y291.199
X268.17 Y290.657
G3 X268.257 Y289.881 I0.496 J-0.337
G1 X271.694 Y286.673
G3 X272.493 Y286.683 Z-4.614 I0.394 J0.453
G1 X272.543 Y286.729 Z-4.6
X290.485 Y303.158
G3 X290.68 Y303.58 I-0.405 J0.443
X290.101 Y304.2 Z-4.8 I-0.6 J0.02
G1 X279.629
X278.744 Y304.156
X277.872 Y303.996
X277.025 Y303.735
G3 X273.881 Y302.114 I5.935 J-15.372
X266.371 Y295.935 I22.33 J-34.791
X264.679 Y293.823 I10.867 J-10.443
X264.808 Y293.08 I0.535 J-0.289
G1 X265.129 Y292.795
X265.33 Y292.613
X268.257 Y289.881
G3 X269.103 Y289.94 Z-4.6 I0.394 J0.453
G1 X269.113 Y289.952
X280.07 Y303.218
G3 X280.207 Y303.58 I-0.463 J0.382
X279.629 Y304.2 Z-4.8 I-0.6 J0.02
G1 X271.372
X270.487 Y304.156
X269.618 Y303.982
X268.782 Y303.688
X267.984 Y303.303
G3 X265.102 Y301.251 I8.152 J-14.5
X261.451 Y297.4 I15.511 J-18.358
G1 X261.174 Y296.943
G3 X261.287 Y296.175 I0.509 J-0.317
G1 X264.808 Y293.081
G3 X265.653 Y293.162 Z-4.6 I0.381 J0.463
G1 X265.701 Y293.23
X271.862 Y303.287
G3 X271.95 Y303.58 I-0.512 J0.313
X271.372 Y304.2 Z-4.8 I-0.6 J0.02
G1 X264.122
X263.237 Y304.156
X262.376 Y303.944
X261.56 Y303.599
X260.794 Y303.154
G3 X258.2 Y300.757 I6.709 J-9.861
G1 X257.685 Y300.036
G3 X257.789 Y299.249 I0.507 J-0.334
G1 X261.287 Y296.175
G3 X262.131 Y296.259 Z-4.6 I0.38 J0.464
G1 X262.173 Y296.316
X262.207 Y296.377
X262.234 Y296.441
X264.667 Y303.402
X264.69 Y303.49
X264.7 Y303.58
G3 X264.122 Y304.2 Z-4.8 I-0.6 J0.02
G1 X258.08
X257.195 Y304.156
X256.334 Y303.947
X255.536 Y303.562
X254.832 Y303.023
X254.604 Y302.764
G3 X254.673 Y301.906 I0.451 J-0.396
G2 X257.789 Y299.249 I-50.104 J-61.93
G3 X258.633 Y299.333 Z-4.6 I0.38 J0.464
X258.769 Y299.73 I-0.464 J0.38
G1 X258.66 Y303.58
X258.659 Y303.617 Z-4.608
G3 X258.08 Y304.2 Z-4.8 I-0.6 J-0.017
G1 X253.649
G3 X253.234 Y303.091 I-0.047 J-0.614
G1 X254.673 Y301.906
G3 X255.403 Y301.905 I0.366 J0.475
G1 X255.478 Y301.962 Z-4.793
X255.551 Y302.017 Z-4.771
X255.62 Y302.07 Z-4.735
X255.683 Y302.119 Z-4.685
X255.74 Y302.162 Z-4.624
X255.789 Y302.199 Z-4.553
X255.828 Y302.229 Z-4.472
X255.857 Y302.251 Z-4.385
X255.874 Y302.265 Z-4.294
X255.88 Y302.269 Z-4.2
G0 Z2.5
X326.094 Y176.051
Z-3.6
G1 Z-4.2 F1000.
X326.087 Y176.049 Z-4.294
X326.066 Y176.041 Z-4.385
X326.032 Y176.029 Z-4.472
X325.986 Y176.013 Z-4.553
X325.929 Y175.992 Z-4.624
X325.861 Y175.968 Z-4.685
X325.785 Y175.941 Z-4.735
X325.703 Y175.912 Z-4.771
X325.617 Y175.882 Z-4.793
X325.529 Y175.85 Z-4.8
G3 X324.877 Y175.412 I0.53 J-1.491
G1 X322.036 Y171.988
X321.583 Y171.383
G3 X320.909 Y168.681 I3.135 J-2.217
X321.901 Y165.852 I6.181 J0.579
X324.303 Y163.081 I9.477 J5.787
X328.959 Y160.072 I13.165 J15.265
X338.692 Y157.293 I13.002 J27.112
X353.053 Y158.495 I4.237 J35.766
X361.85 Y162.202 I-10.53 J37.285
G1 X362.616 Y162.646
X363.266 Y163.248
G2 X366.047 Y165.447 I63.807 J-77.837
G3 X375.732 Y175.723 I-27.942 J36.038
X383.121 Y193.621 I-40.099 J27.027
X384.168 Y205.071 I-52.906 J10.614
X382.009 Y220.833 I-64.46 J-0.802
X376.468 Y235.761 I-76.117 J-19.758
X373.145 Y242.02 I-76.145 J-36.411
G1 X372.653 Y242.757
X372.082 Y243.435
X371.432 Y244.036
X371.174 Y244.213
G3 X370.303 Y243.993 I-0.339 J-0.495
G1 X369.726 Y242.878
X369.619 Y242.676
X369.511 Y242.475
G3 X369.652 Y241.758 I0.538 J-0.266
G1 X369.723 Y241.696 Z-4.793
X369.792 Y241.636 Z-4.771
X369.857 Y241.578 Z-4.735
X369.917 Y241.525 Z-4.685
X369.971 Y241.478 Z-4.624
X370.017 Y241.438 Z-4.553
X370.054 Y241.405 Z-4.472
X370.081 Y241.381 Z-4.385
X370.097 Y241.367 Z-4.294
X370.103 Y241.362 Z-4.2
G0 Z2.5
X334.76 Y123.119
Z-3.6
G1 Z-4.2 F1000.
X334.766 Y123.123 Z-4.294
X334.785 Y123.134 Z-4.385
X334.815 Y123.153 Z-4.472
X334.857 Y123.179 Z-4.553
X334.909 Y123.211 Z-4.624
X334.97 Y123.248 Z-4.685
X335.039 Y123.29 Z-4.735
X335.113 Y123.336 Z-4.771
X335.191 Y123.384 Z-4.793
X335.271 Y123.433 Z-4.8
G3 X335.816 Y123.998 I-0.83 J1.347
G1 X335.9 Y124.158
X335.968 Y124.258
X336.286 Y124.661
X336.42 Y124.818
X338.434 Y127.022
G3 X339.164 Y127.95 I-6.051 J5.511
X339.842 Y130.678 I-4.185 J2.488
X339.321 Y133.631 I-9.538 J-0.159
X337.872 Y137.347 I-27.02 J-8.396
X332.379 Y148.469 I-206.98 J-95.31
X326.541 Y159.162 I-259.685 J-134.84
G1 X326.484 Y159.239 Z-4.78
X326.416 Y159.306 Z-4.759
X326.338 Y159.362 Z-4.739
X326.252 Y159.404 Z-4.718
X326.16 Y159.432 Z-4.698
X326.065 Y159.445 Z-4.678
X325.969 Y159.443 Z-4.657
X325.875 Y159.425 Z-4.637
X325.793 Y159.397 Z-4.618
X325.716 Y159.356 Z-4.6
G3 X326.348 Y158.336 I0.316 J-0.51
X326.61 Y159.007 I-0.316 J0.51
G1 X323.062 Y171.75
G3 X322.883 Y172.037 I-0.578 J-0.161
G1 X322.814 Y172.09 Z-4.618
X322.738 Y172.132 Z-4.637
G3 X322.036 Y171.988 Z-4.8 I-0.254 J-0.544
G1 X319.696 Y169.169
X319.528 Y168.967
X319.353 Y168.766
G3 X319.333 Y168.035 I0.466 J-0.378
G1 X319.388 Y167.96 Z-4.793
X319.442 Y167.885 Z-4.771
X319.493 Y167.815 Z-4.735
X319.54 Y167.75 Z-4.685
X319.582 Y167.692 Z-4.624
X319.618 Y167.643 Z-4.553
X319.647 Y167.603 Z-4.472
X319.668 Y167.574 Z-4.385
X319.681 Y167.556 Z-4.294
X319.686 Y167.55 Z-4.2
G0 Z2.5
X337.188 Y126.441
Z-3.6
G1 Z-4.2 F1000.
X337.195 Y126.443 Z-4.294
X337.216 Y126.45 Z-4.385
X337.251 Y126.46 Z-4.472
X337.298 Y126.475 Z-4.553
X337.356 Y126.492 Z-4.624
X337.425 Y126.513 Z-4.685
X337.502 Y126.536 Z-4.735
X337.585 Y126.562 Z-4.771
X337.673 Y126.588 Z-4.793
X337.763 Y126.615 Z-4.8
G3 X338.434 Y127.022 I-0.459 J1.515
G1 X342.164 Y131.106
X342.66 Y131.706
X343.064 Y132.495
X343.293 Y133.351
X343.375 Y134.234
X343.336 Y135.119
X343.204 Y135.995
G3 X342.126 Y139.366 I-17.984 J-3.893
X339.522 Y144.994 I-80.07 J-33.632
X334.643 Y154.442 I-248.984 J-122.595
G1 X334.594 Y154.514
X334.535 Y154.578
X334.467 Y154.632
X334.392 Y154.676
X334.312 Y154.709
X334.227 Y154.73
X334.14 Y154.739
X334.053 Y154.735
X333.968 Y154.718
X333.877 Y154.693 Z-4.793
X333.789 Y154.669 Z-4.771
X333.705 Y154.646 Z-4.735
X333.628 Y154.624 Z-4.685
X333.559 Y154.606 Z-4.624
X333.5 Y154.589 Z-4.553
X333.452 Y154.576 Z-4.472
X333.418 Y154.567 Z-4.385
X333.396 Y154.561 Z-4.294
X333.389 Y154.559 Z-4.2
G0 Z2.5
X340.919 Y130.525
Z-3.6
G1 Z-4.2 F1000.
X340.926 Y130.527 Z-4.294
X340.947 Y130.533 Z-4.385
X340.981 Y130.544 Z-4.472
X341.028 Y130.558 Z-4.553
X341.087 Y130.576 Z-4.624
X341.155 Y130.596 Z-4.685
X341.232 Y130.62 Z-4.735
X341.315 Y130.645 Z-4.771
X341.403 Y130.671 Z-4.793
X341.493 Y130.699 Z-4.8
G3 X342.164 Y131.106 I-0.459 J1.515
G1 X344.274 Y133.415
X344.476 Y133.644
X344.721 Y133.925
X345.684 Y135.036
X346.189 Y135.681
X346.572 Y136.48
X346.781 Y137.341
X346.844 Y138.225
X346.79 Y139.11
X346.645 Y139.984
G3 X345.533 Y143.344 I-18.796 J-4.355
X342.096 Y150.539 I-96.204 J-41.536
X340.781 Y153.101 I-106.37 J-52.966
G1 X340.733 Y153.173 Z-4.781
X340.675 Y153.238 Z-4.763
X340.608 Y153.294 Z-4.744
G3 X339.964 Y153.327 Z-4.6 I-0.347 J-0.489
X339.679 Y152.654 I0.296 J-0.522
G1 X344.254 Y135.03
G3 X344.878 Y134.582 I0.581 J0.151
G1 X344.952 Y134.592 Z-4.616
X345.023 Y134.611 Z-4.631
X345.047 Y134.62 Z-4.637
G3 X345.684 Y135.036 Z-4.8 I-0.522 J1.494
G1 X349.086 Y138.96
X349.617 Y139.638
G3 X350.502 Y142.297 I-3.643 J2.69
X350.147 Y145.079 I-8.277 J0.358
X348.864 Y148.553 I-20.899 J-5.748
X346.54 Y153.335 I-86.297 J-38.977
G1 X346.488 Y153.415 Z-4.78
X346.423 Y153.485 Z-4.759
X346.348 Y153.544 Z-4.739
X346.264 Y153.59 Z-4.718
X346.174 Y153.623 Z-4.698
X346.08 Y153.641 Z-4.678
X345.984 Y153.643 Z-4.657
X345.889 Y153.63 Z-4.637
X345.806 Y153.606 Z-4.618
X345.727 Y153.569 Z-4.6
G3 X345.429 Y152.931 I0.291 J-0.525
G1 X348.058 Y139.255
G3 X348.238 Y138.929 I0.589 J0.113
X349.086 Y138.96 Z-4.8 I0.408 J0.44
G1 X351.927 Y142.237
G3 X352.891 Y143.391 I-43.533 J37.352
G1 X353.378 Y144.047
G3 X354.213 Y146.724 I-3.786 J2.65
X353.812 Y149.563 I-8.509 J0.246
X352.465 Y153.063 I-21.24 J-6.164
G1 X352.284 Y153.468
X352.141 Y153.768
X352.133 Y153.878
X352.165 Y153.984
X352.234 Y154.071
X352.329 Y154.128
X353.204 Y154.269
G3 X356.4 Y154.382 I1.316 J8.006
X359.694 Y155.393 I-3.482 J17.226
X364.536 Y157.764 I-11.898 J30.429
X372.146 Y163.76 I-53.387 J75.582
X382.117 Y176.125 I-33.774 J37.439
G1 X382.553 Y176.896
X382.815 Y177.743
G2 X384.501 Y181.84 I91.208 J-35.14
G3 X388.932 Y205.181 I-53.913 J22.326
X386.898 Y220.964 I-68.217 J-0.767
X385.737 Y225.239 I-64.265 J-15.164
X377.583 Y243.87 I-85.363 J-26.261
G1 X377.1 Y244.612
X376.585 Y245.333
X376.024 Y246.019
X375.42 Y246.668
X374.762 Y247.261
X374.041 Y247.777
X373.257 Y248.189
X373.085 Y248.25
G3 X372.353 Y247.96 I-0.199 J-0.566
G1 X370.303 Y243.993
G3 X370.457 Y243.279 I0.542 J-0.257
G1 X370.528 Y243.218 Z-4.793
X370.598 Y243.159 Z-4.771
X370.664 Y243.102 Z-4.735
X370.725 Y243.05 Z-4.685
X370.78 Y243.004 Z-4.624
X370.827 Y242.964 Z-4.553
X370.864 Y242.933 Z-4.472
X370.892 Y242.909 Z-4.385
X370.908 Y242.895 Z-4.294
X370.914 Y242.89 Z-4.2
G0 Z2.5
X351.677 Y142.745
Z-3.6
G1 Z-4.2 F1000.
X351.684 Y142.748 Z-4.294
X351.705 Y142.755 Z-4.385
X351.739 Y142.768 Z-4.472
X351.785 Y142.784 Z-4.553
X351.842 Y142.805 Z-4.624
X351.91 Y142.829 Z-4.685
X351.985 Y142.857 Z-4.735
X352.067 Y142.886 Z-4.771
X352.153 Y142.917 Z-4.793
X352.241 Y142.949 Z-4.8
G3 X352.891 Y143.39 I-0.537 J1.489
G1 X356.535 Y147.821
X359.58 Y151.524
X359.684 Y151.647
X360.027 Y152.05
G2 X362.601 Y152.931 I2.152 J-2.088
G1 X363.436 Y152.846
X364.317 Y152.949
X365.176 Y153.165
X366.007 Y153.472
G3 X369.071 Y155.242 I-7.128 J15.876
X380.268 Y165.263 I-34.707 J50.048
X385.923 Y173.188 I-43.437 J36.978
G1 X386.339 Y173.97
G3 X390.059 Y182.977 I-129.931 J58.927
X392.249 Y190.641 I-61.998 J21.866
G1 X392.43 Y191.509
X392.49 Y191.812
X392.501 Y191.939
X392.485 Y192.065
X392.443 Y192.186
X391.702 Y193.738
G2 X391.371 Y194.543 I4.828 J2.452
X391.862 Y197.157 I2.931 J0.802
G1 X391.991 Y197.363
X392.469 Y198.11
X392.844 Y198.912
X393.123 Y199.753
G3 X393.626 Y203.255 I-16.119 J4.106
X393.297 Y212.101 I-55.475 J2.364
X388.833 Y231.027 I-79.168 J-8.682
X382.161 Y245.493 I-87.894 J-31.77
X380.157 Y248.414 I-22.368 J-13.201
X377.648 Y250.907 I-11.77 J-9.335
G1 X376.928 Y251.425
X376.17 Y251.883
X375.367 Y252.258
X375.166 Y252.321
G3 X374.453 Y252.024 I-0.18 J-0.572
G1 X372.353 Y247.96
G3 X372.507 Y247.246 I0.542 J-0.257
G1 X372.578 Y247.185 Z-4.793
X372.648 Y247.126 Z-4.771
X372.714 Y247.069 Z-4.735
X372.776 Y247.017 Z-4.685
X372.83 Y246.971 Z-4.624
X372.877 Y246.931 Z-4.553
X372.914 Y246.9 Z-4.472
X372.942 Y246.876 Z-4.385
X372.959 Y246.862 Z-4.294
X372.964 Y246.857 Z-4.2
G0 Z2.5
X390.824 Y196.636
Z-3.6
G1 Z-4.2 F1000.
X390.831 Y196.639 Z-4.294
X390.851 Y196.648 Z-4.385
X390.884 Y196.663 Z-4.472
X390.929 Y196.683 Z-4.553
X390.985 Y196.707 Z-4.624
X391.05 Y196.736 Z-4.685
X391.124 Y196.768 Z-4.735
X391.203 Y196.803 Z-4.771
X391.287 Y196.84 Z-4.793
X391.373 Y196.878 Z-4.8
G3 X391.991 Y197.363 I-0.638 J1.448
G2 X394.362 Y198.773 I2.525 J-1.548
G1 X394.769 Y198.818
X395.402 Y199.032
X396.082 Y199.445
X396.723 Y200.056
X397.231 Y200.783
X397.616 Y201.581
X397.898 Y202.421
G3 X398.359 Y205.927 I-14.526 J3.693
X398. Y213.001 I-49.683 J1.026
X393.583 Y231.944 I-83.524 J-9.489
X387.503 Y245.71 I-92.548 J-32.65
X384.189 Y250.945 I-32.444 J-16.872
X380.43 Y254.686 I-16.487 J-12.807
G1 X379.705 Y255.196
X378.953 Y255.665
X378.172 Y256.082
X377.352 Y256.419
X377.172 Y256.469
G3 X376.472 Y256.151 I-0.159 J-0.578
G1 X375.087 Y253.275
X374.886 Y252.861
X374.453 Y252.024
G3 X374.607 Y251.31 I0.542 J-0.257
G1 X374.679 Y251.249 Z-4.793
X374.749 Y251.19 Z-4.771
X374.815 Y251.133 Z-4.735
